!!!!SEGMENT: pl-cz--iii-669--001-002_scigalski-franciszek--missa-in-b-gloria.krn
!!!cenid: 18xx:1107
!!!COM: Ścigalski, Franciszek
!!!COM-rismid: pe30002948
!!!CDT: 1782/01/29-1846/09/27
!!!CNT: Polish
!!!OPR: Missa in B
!!!OTL: Gloria
!!!OMV: 002
!!!PDT:
!!!AGN: Sacred; Mass
!!!SMS-siglum: PL-CZ
!!!SMS-shelfmark: III-669
!!!SMS-shelfwork: 001-002 M
!!!SMS-variant:
!!!SMS-altvar:
!!!NIFC-rismid: 300001314
!!!URL-scan: http://repozytorium.nifc.pl/skany/pl-cz-nut--iii-669
!!!ONB-nifc: UWAGA: części Mszy: Kyrie, Gloria, Qui tollis, Quoniam, Credo, Et incarnatus, Et resurrexit, Sanctus, Benedictus, Agnus Dei, Dona nobis
**kern	**fba	**dynam	**kern	**dynam	**kern	**dynam	**kern	**dynam	**kern	**text	**kern	**text	**kern	**text	**kern	**text	**kern	**kern	**kern	**kern	**kern	**dynam	**kern	**dynam	**kern	**dynam	**kern
*part16	*part16	*part16	*part15	*part15	*part14	*part14	*part13	*part13	*part12	*part12	*part11	*part11	*part10	*part10	*part9	*part9	*part8	*part7	*part6	*part5	*part4	*part4	*part3	*part3	*part2	*part2	*part1
*staff16	*	*	*staff15	*	*staff14	*	*staff13	*	*staff12	*staff12	*staff11	*staff11	*staff10	*staff10	*staff9	*staff9	*staff8	*staff7	*staff6	*staff5	*staff4	*	*staff3	*	*staff2	*	*staff1
*Iorgan	*	*	*Iviola	*	*Ivioln	*	*Ivioln	*	*Iempty	*	*Itenor	*	*Ialto	*	*Ivox	*	*Iempty	*Iempty	*Iempty	*Iempty	*Ifagot	*	*Iclars	*	*Iclars	*	*Iempty
*I"Organo	*	*	*I"Alto Viola	*	*I"Violino 2do	*	*I"Violino Primo	*	*I"Baſso	*	*I"Tenore	*	*I"Alto	*	*I"Canto	*	*I"Tympano in B. F.	*I"Claryino Princypalo in B	*I"Corno Sekundo in B	*I"Cornu Prymo in B	*I"Fagotto Oblgato	*	*I"Clarinetto 2do in B	*	*I"Clarinetto 1mo in B	*	*I"Flauto Obligato
*I'org	*	*	*I'a-vla	*	*I'vl 2	*	*I'vl 1	*	*I'B	*	*I'T	*	*I'A	*	*I'S	*	*I'timp	*I'clno solo	*I'cor 2 in B	*I'cor 1 in B	*I'fag	*	*I'cl 2	*	*I'cl 1	*	*I'fl
*clefF4	*	*	*clefC3	*	*clefG2	*	*clefG2	*	*clefF4	*	*clefC4	*	*clefC3	*	*clefC1	*	*clefF4	*clefG2	*clefG2	*clefG2	*clefF4	*	*clefG2	*	*clefG2	*	*clefG2
*	*	*	*	*	*	*	*	*	*	*	*	*	*	*	*	*	*ITrd1c2	*ITrd1c2	*ITrd1c2	*ITrd1c2	*	*	*ITrd1c2	*	*ITrd1c2	*	*
*k[e-b-]	*	*	*k[e-b-]	*	*k[e-b-]	*	*k[e-b-]	*	*k[e-b-]	*	*k[e-b-]	*	*k[e-b-]	*	*k[e-b-]	*	*k[e-b-]	*k[e-b-]	*k[e-b-]	*k[e-b-]	*k[b-e-]	*	*k[e-b-]	*	*k[e-b-]	*	*k[b-e-]
*B-:	*	*	*B-:	*	*B-:	*	*B-:	*	*B-:	*	*B-:	*	*B-:	*	*B-:	*	*B-:	*B-:	*B-:	*B-:	*B-:	*	*B-:	*	*B-:	*	*B-:
*M2/2	*	*	*M2/2	*	*M2/2	*	*M2/2	*	*M2/2	*	*M2/2	*	*M2/2	*	*M2/2	*	*M2/2	*M2/2	*M2/2	*M2/2	*M2/2	*	*M2/2	*	*M2/2	*	*M2/2
*met(c|)	*	*	*met(c|)	*	*met(c|)	*	*met(c)	*	*met(c|)	*	*met(c|)	*	*met(c|)	*	*met(c|)	*	*met(c|)	*met(c|)	*met(c|)	*met(c|)	*met(c|)	*	*met(c|)	*	*met(c|)	*	*met(c|)
=1	=1	=1	=1	=1	=1	=1	=1	=1	=1	=1	=1	=1	=1	=1	=1	=1	=1	=1	=1	=1	=1	=1	=1	=1	=1	=1	=1
!	!	!	!	!	!	!	!	!	!	!	!	!	!	!	!	!	!	!LO:TX:a:t=P:problem:brak znaków	!LO:TX:a:t=P:problem:brak znaków	!LO:TX:a:t=P:problem:brak znaków	!	!	!	!	!	!	!LO:TX:a:t=P:problem:all\right GLOBAL
!LO:TX:rj:a:t=pedal	!	!	!	!	!	!	!LO:TX:t=P:problem:metrum:common time	!	!LO:TX:a:t=Allo Molto	!	!	!	!	!	!LO:TX:a:t=Allo molto	!	!	!LO:TX:a:t=7	!	!	!	!	!	!	!	!	!LO:TX:a:t=7
!LO:TX:rj:a:t=Allo molto	!	!LO:DY:rj:t=p&colon;	!LO:TX:a:t=Allo&colon; Molto.	!LO:DY:b:rj:t=p&colon;	!	!LO:DY:b:rj:t=p.	!LO:TX:a:t=Allo&colon;	!	!	!	!LO:TX:a:t=Allo	!	!LO:TX:a:t=Allo&colon; molto	!	!	!	!LO:TX:a:t=7	!LO:TX:a:t=Allo molto	!LO:TX:a:t=Allo molto	!LO:TX:a:t=Allo molto	!LO:TX:a:t=Allo molto&colon;	!	!LO:TX:a:t=allo&colon; Molto.	!	!	!LO:DY:b:t=pia.	!LO:TX:a:t=Allo&colon; Molto.
4B-\	3	p	4f\	p	4dd/ 4f/ 4B-/	p	8r	.	4B-\	Glo-	4B-\	Glo-	4f\	Glo-	4dd\	Glo-	00r	00r	4r	4r	8BB-/L	.	4f/	.	4dd\	p	00r
.	.	.	.	.	.	.	16bb-\LL	.	.	.	.	.	.	.	.	.	.	.	.	.	8C/	.	.	.	.	.	.
.	.	.	.	.	.	.	16ccc\JJ	.	.	.	.	.	.	.	.	.	.	.	.	.	.	.	.	.	.	.	.
4r	.	.	4r	.	4r	.	4ddd\	.	8B-\	-ri-	8B-\	-ria-	8f\	-ri-	8dd\	-ri-	.	.	4b-\	4dd\	8D/	.	8f/L	.	8dd\L	.	.
.	.	.	.	.	.	.	.	.	8B-\	-a	8B-\	-a	8f\	-a	8dd\	-a	.	.	.	.	8BB-/J	.	8f/J	.	8dd\J	.	.
4F\	5	.	4f\	.	4cc/ 4f/ 4A/	.	8r	.	4F\	in	4f\	in	4e-\	in	4cc\	in	.	.	4r	4r	8F\L	.	4e-/	.	4cc\	.	.
.	.	.	.	.	.	.	16ff\LL	.	.	.	.	.	.	.	.	.	.	.	.	.	8G\	.	.	.	.	.	.
.	.	.	.	.	.	.	16gg\JJ	.	.	.	.	.	.	.	.	.	.	.	.	.	.	.	.	.	.	.	.
4r	.	.	4r	.	4r	.	4aa\	.	4F\	ex-	4f\	ex-	4e-\	ex-	4cc\	ex-	.	.	4f/	4cc\	8A\	.	8e-/L	.	8cc\L	.	.
.	.	.	.	.	.	.	.	.	.	.	.	.	.	.	.	.	.	.	.	.	8F\J	.	8e-/J	.	8cc\J	.	.
=2	=2	=2	=2	=2	=2	=2	=2	=2	=2	=2	=2	=2	=2	=2	=2	=2	=2	=2	=2	=2	=2	=2	=2	=2	=2	=2	=2
*	*	*	*	*	*	*	*	*	*	*	*2\right	*	*2\right	*	*2\right	*	*	*	*	*	*	*	*	*	*	*	*
!	!	!	!	!	!	!	!	!	!	!	!	!	!	!	!	!	!	!	!LO:TX:t=P:problem:\left	!	!	!	!	!	!	!	!
4BB-/	8 3	.	4f\	.	4b-/ 4f/ 4B-/	.	16bb-\LL	.	2BB-/	-cel-	2B-\	-cel-	2d\	-cel-	2b-\	-cel-	.	.	4d/	4r	8B-\L	.	4d/	.	4b-\	.	.
.	.	.	.	.	.	.	16ccc\J	.	.	.	.	.	.	.	.	.	.	.	.	.	.	.	.	.	.	.	.
.	.	.	.	.	.	.	8ddd\J	.	.	.	.	.	.	.	.	.	.	.	.	.	8c\	.	.	.	.	.	.
4BB-/	8 3	.	4f\	.	4b-/ 4f/ 4B-/	.	16bb-\LL	.	.	.	.	.	.	.	.	.	.	.	4d/	4b-\	8d\	.	8d/L	.	8b-\L	.	.
.	.	.	.	.	.	.	16ccc\J	.	.	.	.	.	.	.	.	.	.	.	.	.	.	.	.	.	.	.	.
.	.	.	.	.	.	.	8ddd\J	.	.	.	.	.	.	.	.	.	.	.	.	.	8c\J	.	8d/J	.	8b-\J	.	.
4BB-/	8 3	.	4f\	.	4b-/ 4f/ 4B-/	.	4bb-\	.	4BB-/	-sis	4B-\	-sis	4d\	-sis	4b-\	-sis	.	.	4d/	4b-\	8B-\L	.	4d/	.	4b-\	.	.
.	.	.	.	.	.	.	.	.	.	.	.	.	.	.	.	.	.	.	.	.	8F\	.	.	.	.	.	.
4r	.	.	4r	.	4r	.	4r	.	4r	.	4r	.	4r	.	4r	.	.	.	4r	4b-\	8D\	.	8a\L	.	8cc\L	.	.
.	.	.	.	.	.	.	.	.	.	.	.	.	.	.	.	.	.	.	.	.	8BB-\J	.	8b-\J	.	8dd\J	.	.
!	!	!	!	!	!	!	!	!	!	!	!	!	!	!	!	!	!	!	!LO:LB:g=original	!	!	!	!	!	!	!	!
=3	=3	=3	=3	=3	=3	=3	=3	=3	=3	=3	=3	=3	=3	=3	=3	=3	=3	=3	=3	=3	=3	=3	=3	=3	=3	=3	=3
4F\	5	.	4f\	.	4cc/ 4f/ 4A/	.	8r	.	4.F\	in	4.f\	in	4.a\	in	4.cc\	in	.	.	4r	4r	8F\L	.	4a\	.	4cc\	.	.
.	.	.	.	.	.	.	16ff\LL	.	.	.	.	.	.	.	.	.	.	.	.	.	8G\	.	.	.	.	.	.
.	.	.	.	.	.	.	16gg\JJ	.	.	.	.	.	.	.	.	.	.	.	.	.	.	.	.	.	.	.	.
!	!	!	!	!	!	!	!	!	!	!	!	!	!	!	!	!	!	!	!LO:TX:t=P:problem:\left	!	!	!	!	!	!	!	!
4r	.	.	4r	.	4r	.	4aa\	.	.	.	.	.	.	.	.	.	.	.	4f/	4cc\	8A\	.	8a\L	.	8cc\L	.	.
.	.	.	.	.	.	.	.	.	8F\	ex-	8f\	ex-	8a\	ex-	8cc\	ex-	.	.	.	.	8F\J	.	8a\J	.	8cc\J	.	.
!	!	!	!	!	!	!	!LO:LB:g=original	!	!	!	!	!	!	!	!	!	!	!	!	!	!	!	!	!	!	!	!
4B-\	3	.	4f\	.	4dd/ 4f/ 4B-/	.	8r	.	4.B-\	-cel-	4.B-\	-cel-	4.b-\	-cel-	4.dd\	-cel-	.	.	4r	4r	8B-\L	.	4b-\	.	4dd\	.	.
.	.	.	.	.	.	.	16bb-\LL	.	.	.	.	.	.	.	.	.	.	.	.	.	8c\	.	.	.	.	.	.
.	.	.	.	.	.	.	16ccc\JJ	.	.	.	.	.	.	.	.	.	.	.	.	.	.	.	.	.	.	.	.
4r	.	.	4r	.	4r	.	4ddd\	.	.	.	.	.	.	.	.	.	.	.	4b-\	4dd\	8d\	.	8b-\L	.	8dd\L	.	.
.	.	.	.	.	.	.	.	.	8B-\	-sis	8B-\	-sis	8b-\	-sis	8dd\	-sis	.	.	.	.	8B-\J	.	8b-\J	.	8dd\J	.	.
!	!	!	!	!	!	!	!	!	!	!	!	!	!	!	!	!	!	!	!	!	!	!	!LO:LB:g=original	!	!	!	!
=4	=4	=4	=4	=4	=4	=4	=4	=4	=4	=4	=4	=4	=4	=4	=4	=4	=4	=4	=4	=4	=4	=4	=4	=4	=4	=4	=4
*	*	*	*	*	*	*	*	*	*2\right	*	*	*	*	*	*	*	*	*	*	*	*	*	*	*	*	*	*
!	!	!	!	!	!	!	!	!	!	!	!	!	!	!	!	!	!	!	!LO:TX:t=P:problem:\left:cały takt	!	!	!	!	!	!	!	!
4F\	5 3	.	4f\	.	4cc/ 4f/ 4A/	.	16aa\LL	.	2F\	De-	2f\	De-	2a\	De-	2dd\	De-	.	.	4f/	4cc\	8A\L	.	4a\	.	4cc\	.	.
.	.	.	.	.	.	.	16bb-\J	.	.	.	.	.	.	.	.	.	.	.	.	.	.	.	.	.	.	.	.
.	.	.	.	.	.	.	8ccc\J	.	.	.	.	.	.	.	.	.	.	.	.	.	8B-\	.	.	.	.	.	.
4F\	5 3	.	4f\	.	4cc/ 4f/ 4A/	.	16aa\LL	.	.	.	.	.	.	.	.	.	.	.	4f/	4cc\	8c\	.	8a\L	.	8cc\L	.	.
.	.	.	.	.	.	.	16bb-\J	.	.	.	.	.	.	.	.	.	.	.	.	.	.	.	.	.	.	.	.
.	.	.	.	.	.	.	8ccc\J	.	.	.	.	.	.	.	.	.	.	.	.	.	8A\J	.	8a\J	.	8cc\J	.	.
4F\	5 3	.	4f\	.	4cc/ 4f/ 4A/	.	4aa\	.	4F\	-o	4f\	-o	4a\	-o	4cc\	-o	.	.	4f/	4cc\	8F\L	.	4a\	.	4cc\	.	.
.	.	.	.	.	.	.	.	.	.	.	.	.	.	.	.	.	.	.	.	.	8C\	.	.	.	.	.	.
4r	.	.	4r	.	4r	.	4r	.	4r	.	4r	.	4r	.	4r	.	.	.	4r	4r	8AA\	.	8f/L	.	8a\L	.	.
.	.	.	.	.	.	.	.	.	.	.	.	.	.	.	.	.	.	.	.	.	8C\J	.	8g/J	.	8b-\J	.	.
!	!	!	!	!	!LO:LB:g=original	!	!	!	!	!	!	!	!LO:LB:g=original	!	!	!	!	!	!	!	!LO:LB:g=original	!	!	!	!	!	!
=5	=5	=5	=5	=5	=5	=5	=5	=5	=5	=5	=5	=5	=5	=5	=5	=5	=5	=5	=5	=5	=5	=5	=5	=5	=5	=5	=5
4F\	5	.	4f\	.	4cc/ 4f/ 4A/	.	8r	.	2F\	in	2.f\	in	2.a\	in	2.dd\	in	0r	0r	4r	4r	8F\L	.	4a\	.	4cc\	.	0r
.	.	.	.	.	.	.	16ff\LL	.	.	.	.	.	.	.	.	.	.	.	.	.	8G\	.	.	.	.	.	.
.	.	.	.	.	.	.	16gg\JJ	.	.	.	.	.	.	.	.	.	.	.	.	.	.	.	.	.	.	.	.
!	!	!	!	!	!	!	!	!	!	!	!	!	!	!	!	!	!	!	!LO:TX:t=P:problem:\left:cały takt	!	!	!	!	!	!	!	!
4r	.	.	4r	.	4r	.	4aa\	.	.	.	.	.	.	.	.	.	.	.	4f/	4cc\	8A\	.	8a\L	.	8cc\L	.	.
.	.	.	.	.	.	.	.	.	.	.	.	.	.	.	.	.	.	.	.	.	8F\J	.	8a\J	.	8cc\J	.	.
!	!	!	!	!	!	!	!	!	!	!	!	!	!	!	!	!	!	!	!	!LO:LB:g=original	!	!	!	!	!	!	!
4E-\	6	.	4e-\	.	4cc/ 4f/ 4A/	.	8r	.	2E-\	ex-	.	.	.	.	.	.	.	.	4r	4r	8A\L	.	4a\	.	4cc\	.	.
.	.	.	.	.	.	.	16aa\LL	.	.	.	.	.	.	.	.	.	.	.	.	.	8B-\	.	.	.	.	.	.
.	.	.	.	.	.	.	16bb-\JJ	.	.	.	.	.	.	.	.	.	.	.	.	.	.	.	.	.	.	.	.
4r	.	.	4r	.	4r	.	4ccc\	.	.	.	4f\	ex-	8b-\L	ex-	8dd\L	ex-	.	.	4f/	4cc\	8c\	.	8b-\L	.	8dd\L	.	.
.	.	.	.	.	.	.	.	.	.	.	.	.	8cc\J	.	8ee-\J	.	.	.	.	.	8A\J	.	8cc\J	.	8ee-\J	.	.
!LO:LB:g=original	!	!	!LO:LB:g=original	!	!	!	!	!	!LO:LB:g=original	!	!	!	!	!	!LO:LB:g=original	!	!	!	!	!	!	!	!	!	!	!	!
=6	=6	=6	=6	=6	=6	=6	=6	=6	=6	=6	=6	=6	=6	=6	=6	=6	=6	=6	=6	=6	=6	=6	=6	=6	=6	=6	=6
4D\	3	.	4d\	.	4dd/ 4f/ 4B-/	.	8r	.	2D\	-cel-	2f\	-cel-	2dd\	-cel-	2ff\	-cel-	.	.	4r	4r	8B-\L	.	4dd\	.	4ff\	.	.
.	.	.	.	.	.	.	16bb-\LL	.	.	.	.	.	.	.	.	.	.	.	.	.	8c\	.	.	.	.	.	.
.	.	.	.	.	.	.	16ccc\JJ	.	.	.	.	.	.	.	.	.	.	.	.	.	.	.	.	.	.	.	.
4r	.	.	4r	.	4r	.	4ddd\	.	.	.	.	.	.	.	.	.	.	.	4b-\	4dd\	8d\	.	8dd\L	.	8ff\L	.	.
.	.	.	.	.	.	.	.	.	.	.	.	.	.	.	.	.	.	.	.	.	8B-\J	.	8dd\J	.	8ff\J	.	.
!	!	!	!	!	!LO:TX:a:t=e	!	!	!	!	!	!	!	!	!	!	!	!	!	!	!	!	!	!LO:TX:t=P:problem:mixed beam	!	!	!	!
4E-\	3	.	4e-\	.	4ee-/ 4dd/ 4g/ 4B-/	.	8r	.	2E-\	-sis	2g\	-sis	8dd\L	.	8ff#X\L	.	.	.	4r	4r	8E-\L	.	8dd\L	.	8ff#X\L	.	.
.	.	.	.	.	.	.	16ccc\LL	.	.	.	.	.	8ee-\J	.	8gg\J	.	.	.	.	.	8F\	.	8ee-\	.	8gg\	.	.
.	.	.	.	.	.	.	16ddd\JJ	.	.	.	.	.	.	.	.	.	.	.	.	.	.	.	.	.	.	.	.
!	!	!	!	!	!	!	!	!	!	!	!	!	!	!	!	!	!	!	!	!	!	!	!	!	!LO:TX:a:t=f	!	!
4r	.	.	4r	.	4r	.	4eee-\	.	.	.	.	.	8g\L	-sis	8ee-\L	sis	.	.	4b-\	4ee-\	8G\	.	8g/	.	8ee-\	.	.
.	.	.	.	.	.	.	.	.	.	.	.	.	8e-\J	.	8cc\J	.	.	.	.	.	8E-\J	.	8e-/J	.	8cc\J	.	.
!	!	!	!	!	!	!	!LO:LB:g=original	!	!	!	!LO:LB:g=original	!	!	!	!	!	!	!	!	!	!	!	!	!	!	!	!
=7	=7	=7	=7	=7	=7	=7	=7	=7	=7	=7	=7	=7	=7	=7	=7	=7	=7	=7	=7	=7	=7	=7	=7	=7	=7	=7	=7
!	!	!	!	!	!	!	!	!	!	!	!	!	!	!	!	!	!	!	!	!	!	!	!	!	!	!LO:DY:t=for	!
4F\	4	.	4f\	.	4dd/ 4f/ 4B-/	.	8r	.	1F\	De-	2f\	De-	2f\	De-	2dd\	De-	1r	1r	4r	4r	8BB-/L	.	4f/	.	4dd\	f	1r
.	.	.	.	.	.	.	16bb-\LL	.	.	.	.	.	.	.	.	.	.	.	.	.	8C/	.	.	.	.	.	.
.	.	.	.	.	.	.	16ccc\JJ	.	.	.	.	.	.	.	.	.	.	.	.	.	.	.	.	.	.	.	.
4r	.	.	4r	.	4r	.	4ddd\	.	.	.	.	.	.	.	.	.	.	.	4b-\	4dd\	8D/	.	8f/L	.	8dd\L	.	.
.	.	.	.	.	.	.	.	.	.	.	.	.	.	.	.	.	.	.	.	.	8BB-/J	.	8f/J	.	8dd\J	.	.
!	!	!	!	!	!	!	!	!	!	!	!	!	!	!	!	!	!	!	!	!	!	!	!	!	!LO:LB:g=original	!	!
4FF/	3	.	4F/	.	4cc/ 4f/ 4A/	.	8r	.	.	.	2f\	.	2e-\	.	2cc\	.	.	.	4r	4r	8F\L	.	4e-/	.	4cc\	.	.
.	.	.	.	.	.	.	16ff\LL	.	.	.	.	.	.	.	.	.	.	.	.	.	8G\	.	.	.	.	.	.
.	.	.	.	.	.	.	16gg\JJ	.	.	.	.	.	.	.	.	.	.	.	.	.	.	.	.	.	.	.	.
!	!	!	!	!	!	!	!	!	!	!	!	!	!	!	!	!	!	!	!LO:TX:t=P:problem:\left	!	!	!	!	!	!	!	!
4r	.	.	4r	.	4r	.	4aa\	.	.	.	.	.	.	.	.	.	.	.	4f/	4cc\	8A\	.	8e-/L	.	8cc\L	.	.
!	!	!	!	!	!	!	!	!	!	!	!	!	!	!	!	!	!	!	!	!	!	!	!	!LO:DY:b:t=fo	!	!	!
.	.	.	.	.	.	.	.	.	.	.	.	.	.	.	.	.	.	.	.	.	8F\J	.	8e-/J	f	8cc\J	.	.
!	!	!	!	!	!	!	!	!	!	!	!	!	!	!	!	!	!	!	!	!	!	!	!LO:LB:g=original	!	!	!	!
=8	=8	=8	=8	=8	=8	=8	=8	=8	=8	=8	=8	=8	=8	=8	=8	=8	=8	=8!|:	=8	=8!|:	=8	=8	=8	=8	=8	=8	=8
*	*	*	*2\right	*	*	*	*	*	*	*	*	*	*	*	*	*	*	*2\right	*	*2\right	*	*	*	*	*2\right	*	*
*tremolo	*	*	*tremolo	*	*	*	*	*	*	*	*	*	*	*	*	*	*tremolo	*tremolo	*	*tremolo	*	*	*	*	*tremolo	*	*
!	!	!LO:DY:b:t=for	!	!LO:DY:b:rj:t=f&colon;	!LO:TX:t=P:problem:mixed beam	!LO:DY:b:rj	!	!	!	!	!	!	!	!	!	!	!LO:TX:t=P:problem:4 kropki staccato	!LO:TX:t=P:problem:4 kropki staccato	!LO:TX:t=P:problem:\left	!LO:TX:t=P:problem:4 kropki staccato	!LO:TX:t=P:problem:mixed beam	!	!	!	!	!	!LO:TX:t=P:problem:mixed beam
8BB-/L	.	f	8B-\L	f	8b-\L	f	8bb-\L	.	4BB-/	-o	4f\	-o	4d\	-o	4b-\	-o	8BB-'/L	8b-'\L	8d/L	8b-'\L	8B-\L	.	8d/L	.	8b-\L	.	8bb-\L
8BB-/	.	.	8B-\	.	8B-/	.	8b-\	.	.	.	.	.	.	.	.	.	8BB-'/	8b-'\	8B-/	8b-'\	8BB-/	.	8B-/	.	8b-\	.	8b-/
8BB-/	.	.	8B-\	.	8B-/	.	8b-\	.	4r	.	4r	.	4r	.	4r	.	8BB-'/	8b-'\	8B-/	8b-'\	8BB-/	.	8B-/	.	8b-\	.	8b-/
8BB-/J	.	.	8B-\J	.	8B-/J	.	8b-\J	.	.	.	.	.	.	.	.	.	8BB-'/J	8b-'\J	8B-/J	8b-'\J	8BB-/J	.	8B-/J	.	8b-\J	.	8b-/J
*Xtremolo	*	*	*Xtremolo	*	*	*	*	*	*	*	*	*	*	*	*	*	*Xtremolo	*Xtremolo	*	*Xtremolo	*	*	*	*	*Xtremolo	*	*
!LO:TX:b:t=unisono	!	!	!	!	!	!	!	!	!	!	!	!	!	!	!	!	!	!	!	!	!	!	!	!	!	!	!
8BB-'/L	.	.	8B-\L	.	8B-/L	.	16b-\LL	.	2r	.	2r	.	2r	.	2r	.	4BB-/	4b-\	4B-/	4b-\	4BB-/	.	4B-/	.	4b-\	.	4b-/
.	.	.	.	.	.	.	16cc\J	.	.	.	.	.	.	.	.	.	.	.	.	.	.	.	.	.	.	.	.
16C'/L	.	.	16c\L	.	16c/L	.	8dd\J	.	.	.	.	.	.	.	.	.	.	.	.	.	.	.	.	.	.	.	.
16D'/JJ	.	.	16d\JJ	.	16d/JJ	.	.	.	.	.	.	.	.	.	.	.	.	.	.	.	.	.	.	.	.	.	.
16E-'\LL	.	.	16e-\LL	.	16e-/LL	.	16ee-\LL	.	.	.	.	.	.	.	.	.	4r	4r	4r	4r	4r	.	4r	.	4r	.	4r
16F'\	.	.	16f\	.	16f/	.	16ff\	.	.	.	.	.	.	.	.	.	.	.	.	.	.	.	.	.	.	.	.
16G'\	.	.	16g\	.	16g/	.	16gg\	.	.	.	.	.	.	.	.	.	.	.	.	.	.	.	.	.	.	.	.
16A'\JJ	.	.	16a\JJ	.	16a/JJ	.	16aa\JJ	.	.	.	.	.	.	.	.	.	.	.	.	.	.	.	.	.	.	.	.
!	!	!	!	!	!	!	!	!	!	!	!	!	!LO:PB:g=original	!	!	!	!	!	!LO:LB:g=original	!	!	!	!	!	!	!	!
=9	=9	=9	=9	=9	=9	=9	=9	=9	=9	=9	=9	=9	=9	=9	=9	=9	=9	=9	=9	=9	=9	=9	=9	=9	=9	=9	=9
4r	.	.	4r	.	4r	.	16bb-\LL	.	4B-\	Glo-	4B-\	Glo-	4f\	Glo-	4dd\	Glo-	4r	4r	4b-\	4dd\	4d\	.	4f/	.	4dd\	.	4ddd\
.	.	.	.	.	.	.	16ccc\J	.	.	.	.	.	.	.	.	.	.	.	.	.	.	.	.	.	.	.	.
.	.	.	.	.	.	.	8ddd\J	.	.	.	.	.	.	.	.	.	.	.	.	.	.	.	.	.	.	.	.
4B-\	3	.	4f\	.	4b-/ 4f/ 4B-/	.	16bb-\LL	.	8B-\	-ri-	8B-\	-ri-	8f\	-ri-	8dd\	-ri-	4BB-/	4b-\	8b-\L	8dd\L	8d\L	.	8f/L	.	8dd\L	.	8ddd\L
.	.	.	.	.	.	.	16ccc\J	.	.	.	.	.	.	.	.	.	.	.	.	.	.	.	.	.	.	.	.
.	.	.	.	.	.	.	8ddd\J	.	8B-\	-a	8B-\	-a	8f\	-a	8dd\	-a	.	.	8b-\J	8dd\J	8d\J	.	8f/J	.	8dd\J	.	8ddd\J
4r	.	.	4r	.	4r	.	16ff\LL	.	4F\	in	4f\	in	4e-\	in	4cc\	in	4r	4r	4f/	4cc\	4c\	.	4e-/	.	4cc\	.	4ccc\
.	.	.	.	.	.	.	16gg\J	.	.	.	.	.	.	.	.	.	.	.	.	.	.	.	.	.	.	.	.
.	.	.	.	.	.	.	8aa\J	.	.	.	.	.	.	.	.	.	.	.	.	.	.	.	.	.	.	.	.
!	!	!	!	!	!	!	!	!	!	!	!	!	!	!	!	!	!LO:SIC:s:v==4GG	!	!	!	!	!	!	!	!	!	!
4F\	5	.	4f\	.	4cc/ 4f/ 4A/	.	16ff\LL	.	4F\	ex-	4f\	ex-	4e-\	ex-	4cc\	ex-	4BB-/ 4FF/	4f/	8f/L	8cc\L	8c\L	.	8e-/L	.	8cc\L	.	8ccc\L
.	.	.	.	.	.	.	16gg\J	.	.	.	.	.	.	.	.	.	.	.	.	.	.	.	.	.	.	.	.
.	.	.	.	.	.	.	8aa\J	.	.	.	.	.	.	.	.	.	.	.	8f/J	8cc\J	8c\J	.	8e-/J	.	8cc\J	.	8ccc\J
=10	=10	=10	=10	=10	=10	=10	=10	=10	=10	=10	=10	=10	=10	=10	=10	=10	=10	=10:|!	=10	=10:|!	=10	=10	=10	=10	=10	=10	=10
*tremolo	*	*	*tremolo	*	*	*	*	*	*	*	*	*	*	*	*	*	*tremolo	*tremolo	*	*tremolo	*	*	*	*	*tremolo	*	*
!LO:TX:t=P:problem:4 kropki	!	!	!	!	!	!	!	!	!	!	!	!	!	!	!	!	!LO:TX:t=P:problem:4 kropki staccato	!LO:TX:t=P:problem:4 kropki staccato	!LO:N:vis=4	!LO:TX:t=P:problem:4 kropki staccato	!LO:TX:t=P:problem:mixed beam	!	!	!	!	!	!LO:TX:t=P:problem:mixed beam
8BB-'/L	.	.	8B-\L	.	8b-/L	.	8bb-\L	.	2BB-/	-cel-	2B-\	-cel-	2d\	-cel-	2b-\	-cel-	8BB-'/L	8b-'\Lyy	8d/	8b-'\Lyy	8B-\L	.	8d/L	.	8b-\L	.	8bb-\L
8BB-'/	.	.	8B-\	.	8B-/	.	8b-\	.	.	.	.	.	.	.	.	.	8BB-'/	8b-'\yy	8B-/	8b-'\yy	8BB-/	.	8B-/	.	8b-\	.	8b-\
!	!	!	!	!	!	!	!	!	!	!	!	!	!	!	!	!	!	!	!LO:N:vis=4	!	!	!	!	!	!	!	!
8BB-'/	.	.	8B-\	.	8B-/	.	8b-\	.	.	.	.	.	.	.	.	.	8BB-'/	8b-'\yy	8B-/L	8b-'\yy	8BB-/	.	8B-/	.	8b-\	.	8b-/
8BB-'/J	.	.	8B-\J	.	8B-/J	.	8b-\J	.	.	.	.	.	.	.	.	.	8BB-'/J	8b-'\Jyy	8B-/J	8b-'\Jyy	8BB-/J	.	8B-/J	.	8b-\J	.	8b-/J
!	!	!	!	!	!LO:LB:g=original	!	!LO:LB:g=original	!	!	!	!	!	!	!	!	!	!	!	!	!	!	!	!	!	!	!	!
*Xtremolo	*	*	*Xtremolo	*	*	*	*	*	*	*	*	*	*	*	*	*	*Xtremolo	*Xtremolo	*	*Xtremolo	*	*	*	*	*Xtremolo	*	*
!	!	!	!	!	!	!	!	!	!	!	!	!	!	!	!	!	!	!	!LO:N:vis=8	!	!	!	!	!	!	!	!
8BB-'/L	.	.	8B-\L	.	8B-/L	.	16b-\LL	.	4BB-/	-sis	4B-\	-sis	4d\	-sis	4b-\	-sis	4BB-/	4b-\yy	4B-/	4b-\yy	4BB-/	.	4B-/	.	4b-\	.	4b-\
.	.	.	.	.	.	.	16cc\J	.	.	.	.	.	.	.	.	.	.	.	.	.	.	.	.	.	.	.	.
16C'/L	.	.	16c\L	.	16c/L	.	8dd\J	.	.	.	.	.	.	.	.	.	.	.	.	.	.	.	.	.	.	.	.
16D'/JJ	.	.	16d\JJ	.	16d/JJ	.	.	.	.	.	.	.	.	.	.	.	.	.	.	.	.	.	.	.	.	.	.
!	!	!	!	!	!	!	!	!	!	!	!	!	!	!	!	!	!	!	!	!	!LO:TX:b:t=Verte Subito	!	!	!	!	!	!
16E-'\LL	.	.	16e-\LL	.	16e-/LL	.	16ee-\LL	.	4r	.	4r	.	4r	.	4r	.	4r	4ryy	4r	4ryy	4r	.	4r	.	4r	.	4r
16F'\	.	.	16f\	.	16f/	.	16ff\	.	.	.	.	.	.	.	.	.	.	.	.	.	.	.	.	.	.	.	.
16G'\	.	.	16g\	.	16g/	.	16gg\	.	.	.	.	.	.	.	.	.	.	.	.	.	.	.	.	.	.	.	.
16A'\JJ	.	.	16a\JJ	.	16a/JJ	.	16aa\JJ	.	.	.	.	.	.	.	.	.	.	.	.	.	.	.	.	.	.	.	.
!LO:LB:g=original	!	!	!LO:LB:g=original	!	!	!	!	!	!	!	!	!	!	!	!	!	!	!	!	!	!LO:PB:g=original	!	!	!	!	!	!
=11	=11	=11	=11	=11	=11	=11	=11	=11	=11	=11	=11	=11	=11	=11	=11	=11	=11	=11	=11	=11	=11!|:	=11	=11	=11	=11	=11	=11
*	*	*	*	*	*	*	*	*	*	*ij	*	*	*	*	*	*	*	*	*	*	*	*	*	*	*	*	*
4r	.	.	4r	.	4r	.	16bb-\LL	.	4B-\	in	4B-\	in	4f\	in	4dd\	in	4r	4ryy	4b-\	4dd\yy	4d\	.	4f/	.	4dd\	.	4ddd\
.	.	.	.	.	.	.	16ccc\J	.	.	.	.	.	.	.	.	.	.	.	.	.	.	.	.	.	.	.	.
.	.	.	.	.	.	.	8ddd\J	.	.	.	.	.	.	.	.	.	.	.	.	.	.	.	.	.	.	.	.
4B-\	3	.	4f\	.	4dd/ 4f/ 4B-/	.	16bb-\LL	.	8B-\	ex-	8B-\	ex-	8f\	ex-	8dd\	ex-	4BB-/	4b-\yy	8b-\L	8dd\Lyy	8d\L	.	8f/L	.	8dd\L	.	8ddd\L
.	.	.	.	.	.	.	16ccc\J	.	.	.	.	.	.	.	.	.	.	.	.	.	.	.	.	.	.	.	.
.	.	.	.	.	.	.	8ddd\J	.	8B-\	-cel-	8B-\	-cel-	8f\	-cel-	8dd\	-cel-	.	.	8b-\J	8dd\Jyy	8d\J	.	8f/J	.	8dd\J	.	8ddd\J
4r	.	.	4r	.	4r	.	16ff\LL	.	4F\	-sis	4f\	-sis	4e-\	-sis	4cc\	-sis	4r	4ryy	4f/	4cc\yy	4c\	.	4e-/	.	4cc\	.	4ccc\
*	*	*	*	*	*	*	*	*	*	*Xij	*	*	*	*	*	*	*	*	*	*	*	*	*	*	*	*	*
.	.	.	.	.	.	.	16gg\J	.	.	.	.	.	.	.	.	.	.	.	.	.	.	.	.	.	.	.	.
.	.	.	.	.	.	.	8aa\J	.	.	.	.	.	.	.	.	.	.	.	.	.	.	.	.	.	.	.	.
!	!	!	!	!	!LO:TX:t=P:problem:skreślony takt	!	!	!	!	!	!	!	!	!	!	!	!	!	!	!	!	!	!	!	!	!	!
4F\	5	.	4f\	.	4cc/ 4f/ 4A/	.	16ff\LL	.	4F\	De-	4f\	de-	4e-\	De-	4cc\	de-	4FF/	4f/yy	8f/L	8cc\Lyy	8c\L	.	8e-/L	.	8cc\L	.	8ccc\L
.	.	.	.	.	.	.	16gg\J	.	.	.	.	.	.	.	.	.	.	.	.	.	.	.	.	.	.	.	.
.	.	.	.	.	.	.	8aa\J	.	.	.	.	.	.	.	.	.	.	.	8f/J	8cc\Jyy	8c\J	.	8e-/J	.	8cc\J	.	8ccc\J
!	!	!	!	!	!	!	!	!	!LO:LB:g=original	!	!	!	!	!	!LO:LB:g=original	!	!	!	!	!	!	!	!	!	!	!	!
=12	=12	=12	=12	=12	=12	=12	=12	=12	=12	=12	=12	=12	=12	=12	=12	=12	=12	=12	=12	=12	=12	=12	=12	=12	=12	=12	=12
4BB-/	8	.	4B-/	.	4b-/ 4f/ 4B-/	.	4bb-\	.	4BB-/	-o	4B-\	-o	4d\	-o	4b-\	-o	4BB-/	4B-/	4d/	4b-\	4B-\	.	4d/	.	4b-\	.	4bb-\
4r	.	.	4r	.	4r	.	4r	.	4r	.	4r	.	4r	.	4r	.	4r	4r	4r	4r	4r	.	4r	.	4r	.	4r
!	!	!	!	!	!	!	!	!	!	!	!	!	!	!	!	!	!	!	!LO:SIC:s:v==4c	!	!LO:SIC:s:v==4B	!	!	!	!	!	!
4B-\	.	.	4b-\	.	4b-\	.	4bb-\	.	4B-\	Et	4B-\	et	4b-\	et	4b-\	et	4BB-/	4b-\	4c/	4b-\	4A\	.	4b-\	.	4bb-\	.	4bb-\
!	!	!	!	!	!	!	!	!	!	!	!	!	!	!	!	!	!	!	!LO:SIC:s:v==4c	!	!	!	!	!	!	!	!
4B-\	.	.	4b-\	.	4b-\	.	4bb-\	.	4B-\	in	4B-\	in	4b-\	in	4b-\	in	4BB-/	4b-\	4c/	4b-\	4B-\	.	4b-\	.	4bb-\	.	4bb-\
!	!	!	!	!	!	!	!	!	!	!	!	!	!	!	!	!	!LO:LB:g=original	!	!	!	!	!	!LO:LB:g=original	!	!	!	!LO:LB:g=original
=13	=13	=13	=13	=13	=13	=13	=13	=13	=13	=13	=13	=13	=13	=13	=13	=13	=13	=13	=13	=13	=13	=13	=13	=13	=13	=13	=13
!	!	!	!	!	!	!	!	!	!	!	!LO:N:vis=4	!	!	!	!	!	!LO:TX:a:t=1	!	!	!	!	!	!	!	!	!	!
4.d'\	.	.	4.dd\	.	4.dd\	.	4.ddd\	.	4.d\	ter-	4.d\	ter-	4.dd\	ter-	4.dd\	ter-	1r	4.dd\	4d/	4dd\	4.d\	.	4.dd\	.	4.ddd\	.	4.ddd\
.	.	.	.	.	.	.	.	.	.	.	.	.	.	.	.	.	.	.	4r	4r	.	.	.	.	.	.	.
8c'\	.	.	8cc\	.	8cc\	.	8ccc\	.	8c\	-ra	8c\	-ra	8cc\	-ra	8cc\	-ra	.	8r	.	.	8c\	.	8cc\	.	8ccc\	.	8ccc\
8B-'\L	.	.	8b-\L	.	8b-\L	.	8bb-\L	.	8B-\L	pax	8B-\L	pax	8b-\L	pax	8b-\L	pax	.	2r	2r	4r	8B-\L	.	8b-\L	.	8bb-\L	.	8bb-\L
8A'\	.	.	8a\	.	8a\	.	8aa\	.	8A\J	.	8A\J	.	8a\J	.	8a\J	.	.	.	.	.	8A\	.	8a\	.	8aa\	.	8aa\
8G'\	.	.	8g\	.	8g\	.	8gg\	.	8G\L	ho-	8G/L	ho-	8g\L	ho-	8g\L	ho-	.	.	.	4r	8G\	.	8g\	.	8gg\	.	8gg\
8F'\J	.	.	8f\J	.	8f\J	.	8ff\J	.	8F\J	.	8F/J	.	8f\J	.	8f\J	.	.	.	.	.	8F\J	.	8f\J	.	8ff\J	.	8ff\J
!	!	!	!	!	!	!	!	!	!	!	!LO:LB:g=original	!	!LO:LB:g=original	!	!	!	!	!	!	!LO:LB:g=original	!	!	!	!	!	!	!
=14	=14	=14	=14	=14	=14	=14	=14	=14	=14	=14	=14	=14	=14	=14	=14	=14	=14	=14	=14	=14	=14	=14	=14	=14	=14	=14	=14
8E-'/L	.	.	8e-\L	.	8e-/L	.	8ee-\L	.	8E-\L	-mi-	8E-/L	-mi-	8e-\L	-mi-	8e-/L	-mi-	2r	2r	2r	4r	8E-\L	.	8e-/L	.	8ee-\L	.	8ee-\L
8D'/	.	.	8d\	.	8d/	.	8dd\	.	8D\J	.	8D/J	.	8d\J	.	8d/J	.	.	.	.	.	8D\	.	8d/	.	8dd\	.	8dd\
8C'/	.	.	8c\	.	8c/	.	8cc\	.	8C/L	-ni-	8C/L	-ni-	8c/L	-ni-	8c/L	-ni-	.	.	.	4r	8C\	.	8c/	.	8cc\	.	8cc\
8BB-'/J	.	.	8B-\J	.	8B-/J	.	8b-\J	.	8BB-/J	.	8BB-/J	.	8B-/J	.	8B-/J	.	.	.	.	.	8BB-\J	.	8B-/J	.	8b-\J	.	8b-\J
!	!	!	!	!	!	!	!LO:PB:g=original	!	!	!	!	!	!	!	!	!	!	!	!	!	!	!	!	!	!	!	!
4FF/	.	.	4F/	.	4A/	.	4a/	.	4FF/	-bus	4F/	-bus	4f\	-bus	4f/	-bus	4r	4r	4r	4r	4FF/	.	4A/	.	4a\	.	4a\
4F\	5	.	4f\	.	4cc/ 4f/ 4A/	.	4aa/ 4cc/ 4f/	.	4F\	bo-	4c\	bo-	4e-\	bo-	4cc\	bo-	4FF/	4f/	4f/	4cc\	4F\	.	4a\	.	4cc\	.	4ccc\
!	!	!	!	!	!LO:LB:g=original	!	!	!	!	!	!	!	!	!	!	!	!	!	!LO:LB:g=original	!	!	!	!	!	!	!	!
=15	=15	=15	=15	=15	=15	=15	=15	=15	=15	=15	=15	=15	=15	=15	=15	=15	=15	=15	=15	=15	=15:|!	=15	=15	=15	=15	=15	=15
!	!	!	!	!	!	!	!	!	!	!	!	!	!	!	!	!	!	!	!	!	!LO:TX:t=P:problem:tt.15-18 zapisane repetycją	!	!	!	!	!	!
4B-\	3	.	4r	.	16b-\LL	.	4r	.	4.B-\	-ne	4.B-\	-ne	4.f\	-ne	4.dd\	-ne	4r	4r	4b-\	4dd\	4d\yy	.	4b-\	.	4dd\	.	4ddd\
.	.	.	.	.	16cc\J	.	.	.	.	.	.	.	.	.	.	.	.	.	.	.	.	.	.	.	.	.	.
.	.	.	.	.	8dd\J	.	.	.	.	.	.	.	.	.	.	.	.	.	.	.	.	.	.	.	.	.	.
4r	.	.	4f\	.	16b-\LL	.	4bb-/ 4dd/ 4f/	.	.	.	.	.	.	.	.	.	4BB-/	4b-\	8b-\L	8dd\L	8d\Lyy	.	8b-\L	.	8dd\L	.	8ddd\L
.	.	.	.	.	16cc\J	.	.	.	.	.	.	.	.	.	.	.	.	.	.	.	.	.	.	.	.	.	.
.	.	.	.	.	8dd\J	.	.	.	8B-\	vo-	8B-\	vo-	8f\	vo-	8dd\	vo-	.	.	8b-\J	8dd\J	8d\Jyy	.	8b-\J	.	8dd\J	.	8ddd\J
4F\	5	.	4r	.	16f/LL	.	4r	.	4F\	-lun-	4f\	-lun-	4.e-\	-lun-	4.cc\	-lun-	4r	4r	4f/	4cc\	4c\yy	.	4a\	.	4cc\	.	4ccc\
.	.	.	.	.	16g/J	.	.	.	.	.	.	.	.	.	.	.	.	.	.	.	.	.	.	.	.	.	.
.	.	.	.	.	8a/J	.	.	.	.	.	.	.	.	.	.	.	.	.	.	.	.	.	.	.	.	.	.
4r	.	.	4f\	.	16f/LL	.	4aa/ 4cc/ 4f/	.	4F\	-ta-	4f\	-ta-	.	.	.	.	4FF/	4f/	8f/L	8cc\L	8c\Lyy	.	8a\L	.	8cc\L	.	8ccc\L
.	.	.	.	.	16g/J	.	.	.	.	.	.	.	.	.	.	.	.	.	.	.	.	.	.	.	.	.	.
.	.	.	.	.	8a/J	.	.	.	.	.	.	.	8e-\	-ta-	8cc\	-ta-	.	.	8f/J	8cc\J	8c\Jyy	.	8a\J	.	8cc\J	.	8ccc\J
!	!	!	!	!	!	!	!	!	!	!	!	!	!	!	!	!	!	!LO:LB:g=original	!	!	!	!	!	!	!	!	!
=16	=16	=16	=16	=16	=16	=16	=16	=16	=16	=16	=16	=16	=16	=16	=16	=16	=16	=16	=16	=16	=16	=16	=16	=16	=16	=16	=16
4BB-/	8	.	4B-/	.	4b-/ 4f/ 4B-/	.	4bb-/ 4dd/ 4f/	.	4BB-/	-tis	4B-\	-tis	4d\	-tis	4b-\	-tis	4BB-/	4B-/	4d/	4b-\	4B-\yy	.	4b-\	.	4b-\	.	4bb-\
4r	.	.	4r	.	4r	.	4r	.	4r	.	4r	.	4r	.	4r	.	4r	4r	4r	4r	4ryy	.	4r	.	4r	.	4r
!	!	!	!	!	!	!	!	!	!	!	!	!	!	!	!	!	!	!	!	!	!LO:SIC:s:v==4B	!	!	!	!	!	!
4B-'\	.	.	4b-\	.	4b-\	.	4bb-\	.	4B-\	et	4B-\	et	4b-\	et	4b-\	et	4BB-/	4b-\	4B-/	4b-\	4A\yy	.	4b-\	.	4bb-\	.	4bb-\
4B-'\	.	.	4b-\	.	4b-\	.	4bb-\	.	4B-\	in	4B-\	in	4b-\	in	4b-\	in	4BB-/	4b-\	4B-/	4b-\	4B-\yy	.	4b-\	.	4bb-\	.	4bb-\
!LO:LB:g=original	!	!	!LO:LB:g=original	!	!	!	!	!	!LO:LB:g=original	!	!	!	!	!	!LO:LB:g=original	!	!	!	!	!	!	!	!	!	!LO:LB:g=original	!	!
=17	=17	=17	=17	=17	=17	=17	=17	=17	=17	=17	=17	=17	=17	=17	=17	=17	=17	=17	=17	=17	=17	=17	=17	=17	=17	=17	=17
!	!	!	!	!	!	!	!	!	!	!	!	!	!	!	!	!	!LO:TX:a:t=1	!	!	!	!	!	!	!	!	!	!
4.d'\	.	.	4.dd\	.	4.dd\	.	4.ddd\	.	4.d\	ter-	4.d\	ter-	4.dd\	ter-	4.dd\	ter-	1r	4.dd\	4.d/	4.dd\	4.d\yy	.	4.dd\	.	4.ddd\	.	4.ddd\
8c'\	.	.	8cc\	.	8cc\	.	8ccc\	.	8c\	-ra	8c\	-ra	8cc\	-ra	8cc\	-ra	.	8r	8r	8r	8c\yy	.	8cc\	.	8ccc\	.	8ccc\
8B-'\L	.	.	8b-\L	.	8b-\L	.	8bb-\L	.	8B-\L	pax	8B-\L	pax	8b-\L	pax	8b-\L	pax	.	2r	2r	2r	8B-\Lyy	.	8b-\L	.	8bb-\L	.	8bb-\L
8A'\	.	.	8a\	.	8a\	.	8aa\	.	8A\J	.	8A\J	.	8a\J	.	8a\J	.	.	.	.	.	8A\yy	.	8a\	.	8aa\	.	8aa\
8G'\	.	.	8g\	.	8g\	.	8gg\	.	8G\L	ho-	8G/L	ho-	8g\L	ho-	8g/L	ho-	.	.	.	.	8G\yy	.	8g\	.	8gg\	.	8gg\
8F'\J	.	.	8f\J	.	8f\J	.	8ff\J	.	8F\J	.	8F/J	.	8f\J	.	8f/J	.	.	.	.	.	8F\Jyy	.	8f\J	.	8ff\J	.	8ff\J
!	!	!	!	!	!	!	!	!	!	!	!	!	!	!	!	!	!	!	!	!	!	!	!LO:LB:g=original	!	!	!	!
=18	=18	=18	=18	=18	=18	=18	=18	=18	=18	=18	=18	=18	=18	=18	=18	=18	=18	=18	=18	=18	=18	=18	=18	=18	=18	=18	=18
8E-'/L	.	.	8e-\L	.	8e-/L	.	8ee-\L	.	8E-\L	-mi-	8E-/L	-mi-	8e-\L	-mi-	8e-/L	-mi-	2r	2r	2r	4r	8E-\Lyy	.	8e-/L	.	8ee-\L	.	8ee-\L
8D'/	.	.	8d\	.	8d/	.	8dd\	.	8D\J	.	8D/J	.	8d\J	.	8d/J	.	.	.	.	.	8D\yy	.	8d/	.	8dd\	.	8dd\
8C'/	.	.	8c\	.	8c/	.	8cc\	.	8C/L	-ni-	8C/L	-ni-	8c/L	-ni-	8c/L	-ni-	.	.	.	4r	8C\yy	.	8c/	.	8cc\	.	8cc\
8BB-'/J	.	.	8B-\J	.	8B-/J	.	8b-\J	.	8BB-/J	.	8BB-/J	.	8B-/J	.	8B-/J	.	.	.	.	.	8BB-\Jyy	.	8B-/J	.	8b-\J	.	8b-\J
!	!	!	!	!	!	!	!	!	!	!	!	!	!LO:LB:g=original	!	!	!	!	!	!	!	!	!	!	!	!	!	!
4FF/	.	.	4F/	.	4A/	.	4a/	.	4FF/	-bus	4F/	-bus	4f\	-bus	4f/	-bus	4r	4r	4r	4r	4FF/yy	.	4A/	.	4a\	.	4a\
4F\	5	.	4f\	.	4cc/ 4f/ 4A/	.	4aa/ 4cc/ 4f/	.	8F\	bo-	8c\	bo-	8e-\	bo-	8cc\L	bo-	4FF/	4f/	4f/	4cc\	4F\yy	.	4a\	.	4b-\	.	4ccc\
.	.	.	.	.	.	.	.	.	8F\	-ne	8c\	-ne	8e-\	-ne	8cc\J	-ne	.	.	.	.	.	.	.	.	.	.	.
=19	=19	=19	=19	=19	=19	=19	=19	=19	=19	=19	=19	=19	=19	=19	=19	=19	=19	=19	=19	=19	=19	=19	=19	=19	=19	=19	=19
!	!	!	!	!	!	!	!	!	!	!	!LO:N:vis=4	!	!	!	!	!	!	!	!	!	!	!	!	!	!	!	!
4B-\	3	.	4r	.	16b-\LL	.	4r	.	4.B-\	vo-	4.B-\	vo-	4.f\	vo-	4.dd\	vo-	4r	4r	4b-\	4dd\	4d\	.	4b-\	.	4dd\	.	4ddd\
.	.	.	.	.	16cc\J	.	.	.	.	.	.	.	.	.	.	.	.	.	.	.	.	.	.	.	.	.	.
.	.	.	.	.	8dd\J	.	.	.	.	.	.	.	.	.	.	.	.	.	.	.	.	.	.	.	.	.	.
!	!	!	!	!	!LO:LB:g=original	!	!	!	!	!	!	!	!	!	!	!	!	!	!	!	!	!	!	!	!	!	!
4r	.	.	4f\	.	16b-\LL	.	4bb-/ 4dd/ 4f/	.	.	.	.	.	.	.	.	.	4BB-/	4b-\	8b-\L	8dd\L	8d\L	.	8b-\L	.	8dd\L	.	8ddd\L
.	.	.	.	.	16cc\J	.	.	.	.	.	.	.	.	.	.	.	.	.	.	.	.	.	.	.	.	.	.
.	.	.	.	.	8dd\J	.	.	.	8B-\	-lun-	8B-\	-lun-	8f\	-lun-	8dd\	-lun-	.	.	8b-\J	8dd\J	8d\J	.	8b-\J	.	8dd\J	.	8ddd\J
4F\	5	.	4r	.	16f/LL	.	4r	.	4F\	-ta-	4f\	-ta-	4.e-\	-ta-	4.cc\	-ta-	4r	4r	4f/	4cc\	4c\	.	4a\	.	4cc\	.	4ccc\
.	.	.	.	.	16g/J	.	.	.	.	.	.	.	.	.	.	.	.	.	.	.	.	.	.	.	.	.	.
.	.	.	.	.	8a/J	.	.	.	.	.	.	.	.	.	.	.	.	.	.	.	.	.	.	.	.	.	.
!	!	!	!	!	!	!	!	!	!	!	!LO:TX:b:t=Verte Subito	!	!	!	!	!	!	!	!	!	!	!	!	!	!	!	!
4r	.	.	4f\	.	16f/LL	.	4aa/ 4cc/ 4f/	.	4F\	-tis	4f\	-tis	.	.	.	.	4FF/	4f/	8f/L	8cc\L	4c\	.	8a\L	.	8cc\L	.	8ccc\L
.	.	.	.	.	16g/J	.	.	.	.	.	.	.	.	.	.	.	.	.	.	.	.	.	.	.	.	.	.
.	.	.	.	.	8a/J	.	.	.	.	.	.	.	8e-\	-tis	8cc\	-tis	.	.	8f/J	8cc\J	.	.	8a\J	.	8cc\J	.	8ccc\J
!	!	!	!	!	!	!	!LO:LB:g=original	!	!	!	!LO:PB:g=original	!	!	!	!	!	!	!	!	!LO:LB:g=original	!	!	!	!	!	!	!
=20	=20	=20	=20	=20	=20	=20	=20	=20	=20	=20	=20	=20	=20	=20	=20	=20	=20	=20	=20	=20	=20	=20	=20	=20	=20	=20	=20
*	*	*	*	*	*	*	*^	*	*	*	*	*	*	*	*	*	*	*	*	*	*	*	*	*	*	*	*
!LO:TX:t=P:problem:mixed beam	!	!	!LO:TX:t=P:problem:mixed beam	!	!	!	!	!	!	!	!	!	!	!	!	!	!	!	!	!	!	!	!	!	!	!	!	!
8BB-/L	2 5_ 3	.	8B-/L	.	4b-/ 4f/ 4B-/	.	16b-\LL	4b-/	.	4BB-/	Lau-	4.B-\	Lau-	4.d\	Lau-	4.b-\	lau-	4BB-/	4b-\	4d/	4b-\	4B-\	.	4b-\	.	4dd\	.	4bb-\
.	.	.	.	.	.	.	16cc\J	.	.	.	.	.	.	.	.	.	.	.	.	.	.	.	.	.	.	.	.	.
8B-\	.	.	8b-\	.	.	.	8dd\J	.	.	.	.	.	.	.	.	.	.	.	.	.	.	.	.	.	.	.	.	.
8B-\	.	.	8b-\	.	4b-/ 4f/ 4B-/	.	16b-\LL	4ryy	.	4B-\	-da-	.	.	.	.	.	.	8BB-/L	8b-\L	8d/L	8b-\L	4r	.	8b-\L	.	8dd\L	.	8bb-\L
.	.	.	.	.	.	.	16cc\J	.	.	.	.	.	.	.	.	.	.	.	.	.	.	.	.	.	.	.	.	.
8B-\J	.	.	8b-\J	.	.	.	8dd\J	.	.	.	.	8B-\	-da-	8d\	-da-	8b-\	-da-	8BB-/J	8b-\J	8d/	8b-\J	.	.	8b-\J	.	8dd\J	.	8bb-\J
!	!	!	!	!	!	!	!	!	!	!	!	!	!	!	!	!	!	!	!	!LO:N:vis=8	!	!	!	!	!	!	!	!
4B-\	x	.	4b-\	.	4b-/ 4f/ 4B-/	.	8b-\	4ryy	.	4B-\	-mus	4B-\	-mus,	4d\	-mus	4b-\	-mus	4BB-/	4b-\	4d/J	4b-\	2r	.	4b-\	.	4dd\	.	4bb-\
.	.	.	.	.	.	.	4dd\	.	.	.	.	.	.	.	.	.	.	.	.	.	.	.	.	.	.	.	.	.
4r	.	.	4r	.	4r	.	.	4ryy	.	4r	.	4r	.	4r	.	4r	.	4r	4r	4r	4r	.	.	4r	.	4r	.	4r
.	.	.	.	.	.	.	8b-\	.	.	.	.	.	.	.	.	.	.	.	.	.	.	.	.	.	.	.	.	.
*	*	*	*	*	*	*	*v	*v	*	*	*	*	*	*	*	*	*	*	*	*	*	*	*	*	*	*	*	*
!	!	!	!	!	!	!	!	!	!	!	!	!	!	!	!	!	!	!	!	!LO:LB:g=original	!	!LO:LB:g=original	!	!	!	!	!
=21	=21	=21	=21	=21	=21	=21	=21	=21	=21	=21	=21	=21	=21	=21	=21	=21	=21	=21	=21	=21	=21	=21	=21	=21	=21	=21	=21
*2\right	*	*	*	*	*	*	*	*	*	*	*	*	*	*	*	*	*	*	*	*	*	*	*	*	*	*	*
*tremolo	*	*	*	*	*	*	*	*	*	*	*	*	*	*	*	*	*	*	*	*	*	*	*	*	*	*	*
!	!	!	!LO:TX:t=P:problem:mixed beam	!	!	!	!	!	!	!	!	!	!	!	!	!	!	!	!	!	!	!	!	!	!	!	!
*	*	*	*	*	*	*	*	*	*	*ij	*	*	*	*ij	*	*	*	*	*	*	*	*	*	*	*	*	*
8F\L	5_ 3_	.	8F/L	.	4cc/ 4f/ 4A/	.	16ff\LL	.	4F\	Lau-	4.f\	lau-	4.a\	Lau-	4.cc\	lau-	4FF/	4f/	4f/	4cc\	4c\	.	4a\	.	4cc\	.	4ccc\
.	.	.	.	.	.	.	16gg\J	.	.	.	.	.	.	.	.	.	.	.	.	.	.	.	.	.	.	.	.
8F\	.	.	8f\	.	.	.	8aa\J	.	.	.	.	.	.	.	.	.	.	.	.	.	.	.	.	.	.	.	.
8F\	.	.	8f\	.	4cc/ 4f/ 4A/	.	16ff\LL	.	4F\	-da-	.	.	.	.	.	.	8FF/L	8f/L	8f/L	8cc\L	8c\L	.	8a\L	.	8cc\L	.	8ccc\L
.	.	.	.	.	.	.	16gg\J	.	.	.	.	.	.	.	.	.	.	.	.	.	.	.	.	.	.	.	.
8F\J	.	.	8f\J	.	.	.	8aa\J	.	.	.	8f\	-da-	8a\	-da-	8cc\	-da-	8FF/J	8f/J	8f/J	8cc\J	8c\J	.	8a\J	.	8cc\J	.	8ccc\J
4F\	x	.	4f\	.	4cc/ 4f/ 4A/	.	8ff\	.	4F\	-mus	4f\	-mus	4a\	-mus	4cc\	-mus	4FF/	4f/	4f/	4cc\	4c\	.	4a\	.	4cc\	.	4ccc\
*	*	*	*	*	*	*	*	*	*	*Xij	*	*	*	*Xij	*	*	*	*	*	*	*	*	*	*	*	*	*
.	.	.	.	.	.	.	4aa\	.	.	.	.	.	.	.	.	.	.	.	.	.	.	.	.	.	.	.	.
4r	.	.	4r	.	4r	.	.	.	4r	.	4r	.	4r	.	4r	.	4r	4r	4r	4r	4r	.	4r	.	4r	.	4r
.	.	.	.	.	.	.	8ff\	.	.	.	.	.	.	.	.	.	.	.	.	.	.	.	.	.	.	.	.
!	!	!	!	!	!	!	!	!	!	!	!	!	!	!	!LO:LB:g=original	!	!	!	!	!	!	!	!	!	!	!	!LO:LB:g=original
=22	=22	=22	=22	=22	=22	=22	=22	=22	=22	=22	=22	=22	=22	=22	=22	=22	=22	=22	=22	=22	=22	=22	=22	=22	=22	=22	=22
*tremolo	*	*	*tremolo	*	*	*	*	*	*	*	*	*	*	*	*	*	*	*	*2\right	*	*2\right	*	*2\right	*	*	*	*
!	!	!	!	!	!	!	!	!	!	!	!	!	!	!	!	!	!LO:TX:a:t=1.	!	!	!	!	!	!	!	!	!	!
8c\L	7 5	.	8cc\L	.	8gg\L	.	8bb-\L	.	2c\	te	2c\	te	2g\	te	2b-\	ter-	1r	1r	2cc\	2cc\	2B-\	.	2gg\	.	2bb-\	.	4bb-\
8c\	.	.	8cc\	.	16gg\L	.	16bb-\L	.	.	.	.	.	.	.	.	.	.	.	.	.	.	.	.	.	.	.	.
.	.	.	.	.	16ffn\JJ	.	16aa\JJ	.	.	.	.	.	.	.	.	.	.	.	.	.	.	.	.	.	.	.	.
8c\	.	.	8cc\	.	16een\LL	.	8gg\L	.	.	.	.	.	.	.	.	.	.	.	.	.	.	.	.	.	.	.	4r
.	.	.	.	.	16dd\J	.	.	.	.	.	.	.	.	.	.	.	.	.	.	.	.	.	.	.	.	.	.
8c\J	.	.	8cc\J	.	8cc\J	.	16gg\L	.	.	.	.	.	.	.	.	.	.	.	.	.	.	.	.	.	.	.	.
.	.	.	.	.	.	.	16ff\JJ	.	.	.	.	.	.	.	.	.	.	.	.	.	.	.	.	.	.	.	.
8C/L	7 5	.	8c\L	.	16cc\LL	.	8een\L	.	4C/	be-	4c\	be-	4g\	be-	4b-\	-ra	.	.	2cc\	2cc\	2B-\	.	2gg\	.	2bb-\	.	8eeen\L
.	.	.	.	.	16cc\J	.	.	.	.	.	.	.	.	.	.	.	.	.	.	.	.	.	.	.	.	.	.
8C/	.	.	8c\	.	8b-\J	.	16ee\L	.	.	.	.	.	.	.	.	.	.	.	.	.	.	.	.	.	.	.	16eee\L
.	.	.	.	.	.	.	16dd\JJ	.	.	.	.	.	.	.	.	.	.	.	.	.	.	.	.	.	.	.	16ddd\J
8C/	.	.	8c\	.	8a/L	.	8cc\L	.	4C/	-ne-	4c\	-ne-	4g\	-ne-	4b-\	.	.	.	.	.	.	.	.	.	.	.	8ccc\
8C/J	.	.	8c\J	.	8g/J	.	16cc\L	.	.	.	.	.	.	.	.	.	.	.	.	.	.	.	.	.	.	.	8bb-\J
.	.	.	.	.	.	.	16b-\JJ	.	.	.	.	.	.	.	.	.	.	.	.	.	.	.	.	.	.	.	.
!LO:LB:g=original	!	!	!LO:LB:g=original	!	!LO:LB:g=original	!	!LO:LB:g=original	!	!	!	!	!	!	!	!	!	!LO:LB:g=original	!	!	!	!	!	!	!	!	!	!
=23	=23	=23	=23	=23	=23	=23	=23	=23	=23	=23	=23	=23	=23	=23	=23	=23	=23	=23	=23	=23	=23	=23	=23	=23	=23	=23	=23
8F\L	4 2	.	8f\L	.	8g/L	.	8b-\L	.	4.F\	-di-	4.c\	-di-	8g\L	-di-	8b-\L	di-	4FF/	4f/	4f/	4cc\	8B-\L	.	4.gg\	.	4.bb-\	.	8bb-\L
8F\	1 3	.	8f\	.	8f/	.	8a\	.	.	.	.	.	8f\J	.	8a\J	.	.	.	.	.	8A\	.	.	.	.	.	8aa\
8F\	6 4	.	8f\	.	8b-/	.	8dd\	.	.	.	.	.	8b-\L	-ci-	8dd\L	-ci-	4r	4r	4r	4r	8d\	.	.	.	.	.	8ddd\
8F\J	5 3	.	8f\J	.	8a/J	.	8cc\J	.	8F\	-ci-	8c\	-ci-	8a\J	.	8cc\J	.	.	.	.	.	8c\J	.	8ff\	.	8aa\	.	8ccc\J
*Xtremolo	*	*	*Xtremolo	*	*	*	*	*	*	*	*	*	*	*	*	*	*	*	*	*	*	*	*	*	*	*	*
!	!	!	!	!	!	!	!	!	!	!	!	!	!	!	!	!	!	!	!	!	!	!	!LO:LB:g=original	!	!	!	!
8F'\L	5 3	.	8f\L	.	4a/	.	4cc\	.	4F\	-mus	4c\	-mus	4a\	-mus	4cc\	-mus	8r	8r	8r	8r	4c\	.	4ff\	.	4aa\	.	4ccc\
8c'\	.	.	8cc\	.	.	.	.	.	.	.	.	.	.	.	.	.	8FF/L	8f/L	8f/L	8cc\L	.	.	.	.	.	.	.
8A'\	.	.	8a\	.	4r	.	4r	.	4r	.	4r	.	4r	.	4r	.	8FF/	8f/	8f/	8cc\	4r	.	4r	.	4r	.	4r
8F'\J	.	.	8f\J	.	.	.	.	.	.	.	.	.	.	.	.	.	8FF/J	8f/J	8f/J	8cc\J	.	.	.	.	.	.	.
!	!	!	!	!	!	!	!	!	!	!	!	!	!LO:LB:g=original	!	!	!	!	!LO:LB:g=original	!	!	!	!	!	!	!	!	!
=24	=24	=24	=24	=24	=24!|:	=24	=24	=24	=24	=24	=24	=24	=24	=24	=24	=24	=24	=24	=24	=24	=24	=24	=24!|:	=24	=24	=24	=24
*tremolo	*	*	*tremolo	*	*	*	*	*	*	*	*	*	*	*	*	*	*	*	*	*	*	*	*	*	*	*	*2\right
!	!	!	!	!	!	!	!	!	!	!	!	!	!	!	!	!	!LO:TX:a:t=1	!	!	!	!	!	!	!	!	!	!
8c\L	n	.	8en\L	.	8cc\	.	8cc\L	.	2c\	a-	2B-\	A-	2g\	a-	2cc\	a-	1r	4cc\	2cc\	2cc\	2B-\	.	2g/	.	2eeX\	.	2ccc\
8c\	.	.	8e\	.	4cc\	.	16cc\L	.	.	.	.	.	.	.	.	.	.	.	.	.	.	.	.	.	.	.	.
.	.	.	.	.	.	.	16dd\JJ	.	.	.	.	.	.	.	.	.	.	.	.	.	.	.	.	.	.	.	.
8c\	.	.	8e\	.	.	.	8een\L	.	.	.	.	.	.	.	.	.	.	4r	.	.	.	.	.	.	.	.	.
8c\J	.	.	8e\J	.	8bn\	.	16ee\L	.	.	.	.	.	.	.	.	.	.	.	.	.	.	.	.	.	.	.	.
.	.	.	.	.	.	.	16ff\JJ	.	.	.	.	.	.	.	.	.	.	.	.	.	.	.	.	.	.	.	.
!	!	!	!	!	!	!	!	!	!	!	!	!	!	!	!	!	!	!	!LO:TX:a:t=bis.	!	!	!	!	!	!	!	!
8B-\L	4 n2	.	8e\L	.	8cc\	.	8gg\L	.	2B-\	-do-	2B-\	-do-	2b-\	-do-	2een\	-do-	.	8r	2cc\	2cc\	2B-\	.	2g/	.	2ee\	.	2eeen\
8B-\	.	.	8e\	.	4cc\	.	16gg\L	.	.	.	.	.	.	.	.	.	.	8cc\L	.	.	.	.	.	.	.	.	.
.	.	.	.	.	.	.	16aa\JJ	.	.	.	.	.	.	.	.	.	.	.	.	.	.	.	.	.	.	.	.
8B-\	.	.	8e\	.	.	.	8bb-\L	.	.	.	.	.	.	.	.	.	.	8cc\	.	.	.	.	.	.	.	.	.
8B-\J	.	.	8e\J	.	8b-X\	.	8gg\J	.	.	.	.	.	.	.	.	.	.	8cc\J	.	.	.	.	.	.	.	.	.
*Xtremolo	*	*	*Xtremolo	*	*	*	*	*	*	*	*	*	*	*	*	*	*	*	*	*	*	*	*	*	*	*	*
=25	=25	=25	=25	=25	=25	=25	=25	=25	=25	=25	=25	=25	=25	=25	=25	=25	=25	=25	=25	=25	=25	=25	=25	=25	=25	=25	=25
!	!	!	!	!	!LO:TX:a:t=bis	!	!	!	!	!	!	!	!	!	!	!	!	!	!	!	!	!	!	!	!	!	!
8A\L	6	.	8f\L	.	8a\L	.	8ff\	.	2A\	-ra-	2c\	-ra-	2a\	-ra-	2ff\	-ra-	4FF/	4f/	2f/	2cc\	2A\	.	2a/	.	2ff\	.	2fff\
8A\	.	.	16f\L	.	16a\L	.	4aa\	.	.	.	.	.	.	.	.	.	.	.	.	.	.	.	.	.	.	.	.
.	.	.	16g\JJ	.	16b-\JJ	.	.	.	.	.	.	.	.	.	.	.	.	.	.	.	.	.	.	.	.	.	.
8F\	8	.	16a\LL	.	16cc\LL	.	.	.	.	.	.	.	.	.	.	.	8FF/L	8f/L	.	.	.	.	.	.	.	.	.
.	.	.	16g\J	.	16b-\J	.	.	.	.	.	.	.	.	.	.	.	.	.	.	.	.	.	.	.	.	.	.
8F\J	.	.	8f\J	.	8a\J	.	8ff\	.	.	.	.	.	.	.	.	.	8FF/J	8f/J	.	.	.	.	.	.	.	.	.
8A\L	6	.	8f\L	.	16a\LL	.	8ff\	.	2F\	-mus	2c\	-mus	2a\	-mus	2ff\	-mus	4FF/	4f/	2f/	2cc\	2A\	.	2a/	.	2ff\	.	2ccc\
.	.	.	.	.	16a\J	.	.	.	.	.	.	.	.	.	.	.	.	.	.	.	.	.	.	.	.	.	.
8A\	.	.	16f\L	.	8b-\J	.	4aa\	.	.	.	.	.	.	.	.	.	.	.	.	.	.	.	.	.	.	.	.
.	.	.	16g\J	.	.	.	.	.	.	.	.	.	.	.	.	.	.	.	.	.	.	.	.	.	.	.	.
8F\	8	.	8a\	.	16cc\LL	.	.	.	.	.	.	.	.	.	.	.	8FF/L	8f/L	.	.	.	.	.	.	.	.	.
.	.	.	.	.	16b-\J	.	.	.	.	.	.	.	.	.	.	.	.	.	.	.	.	.	.	.	.	.	.
8F\J	.	.	16g\L	.	8a\J	.	8ff\	.	.	.	.	.	.	.	.	.	8FF/J	8f/J	.	.	.	.	.	.	.	.	.
.	.	.	16f\JJ	.	.	.	.	.	.	.	.	.	.	.	.	.	.	.	.	.	.	.	.	.	.	.	.
!	!	!	!	!	!LO:PB:g=original	!	!	!	!	!	!	!	!	!	!	!	!	!	!	!	!	!	!	!	!	!	!
=26	=26	=26	=26	=26	=26:|!	=26	=26	=26	=26	=26	=26	=26	=26	=26	=26	=26	=26	=26	=26	=26	=26	=26	=26:|!	=26	=26	=26	=26
!	!	!	!	!	!	!	!	!	!	!	!	!	!	!	!	!	!	!LO:TX:t=P:problem:zbędna repetycja taktu	!	!	!	!	!	!	!	!	!
!LO:TX:t=P:problem:brak taktu	!	!	!LO:TX:t=P:problem:brak taktu	!	!LO:TX:t=P:problem:brak taktu	!	!LO:TX:t=P:problem:brak taktu	!	!LO:TX:t=P:problem:brak taktu	!	!LO:TX:t=P:problem:brak taktu	!	!LO:TX:t=P:problem:brak taktu	!	!LO:TX:t=P:problem:brak taktu	!	!LO:TX:t=P:problem:brak taktu	!LO:TX:t=P:problem:takt zapisany repetycją	!LO:TX:t=P:problem:brak taktu	!LO:TX:t=P:problem:brak taktu	!LO:TX:t=P:problem:brak taktu	!	!LO:TX:t=P:problem:brak taktu	!	!LO:TX:t=P:problem:brak taktu	!	!LO:TX:t=P:problem:brak taktu
1ryy	.	.	1ryy	.	1ryy	.	1ryy	.	1ryy	.	1ryy	.	1ryy	.	1ryy	.	1ryy	4f/	1ryy	1ryy	1ryy	.	1ryy	.	1ryy	.	1ryy
.	.	.	.	.	.	.	.	.	.	.	.	.	.	.	.	.	.	8f/L	.	.	.	.	.	.	.	.	.
.	.	.	.	.	.	.	.	.	.	.	.	.	.	.	.	.	.	8f/J	.	.	.	.	.	.	.	.	.
.	.	.	.	.	.	.	.	.	.	.	.	.	.	.	.	.	.	4f/	.	.	.	.	.	.	.	.	.
.	.	.	.	.	.	.	.	.	.	.	.	.	.	.	.	.	.	8f/L	.	.	.	.	.	.	.	.	.
.	.	.	.	.	.	.	.	.	.	.	.	.	.	.	.	.	.	8f/J	.	.	.	.	.	.	.	.	.
=27	=27	=27	=27	=27	=27	=27	=27	=27	=27	=27	=27	=27	=27	=27	=27	=27	=27	=27	=27	=27	=27	=27	=27	=27	=27	=27	=27
*tremolo	*	*	*tremolo	*	*	*	*	*	*	*	*	*	*	*	*	*	*	*	*	*	*	*	*	*	*	*	*
!	!	!	!	!	!LO:TX:t=P:problem:tt. 26-27 zapisane repetycją	!	!	!	!	!	!	!	!	!	!	!	!LO:TX:a:t=1.	!	!LO:TX:t=P:problem:tt. 26-27 zapisane repetycją	!	!	!	!LO:TX:t=P:problem:tt. 26-27 zapisane repetycją	!	!LO:SIC:s:v==2ff#	!	!
8c\L	n	.	8en\L	.	8cc\yy	.	8cc\L	.	2c\	glo-	2B-\	go-	2g\	glo-	2cc\	glo-	1r	4cc\	2cc\yy	2cc\	2B-\	.	2g/yy	.	2ee-\	.	2ccc\
8c\	.	.	8e\	.	4cc\yy	.	16cc\L	.	.	.	.	.	.	.	.	.	.	.	.	.	.	.	.	.	.	.	.
.	.	.	.	.	.	.	16dd\JJ	.	.	.	.	.	.	.	.	.	.	.	.	.	.	.	.	.	.	.	.
8c\	.	.	8e\	.	.	.	8een\L	.	.	.	.	.	.	.	.	.	.	4r	.	.	.	.	.	.	.	.	.
8c\J	.	.	8e\J	.	8bn\yy	.	16ee\L	.	.	.	.	.	.	.	.	.	.	.	.	.	.	.	.	.	.	.	.
.	.	.	.	.	.	.	16ff\JJ	.	.	.	.	.	.	.	.	.	.	.	.	.	.	.	.	.	.	.	.
!	!	!	!	!	!	!	!	!	!	!	!	!	!	!	!	!	!	!	!	!	!	!	!	!	!LO:SIC:s:v==2ff#	!	!
8B-\L	4 n2	.	8e\L	.	8cc\yy	.	8gg\L	.	2B-\	-rifi-	4B-\	-ri-	4b-\	-ri-	4een\	-ri-	.	8r	2cc\yy	2cc\	2B-\	.	2g/yy	.	2ee-\	.	2eeen\
8B-\	.	.	8e\	.	4cc\yy	.	16gg\L	.	.	.	.	.	.	.	.	.	.	8cc\L	.	.	.	.	.	.	.	.	.
.	.	.	.	.	.	.	16aa\JJ	.	.	.	.	.	.	.	.	.	.	.	.	.	.	.	.	.	.	.	.
8B-\	.	.	8e\	.	.	.	8bb-\L	.	.	.	4B-\	-fi-	4b-\	-fi-	4ee\	-fi-	.	8cc\	.	.	.	.	.	.	.	.	.
8B-\J	.	.	8e\J	.	8b-X\yy	.	8gg\J	.	.	.	.	.	.	.	.	.	.	8cc\J	.	.	.	.	.	.	.	.	.
*Xtremolo	*	*	*Xtremolo	*	*	*	*	*	*	*	*	*	*	*	*	*	*	*	*	*	*	*	*	*	*	*	*
!	!	!	!	!	!	!	!LO:LB:g=original	!	!	!	!	!	!	!	!	!	!	!	!	!LO:PB:g=original	!	!	!	!	!	!	!
=28	=28	=28	=28	=28	=28	=28	=28	=28	=28	=28	=28	=28	=28	=28	=28	=28	=28	=28	=28	=28	=28	=28	=28	=28	=28	=28	=28
8A\L	6	.	8f\L	.	8a\Lyy	.	8ff\	.	2A\	-ca-	2c\	-ca-	2a\	-ca-	2ff\	-ca-	4FF/	4f/	2f/yy	2cc\	2A\	.	2a/yy	.	2ff\	.	2fff\
8A\	.	.	16f\L	.	16a\Lyy	.	4aa\	.	.	.	.	.	.	.	.	.	.	.	.	.	.	.	.	.	.	.	.
.	.	.	16g\J	.	16b-\JJyy	.	.	.	.	.	.	.	.	.	.	.	.	.	.	.	.	.	.	.	.	.	.
8F\	8	.	8a\	.	16cc\LLyy	.	.	.	.	.	.	.	.	.	.	.	8FF/L	8f/L	.	.	.	.	.	.	.	.	.
.	.	.	.	.	16b-\Jyy	.	.	.	.	.	.	.	.	.	.	.	.	.	.	.	.	.	.	.	.	.	.
8F\J	.	.	16g\L	.	8a\Jyy	.	8ff\	.	.	.	.	.	.	.	.	.	8FF/J	8f/J	.	.	.	.	.	.	.	.	.
.	.	.	16f\JJ	.	.	.	.	.	.	.	.	.	.	.	.	.	.	.	.	.	.	.	.	.	.	.	.
8A\L	6	.	8f\L	.	16a\LLyy	.	8ff\	.	2F\	-mus	2c\	-mus	4a\	-mus	2ff\	-mus	4FF/	4f/	2f/yy	2cc\	2A\	.	2a/yy	.	2ff\	.	2ccc\
.	.	.	.	.	16a\Jyy	.	.	.	.	.	.	.	.	.	.	.	.	.	.	.	.	.	.	.	.	.	.
8A\	.	.	16f\L	.	8b-\Jyy	.	4aa\	.	.	.	.	.	.	.	.	.	.	.	.	.	.	.	.	.	.	.	.
.	.	.	16g\J	.	.	.	.	.	.	.	.	.	.	.	.	.	.	.	.	.	.	.	.	.	.	.	.
8F\	8	.	8a\	.	16cc\LLyy	.	.	.	.	.	.	.	4a\	te	.	.	8FF/L	8f/L	.	.	.	.	.	.	.	.	.
.	.	.	.	.	16b-\Jyy	.	.	.	.	.	.	.	.	.	.	.	.	.	.	.	.	.	.	.	.	.	.
8F\J	.	.	16g\L	.	8a\Jyy	.	8ff\	.	.	.	.	.	.	.	.	.	8FF/J	8f/J	.	.	.	.	.	.	.	.	.
.	.	.	16f\JJ	.	.	.	.	.	.	.	.	.	.	.	.	.	.	.	.	.	.	.	.	.	.	.	.
!LO:LB:g=original	!	!	!LO:LB:g=original	!	!	!	!	!	!	!	!LO:LB:g=original	!	!	!	!	!	!	!	!	!	!	!	!	!	!LO:LB:g=original	!	!
=29	=29	=29	=29	=29	=29	=29	=29	=29	=29	=29	=29	=29	=29	=29	=29	=29	=29	=29!|:	=29	=29	=29	=29	=29	=29	=29	=29	=29
8B-\	3	.	8b-\	.	8dd\	.	8dd\	.	8B-\	gra-	8d\	gra-	8dd\	Gra-	8dd\	gra-	8BB-/L	8b-\L	8b-\L	8dd\L	8d\L	.	8b-\L	.	8dd\L	.	8ddd\L
4B-\	6	.	4b-\	.	4dd\	.	4gg\	.	4B-\	-ti-	4d\	-ti-	4dd\	-ti-	4gg\	-ti-	8BB-/	8b-\	8b-\	8dd\	8d\	.	8b-\	.	8dd\	.	8ddd\
.	.	.	.	.	.	.	.	.	.	.	.	.	.	.	.	.	8BB-/J	8b-\J	8b-\J	8dd\J	8d\J	.	8b-\J	.	8dd\J	.	8ddd\J
8c\	#4	.	8cc\	.	8ee-X\	.	8ff#X\	.	8c\	-as	8c\	-as	8ee-X\	-as	8ff#X\	-as	8r	8r	8r	8r	8r	.	8r	.	8r	.	8r
*	*	*	*	*	*	*	*	*	*	*	*	*	*	*	*	*	*	*	*tremolo	*tremolo	*tremolo	*	*tremolo	*	*tremolo	*	*tremolo
!	!	!	!	!	!	!	!	!	!LO:LB:g=original	!	!	!	!	!	!	!	!	!	!	!	!	!	!	!	!	!	!
!	!	!	!	!	!	!	!	!	!	!	!	!	!	!	!	!	!	!	!	!LO:TX:t=P:problem:4 kropki staccato	!LO:TX:t=P:problem:4 kropki staccato	!	!LO:TX:t=P:problem:3 kropki staccato	!	!LO:TX:t=P:problem:4kropki staccato	!	!LO:TX:t=P:problem:4 kropki staccato
8d\	4	.	8dd\	.	8dd\	.	8gg\	.	8d\	a-	8d\	a-	8dd\	a-	8gg\	a-	8BB-/L	8b-\L	8b-\L	8dd\L	8d'\L	.	8b-'\L	.	8dd'\L	.	8ddd'\L
4d\	6	.	4dd\	.	4dd\	.	4aa\	.	4d\	-gi-	4d\	-gi-	4dd\	-gi-	4gg\	-gi-	8BB-/	8b-\	8b-\	8dd\	8d'\J	.	8b-'\	.	8dd'\	.	8ddd'\
.	.	.	.	.	.	.	.	.	.	.	.	.	.	.	.	.	8BB-/J	8b-\J	8b-\J	8dd\J	4r	.	8b-'\J	.	8dd'\J	.	8ddd'\J
*	*	*	*	*	*	*	*	*	*	*	*	*	*	*	*	*	*	*	*Xtremolo	*Xtremolo	*	*	*Xtremolo	*	*	*	*
8e-X\	3	.	8ee-X\	.	8cc\	.	8ffn\	.	8e-X\	-mus	8c\	-mus	8ee-X\	-mus	8ff#\	-mus	8r	8r	8r	8r	.	.	8r	.	8r	.	8r
!	!	!	!	!	!	!	!	!	!	!	!	!	!	!	!LO:LB:g=original	!	!	!	!	!	!LO:LB:g=original	!	!	!	!	!	!
=30	=30	=30	=30	=30	=30	=30	=30	=30	=30	=30	=30	=30	=30	=30	=30	=30	=30	=30:|!	=30	=30	=30	=30	=30	=30	=30	=30	=30
!	!	!	!	!	!	!	!	!	!	!	!	!	!	!	!	!	!	!LO:TX:t=P:problem:takt zapisany repetycją	!	!	!LO:TX:t=P:problem:4 kropki staccato	!	!	!	!	!	!
!	!	!	!	!	!	!	!	!	!	!	!	!	!	!	!	!	!LO:TX:t=P:problem:3 kropki	!	!	!	!LO:N:vis=4	!	!	!	!LO:TX:t=P:problem:4kropki staccato	!	!
*	*	*	*	*	*	*	*	*	*	*ij	*	*	*	*ij	*	*	*tremolo	*	*	*	*	*	*	*	*	*	*
8d\	11	.	8dd\	.	8dd\	.	8gg\	.	8d\	a-	8d\	a-	8dd\	a-	8gg\	a-	8BB-'/L	8b-\Lyy	8b-\L	8dd\L	8d'\L	.	8b-\L	.	8dd'\L	.	8ddd\L
4d\	6	.	4dd\	.	4dd\	.	4bb-\	.	4d\	-gi-	4d\	-gi-	4dd\	-gi-	4gg\	-gi-	8BB-'/	8b-\yy	8b-\	8dd\	8d'\	.	8b-\	.	8dd'\	.	8ddd\
.	.	.	.	.	.	.	.	.	.	.	.	.	.	.	.	.	8BB-'/J	8b-\Jyy	8b-\J	8dd\J	8d'\J	.	8b-\J	.	8dd'\J	.	8ddd\J
8c\	-3	.	8cc\	.	8ee-X\	.	8ff#X\	.	8c\	-mus	8c\	-mus	8ee-X\	-mus	8ff#X\	-mus	8r	8ryy	8r	8r	8r	.	8r	.	8r	.	8r
*	*	*	*	*	*	*	*	*	*	*Xij	*	*	*	*Xij	*	*	*	*	*	*	*	*	*	*	*Xtremolo	*	*
!	!	!	!	!	!	!	!	!	!	!	!	!	!	!	!	!	!	!	!	!LO:TX:t=P:problem:3 kropki staccato	!	!	!	!	!	!	!
!	!	!	!	!	!	!	!	!	!	!	!	!	!	!	!	!	!	!	!	!	!LO:TX:t=P:problem:4 kropki staccato	!	!	!	!	!	!
!	!	!	!	!	!	!	!	!	!	!	!	!	!	!	!	!	!	!	!	!	!LO:N:vis=4	!	!	!	!	!	!
*	*	*	*	*	*	*	*	*	*	*	*	*	*	*	*	*	*	*	*tremolo	*tremolo	*	*	*	*	*	*	*
8B-\	6	.	8b-\	.	8dd\	.	8gg\	.	4B-\	ti-	4B-\	ti-	4dd\	ti-	4gg\	ti-	8BB-/L	8b-\Lyy	8b-\L	8dd\L	8d'\L	.	8b-\L	.	8gg\L	.	8ddd\L
4B-\	7	.	4b-\	.	4dd\	.	4aa\	.	.	.	.	.	.	.	.	.	8BB-/	8b-\yy	8b-\	8dd\	8d'\	.	8b-\J	.	8gg\J	.	8ddd\
.	.	.	.	.	.	.	.	.	4Bn\	-bi	4d\	-bi	4dd\	-bi	4ffn\	-bi	8BB-/J	8b-\Jyy	8b-\J	8dd\J	8d'\J	.	4a\	.	4ff\	.	8ddd\J
8Bn\	5	.	8bn\	.	8cc\	.	8ffn\	.	.	.	.	.	.	.	.	.	8r	8ryy	8r	8r	8r	.	.	.	.	.	8r
*	*	*	*	*	*	*	*	*	*	*	*	*	*	*	*	*	*Xtremolo	*	*Xtremolo	*Xtremolo	*Xtremolo	*	*	*	*	*	*Xtremolo
!	!	!	!	!	!	!	!	!	!	!	!	!	!LO:LB:g=original	!	!	!	!	!	!LO:PB:g=original	!	!	!	!	!	!	!	!
=31	=31	=31	=31	=31	=31	=31	=31	=31	=31	=31	=31	=31	=31	=31	=31	=31	=31!|:	=31	=31	=31	=31	=31	=31!|:	=31	=31	=31	=31
!	!	!	!	!	!	!	!	!	!	!	!	!	!	!	!	!	!	!	!	!	!	!	!	!	!	!	!LO:TX:a:t=½
8c\L	.	.	8cc\L	.	8cc\	.	16een\LL	.	4c\	pro-	4c\	pro-	4b-\	pro-	4een\	pro-	2r	2r	4cc\	4cc\	4en\	.	4g/	.	4eeX\	.	2r
.	.	.	.	.	.	.	16ff\J	.	.	.	.	.	.	.	.	.	.	.	.	.	.	.	.	.	.	.	.
8c\	.	.	8cc\	.	4cc\	.	8gg\J	.	.	.	.	.	.	.	.	.	.	.	.	.	.	.	.	.	.	.	.
8B-X\	4	.	8b-X\	.	.	.	16cc\LL	.	4B-X\	-pter	4c\	-pter	4b-\	-pter	4ee\	-pter	.	.	8cc\L	8cc\L	8e\L	.	8g/L	.	8ee\L	.	.
.	.	.	.	.	.	.	16dd\J	.	.	.	.	.	.	.	.	.	.	.	.	.	.	.	.	.	.	.	.
8B-\J	.	.	8b-\J	.	8cc\	.	8ee\J	.	.	.	.	.	.	.	.	.	.	.	8cc\J	8cc\J	8e\J	.	8g/J	.	8ee\J	.	.
!	!	!	!	!	!	!	!	!	!	!	!	!	!	!	!	!	!	!	!	!	!	!	!LO:TX:a:t=bis	!	!	!	!
8A\L	6	.	8a\L	.	8cc\	.	16ff\LL	.	4A\	ma-	4c\	ma-	4a\	ma-	4ff\	ma-	4FF/	4f/	4f/	4cc\	4f\	.	4a/	.	4ff\	.	4r
.	.	.	.	.	.	.	16gg\J	.	.	.	.	.	.	.	.	.	.	.	.	.	.	.	.	.	.	.	.
8A\	.	.	8a\	.	4cc\	.	8aa\J	.	.	.	.	.	.	.	.	.	.	.	.	.	.	.	.	.	.	.	.
!	!	!	!	!	!	!	!LO:LB:g=original	!	!	!	!	!	!	!	!	!	!	!	!	!	!	!	!	!	!	!	!
8F\	8	.	8f\	.	.	.	16aa\LL	.	4F\	-gna(m)	4c\	-gnam	4a\	-gnam	4ff\	-gnam	8FF/L	8f/L	8f/L	8cc\L	8f\L	.	4a/	.	4ff\	.	8ff\L
.	.	.	.	.	.	.	16gg\J	.	.	.	.	.	.	.	.	.	.	.	.	.	.	.	.	.	.	.	.
8F\J	.	.	8f\J	.	8cc\	.	8ff\J	.	.	.	.	.	.	.	.	.	8FF/J	8f/J	8f/J	8cc\J	8f\J	.	.	.	.	.	8aa\J
!	!	!	!	!	!	!	!	!	!	!	!	!	!	!	!	!	!	!	!	!	!	!	!LO:LB:g=original	!	!	!	!
=32	=32	=32	=32	=32	=32	=32	=32	=32	=32	=32	=32	=32	=32	=32	=32	=32	=32:|!	=32	=32	=32	=32	=32	=32:|!	=32	=32	=32	=32
!	!	!	!	!	!	!	!	!	!	!	!	!	!	!	!	!	!	!	!LO:TX:t=P:problem:brak taktu	!	!	!	!LO:TX:t=P:problem:takt zapisany repetycją	!	!LO:SIC:s:v==4ff#	!	!
8c\L	.	.	8cc\L	.	8cc\	.	16een\LL	.	4c\	glo-	4c\	glo-	4g\	glo-	4een\	glo-	2ryy	2r	1ryy	4cc\	4e-\	.	4g/yy	.	4ee-\	.	4ccc\
.	.	.	.	.	.	.	16ff\J	.	.	.	.	.	.	.	.	.	.	.	.	.	.	.	.	.	.	.	.
8c\	.	.	8cc\	.	4cc\	.	8gg\J	.	.	.	.	.	.	.	.	.	.	.	.	.	.	.	.	.	.	.	.
!	!	!	!	!	!	!	!	!	!	!	!	!	!	!	!	!	!	!	!	!	!	!	!	!	!LO:SIC:s:v==8ff#	!	!
8B-X\	4	.	8b-\	.	.	.	16cc\LL	.	4B-\	-ri-	4c\	-ri-	4g\	-ri-	4ee\	-ri-	.	.	.	8cc\L	8e-\L	.	8g/Lyy	.	8ee-\L	.	4r
.	.	.	.	.	.	.	16dd\J	.	.	.	.	.	.	.	.	.	.	.	.	.	.	.	.	.	.	.	.
!	!	!	!	!	!	!	!	!	!	!	!	!	!	!	!	!	!	!	!	!	!	!	!	!	!LO:SIC:s:v==8ff#	!	!
8B-\J	.	.	8b-\J	.	8cc\	.	8ee\J	.	.	.	.	.	.	.	.	.	.	.	.	8cc\J	8e-\J	.	8g/Jyy	.	8ee-\J	.	.
!LO:LB:g=original	!	!	!	!	!LO:LB:g=original	!	!	!	!	!	!	!	!	!	!	!	!	!	!	!	!	!	!	!	!	!	!
8A\L	6	.	8a\L	.	8cc\	.	16ff\LL	.	4A\	-a(m)	4c\	-am	4a\	-am	4ff\	-(am)	4FF/yy	4f/	.	4cc\	4f\	.	4a/yy	.	4ff\	.	4r
.	.	.	.	.	.	.	16gg\J	.	.	.	.	.	.	.	.	.	.	.	.	.	.	.	.	.	.	.	.
8A\	.	.	8a\	.	4cc\	.	8aa\J	.	.	.	.	.	.	.	.	.	.	.	.	.	.	.	.	.	.	.	.
8F\	8	.	8f\	.	.	.	16aa\LL	.	4F\	tu-	4c\	tu-	4a\	tu-	4ff\	tu-	8FF/Lyy	8f/L	.	8cc\L	8f\L	.	4a/yy	.	4ff\	.	8ff\L
.	.	.	.	.	.	.	16gg\J	.	.	.	.	.	.	.	.	.	.	.	.	.	.	.	.	.	.	.	.
8F\J	.	.	8f\J	.	8cc\	.	8ff\J	.	.	.	.	.	.	.	.	.	8FF/Jyy	8f/J	.	8cc\J	8f\J	.	.	.	.	.	8aa\J
!	!	!	!LO:LB:g=original	!	!	!	!	!	!	!	!	!	!	!	!	!	!LO:PB:g=original	!LO:LB:g=original	!	!	!	!	!LO:LB:g=original	!	!	!	!
=33	=33	=33	=33	=33	=33	=33	=33	=33	=33	=33	=33	=33	=33	=33	=33	=33	=33	=33	=33	=33	=33	=33	=33	=33	=33	=33	=33
!	!	!	!	!	!	!	!	!	!	!	!	!	!	!	!	!	!LO:TX:a:t=15.	!	!	!	!	!	!	!	!	!	!
4c\	.	.	4cc\	.	4cc\	.	4een\	.	4C/	-am,	4c\	-am	4g\	-am	4een\	-am	1r	4cc\	4cc\	4cc\	4en\	.	4g/	.	4eeX\	.	4ccc\
4C/	.	.	4c\	.	4cc/ 4en/ 4G/	.	4ccc\ 4ee\ 4g\	.	4r	.	4r	.	4r	.	4r	.	.	4cc\	4cc\	4cc\	4e\	.	4g/	.	4ee\	.	4ccc\
4C/	.	.	4c\	.	4cc/ 4e/ 4G/	.	4ccc\ 4ee\ 4g\	.	2r	.	2r	.	2r	.	2r	.	.	4cc\	4cc\	4cc\	4e\	.	4g/	.	4ee\	.	4ccc\
4r	.	.	4r	.	4r	.	4r	.	.	.	.	.	.	.	.	.	.	4r	4r	4r	4r	.	4r	.	4r	.	4r
=34	=34	=34	=34	=34	=34	=34	=34	=34	=34	=34	=34	=34	=34	=34	=34	=34	=34	=34	=34	=34	=34	=34	=34	=34	=34	=34	=34
!LO:TX:a:t=1.	!	!	!LO:TX:a:t=1.	!	!LO:TX:a:t=dol	!LO:DY:b:rj:t=p.	!LO:TX:a:t=dol.	!LO:DY:b:t=p.	!LO:TX:a:t=1	!	!LO:TX:a:t=1	!	!LO:TX:a:t=1.	!	!LO:TX:a:t=1.	!	!	!LO:TX:a:t=14	!LO:TX:a:t=1	!LO:TX:a:t=1	!LO:TX:a:t=1	!	!	!	!	!	!LO:TX:a:t=8.
1r	.	.	1r	.	8cc\L	p	8ccc\L	p	1r	.	1r	.	1r	.	1r	.	1r	1r	1r	1r	1r	.	1r	.	1r	.	00r
.	.	.	.	.	(8bn\	.	8bbn\	.	.	.	.	.	.	.	.	.	.	.	.	.	.	.	.	.	.	.	.
.	.	.	.	.	8dd\	.	8ddd\	.	.	.	.	.	.	.	.	.	.	.	.	.	.	.	.	.	.	.	.
.	.	.	.	.	8cc\J)	.	8ccc\J	.	.	.	.	.	.	.	.	.	.	.	.	.	.	.	.	.	.	.	.
.	.	.	.	.	8bn\L	.	8bb\L	.	.	.	.	.	.	.	.	.	.	.	.	.	.	.	.	.	.	.	.
.	.	.	.	.	(8cc\	.	8ccc\	.	.	.	.	.	.	.	.	.	.	.	.	.	.	.	.	.	.	.	.
.	.	.	.	.	8b-X\)	.	8bb-X\	.	.	.	.	.	.	.	.	.	.	.	.	.	.	.	.	.	.	.	.
.	.	.	.	.	8g\J	.	8gg\J	.	.	.	.	.	.	.	.	.	.	.	.	.	.	.	.	.	.	.	.
!	!	!	!	!	!	!	!	!	!LO:LB:g=original	!	!	!	!	!	!	!	!	!	!	!LO:LB:g=original	!	!	!	!	!	!	!
=35	=35	=35	=35	=35	=35	=35	=35	=35	=35	=35	=35	=35	=35	=35	=35	=35	=35	=35	=35	=35	=35	=35	=35	=35	=35	=35	=35
!	!	!	!	!	!	!	!	!	!	!	!	!	!	!	!	!	!	!	!	!	!	!LO:DY:t=pia&colon;	!	!LO:DY:b:t=pia	!	!	!
4F\	3	.	4c\	.	4a/ 4f/	.	8r	.	4F\	Do-	4f\	Deo-	4c\	Do-	4a\	Do-	1r	1r	4r	4r	8F\L	p	4cc\	p	4aa\	.	.
!	!	!	!	!	!	!	!	!LO:DY:b:t=p.	!	!	!	!	!	!	!	!	!	!	!	!	!	!	!	!	!	!	!
.	.	.	.	.	.	.	16ff\LL	p	.	.	.	.	.	.	.	.	.	.	.	.	8G\	.	.	.	.	.	.
.	.	.	.	.	.	.	16gg\JJ	.	.	.	.	.	.	.	.	.	.	.	.	.	.	.	.	.	.	.	.
!	!	!	!	!	!	!	!	!	!	!	!	!	!	!	!	!	!	!	!	!	!LO:SIC:o:s:v:t=nieczytelny dźwięk	!	!	!	!	!	!
4r	.	.	4r	.	4r	.	4aa\	.	8F\	-mi-	8f\	-mi-	8c\	-mi-	8a\	-mi-	.	.	4f/	4cc\	8r\yy	.	8cc\L	.	8aa\L	.	.
.	.	.	.	.	.	.	.	.	8F\	-ne	8f\	-ne	8c\	-ne	8a\	-ne	.	.	.	.	8F\J	.	8cc\J	.	8aa\J	.	.
4C/	5	.	4c\	.	4b-/ 4g/	.	8r	.	2C/	De-	2c\	De-	2B-/	De-	2g\	de-	.	.	4r	4r	8C/L	.	4b-\	.	4gg\	.	.
.	.	.	.	.	.	.	16cc\LL	.	.	.	.	.	.	.	.	.	.	.	.	.	8D/	.	.	.	.	.	.
.	.	.	.	.	.	.	16dd\JJ	.	.	.	.	.	.	.	.	.	.	.	.	.	.	.	.	.	.	.	.
4r	.	.	4r	.	4r	.	4een\	.	.	.	.	.	.	.	.	.	.	.	4cc\	4cc\	8En/	.	8b-\L	.	8gg\L	.	.
.	.	.	.	.	.	.	.	.	.	.	.	.	.	.	.	.	.	.	.	.	8C/J	.	8b-\J	.	8gg\J	.	.
!	!	!	!	!	!	!	!LO:LB:g=original	!	!	!	!LO:LB:g=original	!	!	!	!	!	!	!	!	!	!LO:LB:g=original	!	!	!	!	!	!
=36	=36	=36	=36	=36	=36	=36	=36	=36	=36	=36	=36	=36	=36	=36	=36	=36	=36	=36	=36	=36	=36	=36	=36	=36	=36	=36	=36
4F\	8 3	.	4c\	.	4a/ 4f/	.	16ff\LL	.	2F\	-us	2.c\	-us	2.A/	-us	2.f/	-us	1r	1r	4f/	4cc\	8F\L	.	4a\	.	4ff\	.	.
.	.	.	.	.	.	.	16gg\J	.	.	.	.	.	.	.	.	.	.	.	.	.	.	.	.	.	.	.	.
.	.	.	.	.	.	.	8aa\J	.	.	.	.	.	.	.	.	.	.	.	.	.	8G\	.	.	.	.	.	.
4F\	8 3	.	4c\	.	4a/ 4f/	.	16ff\LL	.	.	.	.	.	.	.	.	.	.	.	4f/	4cc\	8A\	.	8a\L	.	8ff\L	.	.
.	.	.	.	.	.	.	16gg\J	.	.	.	.	.	.	.	.	.	.	.	.	.	.	.	.	.	.	.	.
.	.	.	.	.	.	.	8aa\J	.	.	.	.	.	.	.	.	.	.	.	.	.	8G\J	.	8a\J	.	8ff\J	.	.
4F\	8 3	.	4c\	.	4a/ 4f/	.	4ff\	.	2r	.	.	.	.	.	.	.	.	.	4f/	4cc\	8F\L	.	4a\	.	4ff\	.	.
.	.	.	.	.	.	.	.	.	.	.	.	.	.	.	.	.	.	.	.	.	8C\J	.	.	.	.	.	.
4r	.	.	4r	.	4r	.	4r	.	.	.	4r	.	4r	.	4r	.	.	.	4r	4r	8AA/L	.	8eeX\L	.	8gg\L	.	.
.	.	.	.	.	.	.	.	.	.	.	.	.	.	.	.	.	.	.	.	.	8FF/J	.	8ff\J	.	8aa\J	.	.
!	!	!	!	!	!LO:LB:g=original	!	!	!	!	!	!	!	!	!	!	!	!	!	!	!	!	!	!	!	!	!	!
=37	=37	=37	=37	=37	=37	=37	=37	=37	=37	=37	=37	=37	=37	=37	=37	=37	=37	=37	=37	=37	=37	=37	=37	=37	=37	=37	=37
4C/	5	.	4c\	.	4b-/ 4g/	.	8r	.	2C/	rex	2c\	rex	2en\	rex	2g\	rex	1r	1r	4r	4r	8C/L	.	4eeX\	.	4gg\	.	.
.	.	.	.	.	.	.	16cc\LL	.	.	.	.	.	.	.	.	.	.	.	.	.	8D/	.	.	.	.	.	.
.	.	.	.	.	.	.	16dd\JJ	.	.	.	.	.	.	.	.	.	.	.	.	.	.	.	.	.	.	.	.
4r	.	.	4r	.	4r	.	4een\	.	.	.	.	.	.	.	.	.	.	.	4cc\	4cc\	8En/	.	8dd\L	.	8gg\L	.	.
.	.	.	.	.	.	.	.	.	.	.	.	.	.	.	.	.	.	.	.	.	8C/J	.	8dd\J	.	8gg\J	.	.
4F\	3	.	4c\	.	4a/ 4f/	.	8r	.	2F\	coe-	2c\	coe-	2f\	coe-	2a\	ce-	.	.	4r	4r	8F\L	.	4ff\	.	4aa\	.	.
.	.	.	.	.	.	.	16ff\LL	.	.	.	.	.	.	.	.	.	.	.	.	.	8G\	.	.	.	.	.	.
.	.	.	.	.	.	.	16gg\JJ	.	.	.	.	.	.	.	.	.	.	.	.	.	.	.	.	.	.	.	.
4r	.	.	4r	.	4r	.	4aa\	.	.	.	.	.	.	.	.	.	.	.	4f/	4cc\	8A\	.	8ff\L	.	8aa\L	.	.
.	.	.	.	.	.	.	.	.	.	.	.	.	.	.	.	.	.	.	.	.	8F\J	.	8ff\J	.	8aa\J	.	.
!	!	!	!	!	!	!	!	!	!	!	!	!	!LO:LB:g=original	!	!LO:LB:g=original	!	!	!	!	!	!	!	!	!	!LO:LB:g=original	!	!
=38	=38	=38	=38	=38	=38	=38	=38	=38	=38	=38	=38	=38	=38	=38	=38	=38	=38	=38	=38	=38	=38	=38	=38	=38	=38	=38	=38
4C/	5 n3	.	4c\	.	4b-/ 4g/	.	16een\LL	.	2C/	-le-	2.c\	-le-	2en\	-le-	2g\	-le-	1r	1r	4cc\	4cc\	8En\L	.	4eeX\	.	4gg\	.	00r
.	.	.	.	.	.	.	16ff\J	.	.	.	.	.	.	.	.	.	.	.	.	.	.	.	.	.	.	.	.
.	.	.	.	.	.	.	8gg\J	.	.	.	.	.	.	.	.	.	.	.	.	.	8F\	.	.	.	.	.	.
4C/	5 3	.	4c\	.	4b-/ 4g/	.	16ee\LL	.	.	.	.	.	.	.	.	.	.	.	4cc\	4cc\	8G\	.	8ee\L	.	8gg\L	.	.
.	.	.	.	.	.	.	16ff\J	.	.	.	.	.	.	.	.	.	.	.	.	.	.	.	.	.	.	.	.
.	.	.	.	.	.	.	8gg\J	.	.	.	.	.	.	.	.	.	.	.	.	.	8E\J	.	8ee\J	.	8gg\J	.	.
!	!	!	!	!	!	!	!	!	!	!	!	!	!	!	!	!	!	!	!	!	!	!	!LO:LB:g=original	!	!	!	!
4C/	5 3	.	4c\	.	4b-/ 4g/	.	4ee\	.	4C/	-stis	.	.	4e\	-stis	4g\	-stis	.	.	4cc\	4cc\	8C/L	.	4ee\	.	4gg\	.	.
.	.	.	.	.	.	.	.	.	.	.	.	.	.	.	.	.	.	.	.	.	8GG/	.	.	.	.	.	.
4r	.	.	4r	.	4r	.	4r	.	4r	.	4c\	-stis	4r	.	4r	.	.	.	4r	4r	8EEn/	.	8cc\L	.	8eeX\L	.	.
.	.	.	.	.	.	.	.	.	.	.	.	.	.	.	.	.	.	.	.	.	8GG/J	.	8dd\J	.	8ff\J	.	.
!LO:LB:g=original	!	!	!	!	!	!	!	!	!	!	!	!	!	!	!	!	!	!	!	!	!	!	!	!	!	!	!
=39	=39	=39	=39	=39	=39	=39	=39	=39	=39	=39	=39	=39	=39	=39	=39	=39	=39	=39	=39	=39	=39	=39	=39	=39	=39	=39	=39
4c\	n3	.	4cc\	.	4b-/ 4g/	.	8r	.	2c\	De-	2.c\	De-	2.en\	De-	2.g\	de-	1r	1r	4r	4r	8C/L	.	4eeX\	.	4gg\	.	.
.	.	.	.	.	.	.	16cc\LL	.	.	.	.	.	.	.	.	.	.	.	.	.	8D/	.	.	.	.	.	.
.	.	.	.	.	.	.	16dd\JJ	.	.	.	.	.	.	.	.	.	.	.	.	.	.	.	.	.	.	.	.
4r	.	.	4r	.	4r	.	4een\	.	.	.	.	.	.	.	.	.	.	.	4cc\	4cc\	8En/	.	8ee\L	.	8gg\L	.	.
.	.	.	.	.	.	.	.	.	.	.	.	.	.	.	.	.	.	.	.	.	8C/J	.	8ee\J	.	8gg\J	.	.
4B-\	n4	.	4b-\	.	4b-/ 4g/	.	8r	.	2B-\	-us	.	.	.	.	.	.	.	.	4r	4r	8E\L	.	4ee\	.	4gg\	.	.
.	.	.	.	.	.	.	16ee\LL	.	.	.	.	.	.	.	.	.	.	.	.	.	8F\	.	.	.	.	.	.
.	.	.	.	.	.	.	16ff\JJ	.	.	.	.	.	.	.	.	.	.	.	.	.	.	.	.	.	.	.	.
4r	.	.	4r	.	4r	.	4gg\	.	.	.	4c\	-us	8f\L	-us	8a\L	-us	.	.	4cc\	4cc\	8G\	.	8ff\L	.	8aa\L	.	.
.	.	.	.	.	.	.	.	.	.	.	.	.	8g\J	.	8b-\J	.	.	.	.	.	8E\J	.	8gg\J	.	8bb-\J	.	.
!	!	!	!	!	!	!	!	!	!	!	!	!	!	!	!	!	!	!	!LO:LB:g=original	!	!	!	!	!	!	!	!
=40	=40	=40	=40	=40	=40	=40	=40	=40	=40	=40	=40	=40	=40	=40	=40	=40	=40	=40	=40	=40	=40	=40	=40	=40	=40	=40	=40
4A\	6	.	4a\	.	4cc/ 4a/	.	8r	.	2A\	pa-	2c\	Pa-	2a\	pa-	2cc\	pa-	1r	1r	4r	4r	8F\L	.	4aa\	.	4ccc\	.	.
.	.	.	.	.	.	.	16ff\LL	.	.	.	.	.	.	.	.	.	.	.	.	.	8G\	.	.	.	.	.	.
.	.	.	.	.	.	.	16gg\JJ	.	.	.	.	.	.	.	.	.	.	.	.	.	.	.	.	.	.	.	.
4r	.	.	4r	.	4r	.	4aa\	.	.	.	.	.	.	.	.	.	.	.	4f/	4cc\	8A\	.	8aa\L	.	8ccc\L	.	.
.	.	.	.	.	.	.	.	.	.	.	.	.	.	.	.	.	.	.	.	.	8F\J	.	8aa\J	.	8ccc\J	.	.
!	!	!	!	!	!	!	!LO:LB:g=original	!	!	!	!	!	!	!	!	!	!	!	!	!	!	!	!	!	!	!	!
4B-\	6	.	4b-\	.	4b-/ 4d/	.	8r	.	4B-\	-ter	4B-\	-ter	8g\L	-ter	8cc#X\L	-ter	.	.	4r	4r	8B-\L	.	8aa\L	.	8ccc#X\L	.	.
.	.	.	.	.	.	.	16gg\LL	.	.	.	.	.	8a\J	.	8dd\J	.	.	.	.	.	8c\	.	8bb-\	.	8ddd\	.	.
.	.	.	.	.	.	.	16aa\JJ	.	.	.	.	.	.	.	.	.	.	.	.	.	.	.	.	.	.	.	.
4r	.	.	4r	.	4r	.	4bb-\	.	4B-\	om-	4B-\	o-	8d\L	om-	8b-\L	o-	.	.	4b-\	4dd\	8d\	.	8dd\	.	8bb-\	.	.
.	.	.	.	.	.	.	.	.	.	.	.	.	8B-\J	.	8g\J	.	.	.	.	.	8B-\J	.	8b-\J	.	8gg\J	.	.
!	!	!	!	!	!	!	!	!	!	!	!	!	!	!	!	!	!	!	!	!	!LO:LB:g=original	!	!	!	!	!	!
=41	=41	=41	=41	=41	=41	=41	=41	=41	=41	=41	=41	=41	=41	=41	=41	=41	=41	=41	=41	=41	=41	=41	=41	=41	=41	=41	=41
!	!	!	!	!	!	!	!	!	!	!	!	!	!	!	!	!	!	!	!	!	!	!	!	!	!	!	!LO:TX:b:t=Verte Citto.
4c\	4	.	4cc\	.	4a/ 4f/	.	8r	.	2c\	-ni-	2c\	-mni-	2c\	-ni-	2a\	-mni-	1r	1r	4r	4r	8F\L	.	4cc\	.	4aa\	.	.
!	!	!	!	!	!	!	!	!LO:DY:b	!	!	!	!	!	!	!	!	!	!	!	!	!	!	!	!	!	!	!
.	.	.	.	.	.	.	16ff\LL	p	.	.	.	.	.	.	.	.	.	.	.	.	8G\	.	.	.	.	.	.
.	.	.	.	.	.	.	16gg\JJ	.	.	.	.	.	.	.	.	.	.	.	.	.	.	.	.	.	.	.	.
4r	.	.	4r	.	4r	.	4aa\	.	.	.	.	.	.	.	.	.	.	.	4cc\	4cc\	8A\	.	8cc\L	.	8aa\L	.	.
.	.	.	.	.	.	.	.	.	.	.	.	.	.	.	.	.	.	.	.	.	8F\J	.	8cc\J	.	8aa\J	.	.
4C/	n	.	4c\	.	4b-/ 4g/	.	8r	.	2C/	-po-	2c\	-po-	2B-/	-po-	2g\	-po-	.	.	4r	4r	8C/L	.	4b-\	.	4gg\	.	.
.	.	.	.	.	.	.	16cc\LL	.	.	.	.	.	.	.	.	.	.	.	.	.	8D/	.	.	.	.	.	.
.	.	.	.	.	.	.	16dd\JJ	.	.	.	.	.	.	.	.	.	.	.	.	.	.	.	.	.	.	.	.
4r	.	.	4r	.	4r	.	4een\	.	.	.	.	.	.	.	.	.	.	.	4cc\	4cc\	8En/	.	8b-\L	.	4gg\	.	.
.	.	.	.	.	.	.	.	.	.	.	.	.	.	.	.	.	.	.	.	.	8C/J	.	8b-\J	.	.	.	.
!	!	!	!LO:LB:g=original	!	!	!	!	!	!	!	!	!	!	!	!	!	!	!	!	!LO:LB:g=original	!	!	!	!	!	!	!LO:PB:g=original
=42	=42	=42	=42	=42	=42	=42	=42	=42	=42	=42	=42	=42	=42	=42	=42	=42	=42	=42	=42	=42	=42	=42	=42	=42	=42	=42	=42
4F\	3	.	4f\	.	4a/ 4f/	.	4ff\	.	2F\	-tens	4c\	-tens	4A/	-tens	4f/	-tens	1r	1r	4f/	4cc\	4F\	.	4a\	.	4ff\	.	2r
4r	.	.	4r	.	4r	.	4r	.	.	.	4r	.	4r	.	4r	.	.	.	4r	4r	4r	.	4r	.	4r	.	.
!	!	!	!	!	!	!	!	!	!	!	!	!	!	!	!	!	!	!	!	!	!	!	!	!	!	!	!LO:TX:t=P:problem:przednutka???
.	.	.	.	.	.	.	.	.	.	.	.	.	.	.	.	.	.	.	.	.	.	.	.	.	.	.	8qqee-/
!	!	!	!	!	!	!	!	!	!	!	!	!	!	!	!	!	!	!	!	!	!	!	!	!LO:DY:b:rj:t=for	!	!	!
4D'\	.	.	4d\	.	4d/	.	4dd\	.	2r	.	2r	.	2r	.	2r	.	.	.	4d/	4dd\	4D\	.	4d/	f	4dd\	.	4dd\
4D'\	.	.	4d\	.	4d/	.	4dd\	.	.	.	.	.	.	.	.	.	.	.	4d/	4dd\	4D\	.	4d/	.	4dd\	.	4dd\
!	!	!	!	!	!LO:LB:g=original	!	!	!	!LO:LB:g=original	!	!	!	!	!	!	!	!	!	!	!	!	!	!LO:LB:g=original	!	!	!	!
=43	=43	=43	=43	=43	=43	=43	=43	=43	=43	=43	=43	=43	=43	=43	=43	=43	=43	=43	=43	=43	=43	=43	=43	=43	=43	=43	=43
!	!	!	!	!	!	!	!	!	!LO:TX:a:t=2.	!	!LO:TX:a:t=2	!	!LO:TX:a:t=2.	!	!LO:TX:a:t=2.	!	!	!	!LO:TX:a:t=2	!LO:TX:a:t=2	!	!	!	!	!	!	!
4.G\	.	.	4.g\	.	4.g/	.	4.gg\	.	0r	.	0r	.	0r	.	0r	.	1r	1r	0r	0r	4.G\	.	4.g/	.	4.gg\	.	4.gg\
8F#X'\	.	.	8f#X\	.	8f#X/	.	8ff#X\	.	.	.	.	.	.	.	.	.	.	.	.	.	8F#X\	.	8f#X/	.	8ff#X\	.	8ff#X\
8G'\L	.	.	8g\L	.	8g/L	.	8gg\L	.	.	.	.	.	.	.	.	.	.	.	.	.	8G\L	.	8g/L	.	8gg\L	.	8gg\L
8F#'\	.	.	8f#\	.	8f#/	.	8ff#\	.	.	.	.	.	.	.	.	.	.	.	.	.	8F#\	.	8f#/	.	8ff#\	.	8ff#\
8G'\	.	.	8g\	.	8g/	.	8gg\	.	.	.	.	.	.	.	.	.	.	.	.	.	8G\	.	8g/	.	8gg\	.	8gg\
8A'\J	.	.	8a\J	.	8a/J	.	8aa\J	.	.	.	.	.	.	.	.	.	.	.	.	.	8A\J	.	8a/J	.	8aa\J	.	8aa\J
!LO:PB:g=original	!	!	!	!	!	!	!	!	!	!	!	!	!	!	!	!	!	!	!	!	!	!	!	!	!	!	!
=44	=44	=44	=44	=44	=44	=44	=44	=44	=44	=44	=44	=44	=44	=44	=44	=44	=44	=44	=44	=44	=44	=44	=44	=44	=44	=44	=44
4.B-'\	.	.	4.b-\	.	4.b-/	.	4.bb-\	.	.	.	.	.	.	.	.	.	1r	1r	.	.	4.B-\	.	4.b-\	.	4.bb-\	.	4.bb-\
8A'\	.	.	8a\	.	8a/	.	8aa\	.	.	.	.	.	.	.	.	.	.	.	.	.	8A\	.	8a\	.	8aa\	.	8aa\
!	!	!	!	!	!	!	!	!	!	!	!	!	!	!	!	!	!	!	!	!	!LO:SIC:s:v==8G	!	!	!	!	!	!
8G'\L	.	.	8g\L	.	8g/L	.	8gg\L	.	.	.	.	.	.	.	.	.	.	.	.	.	8F\L	.	8g/L	.	8gg\L	.	8gg\L
8D'\	.	.	8d\	.	8d/	.	8dd\	.	.	.	.	.	.	.	.	.	.	.	.	.	8D\	.	8d/	.	8dd\	.	8ddd\
8BB-'\	.	.	8B-\	.	8B-/	.	8b-\	.	.	.	.	.	.	.	.	.	.	.	.	.	8BB-\	.	8B-/	.	8b-\	.	8bb-\
!	!	!	!	!	!	!	!	!	!	!	!	!	!	!	!	!	!	!	!	!	!	!	!	!	!LO:TX:b:t=c\nVerte Eitto.	!	!
8D'\J	.	.	8d\J	.	8d/J	.	8dd\J	.	.	.	.	.	.	.	.	.	.	.	.	.	8D\J	.	8d/J	.	8dd\J	.	8ddd\J
!	!	!	!	!	!	!	!	!	!	!	!	!	!	!	!	!	!	!	!	!	!	!	!	!	!LO:PB:g=original	!	!
=45	=45	=45	=45!|:	=45	=45	=45	=45!|:	=45	=45	=45	=45	=45	=45	=45	=45	=45	=45	=45	=45!|:	=45||	=45	=45	=45!|:	=45	=45!|:	=45	=45!|:
!	!	!LO:DY:b:t=p&colon;	!	!	!	!LO:DY:b:rj:t=p.	!	!	!	!	!	!	!	!	!	!	!	!	!	!	!	!	!	!	!	!LO:DY:b:t=pia	!
4G\	.	p	4g\	.	8r	p	8r	.	2r	.	2r	.	2r	.	2r	.	1r	1r	4r	4r	8G\L	.	8g\L	.	8g\L	p	8gg\L
!	!	!	!	!	!	!	!	!LO:DY:b:t=p.	!	!	!	!	!	!	!	!	!	!	!	!	!	!	!	!	!	!	!
.	.	.	.	.	16g/LL	.	16gg\LL	p	.	.	.	.	.	.	.	.	.	.	.	.	8B-\J	.	8b-\J	.	8b-\J	.	8bb-\J
.	.	.	.	.	16a/JJ	.	16aa\JJ	.	.	.	.	.	.	.	.	.	.	.	.	.	.	.	.	.	.	.	.
4r	.	.	4r	.	4b-/	.	4bb-\	.	.	.	.	.	.	.	.	.	.	.	4d/	4dd\	4d\	.	4dd\	.	4dd\	.	4ddd\
4G\	.	.	4g\	.	8r	.	8r	.	4r	.	4r	.	4r	.	4r	.	.	.	4r	4r	8G\L	.	8g\L	.	8g\L	.	8gg\L
!	!	!	!	!	!	!	!LO:LB:g=original	!	!	!	!	!	!	!	!	!	!	!	!	!	!	!	!	!	!	!	!
.	.	.	.	.	16g/LL	.	16gg\LL	.	.	.	.	.	.	.	.	.	.	.	.	.	8B-\J	.	8b-\J	.	8b-\J	.	8bb-\J
.	.	.	.	.	16a/JJ	.	16aa\JJ	.	.	.	.	.	.	.	.	.	.	.	.	.	.	.	.	.	.	.	.
4r	.	.	4r	.	4b-/	.	4bb-\	.	4G\	Do-	4d\	Do-	4d\	Do-	4b-\	Do-	.	.	4d/	4dd\	4d\	.	4dd\	.	4dd\	.	4ddd\
!	!	!	!	!	!	!	!	!	!	!	!	!	!LO:LB:g=original	!	!	!	!	!	!	!	!	!	!	!	!	!	!
=46	=46	=46	=46:|!	=46	=46	=46	=46	=46	=46	=46	=46	=46	=46	=46	=46	=46	=46	=46	=46	=46	=46	=46	=46	=46	=46	=46	=46
!	!	!	!LO:TX:t=P:problem:takt zapisany repetycją	!	!	!	!	!	!	!	!	!	!	!	!	!	!	!	!LO:TX:a:t=bis	!	!	!	!	!	!	!	!
4G\	3	.	4g\yy	.	8r	.	8r	.	2G\	-mi-	2d\	-mi-	2d\	-mi-	2b-\	-mi-	1r	1r	4r	4r	8G\L	.	8g\L	.	8g\L	.	8gg\L
.	.	.	.	.	16g/LL	.	16gg\LL	.	.	.	.	.	.	.	.	.	.	.	.	.	8B-\J	.	8b-\J	.	8b-\J	.	8bb-\J
.	.	.	.	.	16a/JJ	.	16aa\JJ	.	.	.	.	.	.	.	.	.	.	.	.	.	.	.	.	.	.	.	.
!	!	!	!	!	!	!	!	!	!	!	!	!	!	!	!	!	!	!	!	!	!	!	!	!	!	!	!LO:N:vis=4.
4r	.	.	4ryy	.	4.b-/	.	4.bb-\	.	.	.	.	.	.	.	.	.	.	.	4d/	4dd\	4d\	.	4dd\	.	4dd\	.	4ddd\
4G\	3	.	4g\yy	.	.	.	.	.	2G\	-ne	2d\	-ne	2d\	-ne	2b-\	-ne	.	.	4r	4r	8G\L	.	8g\L	.	8g\L	.	8gg\L
.	.	.	.	.	8a/L	.	8aa\L	.	.	.	.	.	.	.	.	.	.	.	.	.	8B-\J	.	8b-\J	.	8b-\J	.	8bb-\J
4r	.	.	4ryy	.	8g/	.	8gg\	.	.	.	.	.	.	.	.	.	.	.	4d/	4dd\	4d\	.	4dd\	.	4dd\	.	4ddd\
.	.	.	.	.	8f#X/J	.	8ff#X\J	.	.	.	.	.	.	.	.	.	.	.	.	.	.	.	.	.	.	.	.
!	!	!	!	!	!LO:LB:g=original	!	!	!	!	!	!	!	!	!	!	!	!	!	!	!	!	!	!	!	!	!	!
=47	=47	=47	=47	=47	=47	=47	=47	=47	=47	=47	=47	=47	=47	=47	=47	=47	=47	=47	=47	=47	=47	=47	=47	=47	=47	=47	=47
4G\	3	.	4g\	.	8g/L	.	8gg\L	.	2G\	fi-	2d\	fi-	2d\	fi-	2b-\	fi-	1r	1r	4r	4r	8G\L	.	8g\L	.	8g\L	.	8gg\L
.	.	.	.	.	8f#X/	.	8ff#X\	.	.	.	.	.	.	.	.	.	.	.	.	.	8B-\J	.	8b-\J	.	8b-\J	.	8bb-\J
4r	.	.	4r	.	8g/	.	8gg\	.	.	.	.	.	.	.	.	.	.	.	4d/	4dd\	4d\	.	4dd\	.	4dd\	.	4ddd\
.	.	.	.	.	8a/J	.	8aa\J	.	.	.	.	.	.	.	.	.	.	.	.	.	.	.	.	.	.	.	.
!	!	!	!	!	!LO:LB:g=original	!	!	!	!	!	!	!	!	!	!	!	!	!	!	!	!	!	!LO:LB:g=original	!	!	!	!
4G\	3	.	4g\	.	8b-\L	.	8bb-\L	.	2G\	-li	2d\	-li	2d\	-li	2b-\	-li	.	.	4r	4r	8G\L	.	8g\L	.	8g\L	.	8gg\L
.	.	.	.	.	8a\	.	8aa\	.	.	.	.	.	.	.	.	.	.	.	.	.	8B-\J	.	8b-\J	.	8b-\J	.	8bb-\J
!	!	!	!LO:TX:t=P:problem:niepełna miara taktu	!	!	!	!	!	!	!	!	!	!	!	!	!	!	!	!	!	!	!	!LO:TX:a:t=bis	!	!	!	!
4r	.	.	4ryy	.	8b-\	.	8bb-\	.	.	.	.	.	.	.	.	.	.	.	4d/	4dd\	4d\	.	4dd\	.	4dd\	.	4ddd\
.	.	.	.	.	8cc\J	.	8ccc\J	.	.	.	.	.	.	.	.	.	.	.	.	.	.	.	.	.	.	.	.
!	!	!	!	!	!	!	!	!	!	!	!LO:LB:g=original	!	!	!	!LO:LB:g=original	!	!	!	!	!	!LO:LB:g=original	!	!	!	!	!	!
=48	=48	=48	=48!|:	=48	=48	=48	=48	=48	=48	=48	=48	=48	=48	=48	=48	=48	=48	=48	=48:|!	=48	=48	=48	=48	=48	=48	=48	=48
!	!	!LO:DY:b:t=for	!	!	!	!LO:DY:b:rj:t=f	!	!	!	!	!	!	!	!	!	!	!	!	!LO:TX:t=P:problem:tt. 45-47 zapisane repetycją	!	!	!	!	!	!	!	!
4B-\	5 3	f	4b-\	.	8r	f	8r	.	2r	.	2r	.	2r	.	2r	.	4r	4r	4ryy	4r	8B-\L	.	8B-/L	.	8b-\L	.	8bb-\L
!	!	!	!	!	!	!	!	!LO:DY:b:t=for.	!	!	!	!	!	!	!	!	!	!	!	!	!	!	!	!	!	!	!
.	.	.	.	.	16b-\LL	.	16bb-\LL	f	.	.	.	.	.	.	.	.	.	.	.	.	8d\J	.	8d/J	.	8dd\J	.	8ddd\J
.	.	.	.	.	16cc\JJ	.	16ccc\JJ	.	.	.	.	.	.	.	.	.	.	.	.	.	.	.	.	.	.	.	.
4r	.	.	4r	.	4dd\	.	4ddd\	.	.	.	.	.	.	.	.	.	4BB-/	4b-\	4d/yy	4b-\	4f\	.	4f/	.	4ff\	.	4fff\
4B-\	5 3	.	4b-\	.	8r	.	8r	.	4r	.	4r	.	4r	.	4r	.	4r	4r	4ryy	4r	8B-\L	.	8B-/L	.	8b-\L	.	8bb-\L
.	.	.	.	.	16b-\LL	.	16bb-\LL	.	.	.	.	.	.	.	.	.	.	.	.	.	8d\J	.	8d/J	.	8dd\J	.	8ddd\J
.	.	.	.	.	16cc\JJ	.	16ccc\JJ	.	.	.	.	.	.	.	.	.	.	.	.	.	.	.	.	.	.	.	.
4r	.	.	4r	.	4dd\	.	4ddd\	.	4B-\	Do-	4f\	Do-	4f\	Do-	4dd\	Do-	4BB-/	4b-\	4d/yy	4b-\	4f\	.	4f/	.	4ff\	.	4fff\
!	!	!	!	!	!	!	!	!	!	!	!	!	!	!	!	!	!	!	!	!	!	!	!	!	!	!	!LO:LB:g=original
=49	=49	=49	=49:|!	=49	=49	=49	=49	=49	=49	=49	=49	=49	=49	=49	=49	=49	=49	=49!|:	=49	=49	=49	=49	=49	=49	=49	=49	=49
!	!	!	!LO:TX:t=P:problem:takt zapisany repetycją	!	!	!	!	!	!	!	!	!	!	!	!	!	!	!	!	!	!	!	!	!	!	!	!
4B-\	5 3	.	4b-\yy	.	8r	.	8r	.	2B-\	-mi-	2f\	-mi-	2f\	-mi-	2dd\	-mi-	4r	4r	4ryy	4r	8B-\L	.	8B-/L	.	8b-\L	.	8bb-\L
.	.	.	.	.	16b-\LL	.	16bb-\LL	.	.	.	.	.	.	.	.	.	.	.	.	.	8d\J	.	8d/J	.	8dd\J	.	8ddd\J
.	.	.	.	.	16cc\JJ	.	16ccc\JJ	.	.	.	.	.	.	.	.	.	.	.	.	.	.	.	.	.	.	.	.
4r	.	.	4ryy	.	4.dd\	.	4.ddd\	.	.	.	.	.	.	.	.	.	4BB-/	4b-\	4d/yy	4b-\	4f\	.	4f/	.	4ff\	.	4fff\
4B-\	5 3	.	4b-\yy	.	.	.	.	.	2B-\	-ne	2f\	-ne	2f\	-ne	2dd\	-ne	4r	4r	4ryy	4r	8B-\L	.	8B-/L	.	8b-\L	.	8bb-\L
.	.	.	.	.	8cc\L	.	8ccc\L	.	.	.	.	.	.	.	.	.	.	.	.	.	8d\J	.	8d/J	.	8dd\J	.	8ddd\J
4r	.	.	4ryy	.	8b-\	.	8bb-\	.	.	.	.	.	.	.	.	.	4BB-/	4b-\	4d/yy	4b-\	4f\	.	4f/	.	4ff\	.	4fff\
.	.	.	.	.	8a\J	.	8aa\J	.	.	.	.	.	.	.	.	.	.	.	.	.	.	.	.	.	.	.	.
!	!	!	!	!	!	!	!LO:LB:g=original	!	!	!	!	!	!	!	!	!	!	!	!	!	!	!	!	!	!	!	!
=50	=50	=50	=50	=50	=50	=50	=50	=50	=50	=50	=50	=50	=50	=50	=50	=50	=50	=50:|!	=50	=50	=50	=50	=50	=50	=50	=50	=50
!	!	!	!	!	!	!	!	!	!	!	!	!	!	!	!	!	!	!LO:TX:t=P:problem:takt zapisany repetycją	!	!	!	!	!	!	!	!	!
4B-\	5 3	.	4b-\	.	8b-\L	.	8bb-\L	.	2B-\	fil-	2f\	fi-	2f\	fi-	2dd\	fi-	4r	4ryy	4ryy	4r	8B-\L	.	8B-/L	.	8b-\L	.	8bb-\L
.	.	.	.	.	8a\	.	8aa\	.	.	.	.	.	.	.	.	.	.	.	.	.	8d\J	.	8d/J	.	8dd\J	.	8ddd\J
4r	.	.	4r	.	8b-\	.	8bb-\	.	.	.	.	.	.	.	.	.	4BB-/	4b-\yy	4d/yy	4b-\	4f\	.	4f/	.	4ff\	.	4fff\
.	.	.	.	.	8cc\J	.	8ccc\J	.	.	.	.	.	.	.	.	.	.	.	.	.	.	.	.	.	.	.	.
!	!	!	!	!	!LO:LB:g=original	!	!	!	!	!	!	!	!	!	!	!	!	!	!	!	!	!	!	!	!	!	!
4B-\	5 3	.	4b-\	.	8dd\L	.	8ddd\L	.	2B-\	-li	2f\	-li	2f\	-li	2dd\	-li	4r	4ryy	4ryy	4r	8B-\L	.	8B-/L	.	8b-\L	.	8bb-\L
.	.	.	.	.	8cc\	.	8ccc\	.	.	.	.	.	.	.	.	.	.	.	.	.	8d\J	.	8d/J	.	8dd\J	.	8ddd\J
4r	.	.	4r	.	8dd\	.	8ddd\	.	.	.	.	.	.	.	.	.	4BB-/	4b-\yy	4d/yy	4b-\	4f\	.	4f/	.	4ff\	.	4fff\
.	.	.	.	.	8ee-\J	.	8eee-\J	.	.	.	.	.	.	.	.	.	.	.	.	.	.	.	.	.	.	.	.
!LO:LB:g=original	!	!	!	!	!	!	!	!	!	!	!	!	!	!	!	!	!	!	!	!LO:LB:g=original	!	!	!	!	!	!	!
=51	=51	=51	=51	=51	=51	=51	=51	=51	=51	=51	=51	=51	=51	=51	=51	=51	=51	=51	=51!|:	=51	=51	=51	=51	=51	=51	=51	=51
4B-\	5 3	.	4b-\	.	4ff\	.	4fff\	.	4B-\	u-	4f\	u-	4dd\	u-	4ff\	u-	4BB-/	4b-\	4B-/	4b-\	4f\	.	4dd\	.	4ff\	.	4fff\
*	*	*	*	*	*tremolo	*	*tremolo	*	*	*	*	*	*	*	*	*	*	*	*	*	*	*	*	*	*	*	*
4E-\	3	.	4e-\	.	16ccc\LL	.	16eee-X\LL	.	4E-\	-ni-	4g\	-ni-	4cc\	-ni-	4ee-\	-ni-	4r	4r	4r	4cc\	4e-\	.	4cc\	.	4ee-\	.	4eee-\
.	.	.	.	.	16ccc\	.	16eee-\	.	.	.	.	.	.	.	.	.	.	.	.	.	.	.	.	.	.	.	.
.	.	.	.	.	16ccc\	.	16eee-\	.	.	.	.	.	.	.	.	.	.	.	.	.	.	.	.	.	.	.	.
.	.	.	.	.	16ccc\JJ	.	16eee-\JJ	.	.	.	.	.	.	.	.	.	.	.	.	.	.	.	.	.	.	.	.
!	!	!	!	!	!LO:LB:g=original	!	!	!	!	!	!	!	!	!	!	!	!	!	!	!	!	!	!	!	!	!	!
4F\	6	.	4f\	.	16bb-\LL	.	16ddd\LL	.	4F\	-ge-	4f\	-ge-	4b-\	-ge-	4dd\	-ge-	4BB-/	4b-\	4B-/	4dd\	4d\	.	4b-\	.	4dd\	.	4ddd\
.	.	.	.	.	16bb-\	.	16ddd\	.	.	.	.	.	.	.	.	.	.	.	.	.	.	.	.	.	.	.	.
.	.	.	.	.	16bb-\	.	16ddd\	.	.	.	.	.	.	.	.	.	.	.	.	.	.	.	.	.	.	.	.
.	.	.	.	.	16bb-\JJ	.	16ddd\JJ	.	.	.	.	.	.	.	.	.	.	.	.	.	.	.	.	.	.	.	.
4F\	5	.	4f\	.	16aa\LL	.	16ccc\LL	.	4F\	-ni-	4f\	-ni-	4a\	-ni-	4cc\	-ni-	4FF/	8f/L	4r	4cc\	4c\	.	4a\	.	4cc\	.	4ccc\
.	.	.	.	.	16aa\	.	16ccc\	.	.	.	.	.	.	.	.	.	.	.	.	.	.	.	.	.	.	.	.
.	.	.	.	.	16aa\	.	16ccc\	.	.	.	.	.	.	.	.	.	.	8f/J	.	.	.	.	.	.	.	.	.
.	.	.	.	.	16aa\JJ	.	16ccc\JJ	.	.	.	.	.	.	.	.	.	.	.	.	.	.	.	.	.	.	.	.
*	*	*	*	*	*Xtremolo	*	*Xtremolo	*	*	*	*	*	*	*	*	*	*	*	*	*	*	*	*	*	*	*	*
!	!	!	!	!	!	!	!	!	!LO:LB:g=original	!	!	!	!	!	!	!	!	!	!LO:LB:g=original	!	!	!	!LO:LB:g=original	!	!LO:LB:g=original	!	!
=52	=52	=52	=52!|:	=52	=52	=52	=52:|!	=52	=52	=52	=52	=52	=52	=52	=52	=52	=52	=52	=52	=52||	=52	=52	=52:|!	=52	=52:|!	=52	=52:|!
!	!	!	!	!	!	!	!	!	!	!	!	!	!	!	!	!	!	!	!LO:TX:t=P:problem:błędnie zapisana repetycja 	!	!	!	!	!	!	!	!
!	!	!LO:DY:b:t=p&colon;	!	!	!	!LO:DY:b:rj:t=p.	!LO:TX:t=P:problem:tt.51-57 zapisane repetycją	!	!	!	!	!	!	!	!	!	!LO:TX:a:t=3.	!LO:TX:a:t=3	!LO:TX:t=P:problem:tt. 51-57 zapisane repetycją	!LO:TX:t=P:problem:tt. 51-57 zapisane repetycją	!	!	!LO:TX:t=P:problem:tt. 51-57 zapisane repetycją	!	!LO:TX:t=P:problem:tt. 51-57 zapisane repetycją	!	!LO:TX:t=P:problem:tt.51-57 zapisane repetycją
4G\	3	p	4g\	.	8r	p	8ryy	.	4G\	-te	4d\	-te	4d\	-te	4b-\	-te	0r	0r	4r	4ryy	8G\L	.	8g\Lyy	.	8g\Lyy	.	8gg\Lyy
!	!	!	!	!	!	!	!	!LO:DY:b:t=p.	!	!	!	!	!	!	!	!	!	!	!	!	!	!	!	!	!	!	!
.	.	.	.	.	16g/LL	.	16gg\LLyy	p	.	.	.	.	.	.	.	.	.	.	.	.	8B-\J	.	8b-\Jyy	.	8b-\Jyy	.	8bb-\Jyy
.	.	.	.	.	16a/JJ	.	16aa\JJy	.	.	.	.	.	.	.	.	.	.	.	.	.	.	.	.	.	.	.	.
4r	.	.	4r	.	4b-/	.	4bb-\yy	.	4r	.	4r	.	4r	.	4r	.	.	.	4B-/	4dd\yy	4d\	.	4dd\yy	.	4dd\yy	.	4ddd\yy
4G\	3	.	4g\	.	8r	.	8ryy	.	4r	.	4r	.	4r	.	4r	.	.	.	4r	4ryy	8G\L	.	8g\Lyy	.	8g\Lyy	.	8gg\Lyy
!	!	!	!	!	!	!	!LO:LB:g=original	!	!	!	!	!	!	!	!	!	!	!	!	!	!	!	!	!	!	!	!
.	.	.	.	.	16g/LL	.	16gg\LLyy	.	.	.	.	.	.	.	.	.	.	.	.	.	8B-\J	.	8b-\Jyy	.	8b-\Jyyyy	.	8bb-\Jyy
.	.	.	.	.	16a/JJ	.	16aa\JJyy	.	.	.	.	.	.	.	.	.	.	.	.	.	.	.	.	.	.	.	.
4r	.	.	4r	.	4b-/	.	4bb-\yy	.	4G\	Je-	4d\	Je-	4d\	Je-	4b-\	Je-	.	.	4B-/	4dd\yy	4d\	.	4dd\yy	.	4dd\yy	.	4ddd\yy
!	!	!	!LO:LB:g=original	!	!	!	!	!	!	!	!	!	!	!	!	!	!	!	!	!	!	!	!	!	!	!	!
=53	=53	=53	=53:|!	=53	=53	=53	=53	=53	=53	=53	=53	=53	=53	=53	=53	=53	=53	=53	=53	=53	=53	=53	=53	=53	=53	=53	=53
!	!	!	!LO:TX:t=P:problem:takt zapisany repetycją	!	!	!	!	!	!	!	!	!	!	!	!	!	!	!	!	!	!	!	!	!	!	!	!
4G\	3	.	4g\yy	.	8r	.	8ryy	.	1G\	-su	1d\	-su	1d\	-su	1b-\	-su	.	.	4r	4ryy	8G\L	.	8g\Lyy	.	8g\Lyy	.	8gg\Lyy
.	.	.	.	.	16g/LL	.	16gg\LLyy	.	.	.	.	.	.	.	.	.	.	.	.	.	8B-\J	.	8b-\Jyy	.	8b-\Jyy	.	8bb-\Jyy
.	.	.	.	.	16a/JJ	.	16aa\JJyy	.	.	.	.	.	.	.	.	.	.	.	.	.	.	.	.	.	.	.	.
!	!	!	!	!	!	!	!	!	!	!	!	!	!	!	!	!	!	!	!	!	!	!	!	!	!	!	!LO:N:vis=4.
4r	.	.	4ryy	.	4.b-/	.	4.bb-\yy	.	.	.	.	.	.	.	.	.	.	.	4B-/	4dd\yy	4d\	.	4dd\yy	.	4dd\yy	.	4ddd\yy
4G\	3	.	4g\yy	.	.	.	.	.	.	.	.	.	.	.	.	.	.	.	4r	4ryy	8G\L	.	8g\Lyy	.	8g\Lyy	.	8gg\Lyy
.	.	.	.	.	8a/L	.	8aa\Lyy	.	.	.	.	.	.	.	.	.	.	.	.	.	8B-\J	.	8b-\Jyy	.	8b-\Jyy	.	8bb-\Jyy
4r	.	.	4ryy	.	8g/	.	8gg\yy	.	.	.	.	.	.	.	.	.	.	.	4B-/	4dd\yy	4d\	.	4dd\yy	.	4dd\yy	.	4ddd\yy
.	.	.	.	.	8f#X/J	.	8ff#X\Jy	.	.	.	.	.	.	.	.	.	.	.	.	.	.	.	.	.	.	.	.
!	!	!	!LO:LB:g=original	!	!	!	!	!	!	!	!	!	!LO:LB:g=original	!	!	!	!	!	!	!	!LO:LB:g=original	!	!	!	!	!	!
=54	=54	=54	=54	=54	=54	=54	=54	=54	=54	=54	=54	=54	=54	=54	=54	=54	=54	=54	=54	=54	=54	=54	=54	=54	=54	=54	=54
4G\	3	.	4g\	.	8g/L	.	8gg\Lyy	.	2G\	Chry-	2d\	Chri-	2d\	Chri-	2b-\	X-	1r	1r	4B-/	4ryy	8G\L	.	8g\Lyy	.	8g\Lyy	.	8gg\Lyy
.	.	.	.	.	8f#X/	.	8ff#X\yy	.	.	.	.	.	.	.	.	.	.	.	.	.	8B-\J	.	8b-\Jyy	.	8b-\Jyy	.	8bb-\Jyy
4r	.	.	4r	.	8g/	.	8gg\yy	.	.	.	.	.	.	.	.	.	.	.	4f/	4dd\yy	4d\	.	4dd\yy	.	4dd\yy	.	4ddd\yyyy
.	.	.	.	.	8a/J	.	8aa\Jyy	.	.	.	.	.	.	.	.	.	.	.	.	.	.	.	.	.	.	.	.
!	!	!	!	!	!	!	!	!	!	!	!	!	!	!	!	!	!	!	!	!	!	!	!LO:LB:g=original	!	!	!	!
!	!	!	!	!	!LO:LB:g=original	!	!	!	!	!	!	!	!	!	!	!	!	!	!	!	!	!	!	!	!	!	!
4G\	3	.	4g\	.	8b-\L	.	8bb-\Lyy	.	2G\	-ste	2d\	-ste	2d\	-ste	2b-\	-ste	.	.	4b-\	4ryy	8G\L	.	8g\Lyy	.	8g\Lyy	.	8gg\Lyy
.	.	.	.	.	8a\	.	8aa\yy	.	.	.	.	.	.	.	.	.	.	.	.	.	8B-\J	.	8b-\Jyy	.	8b-\Jyyyy	.	8bb-\Jyy
4r	.	.	4r	.	8b-\	.	8bb-\yy	.	.	.	.	.	.	.	.	.	.	.	4f/	4dd\yy	4d\	.	4dd\yy	.	4dd\yy	.	4ddd\yy
.	.	.	.	.	8cc\J	.	8ccc\Jyy	.	.	.	.	.	.	.	.	.	.	.	.	.	.	.	.	.	.	.	.
=55	=55	=55	=55!|:	=55	=55	=55	=55	=55	=55	=55	=55	=55	=55	=55	=55	=55	=55	=55!|:	=55:|!	=55	=55	=55	=55	=55	=55	=55	=55
!	!	!LO:DY:b:t=f&colon;	!	!	!	!LO:DY:b	!	!	!	!	!	!	!	!	!	!	!	!	!	!	!	!	!	!	!	!	!
4B-\	5 3	f	4b-\	.	8r	f	8ryy	.	2r	.	2r	.	2r	.	2r	.	4r	4r	4ryy	4ryy	8B-\L	.	8B-/Lyy	.	8b-\Lyy	.	8bb-\Lyy
.	.	.	.	.	16b-\LL	.	16bb-\LLyy	f	.	.	.	.	.	.	.	.	.	.	.	.	8d\J	.	8d/Jyy	.	8dd\Jyy	.	8ddd\Jyy
.	.	.	.	.	16cc\JJ	.	16ccc\JJyy	.	.	.	.	.	.	.	.	.	.	.	.	.	.	.	.	.	.	.	.
4r	.	.	4r	.	4dd\	.	4ddd\yy	.	.	.	.	.	.	.	.	.	4BB-/	4b-\	4B-/yy	4b-\yy	4f\	.	4f/yy	.	4ff\yy	.	4fff\yy
4B-\	5 3	.	4b-\	.	8r	.	8ryy	.	4r	.	4r	.	4r	.	4r	.	4r	4r	4ryy	4ryy	8B-\L	.	8B-/Lyy	.	8b-\Lyy	.	8bb-\Lyy
.	.	.	.	.	16b-\LL	.	16bb-\LLyy	.	.	.	.	.	.	.	.	.	.	.	.	.	8d\J	.	8d/Jyy	.	8dd\Jyy	.	8ddd\Jyy
.	.	.	.	.	16cc\JJ	.	16ccc\JJyy	.	.	.	.	.	.	.	.	.	.	.	.	.	.	.	.	.	.	.	.
4r	.	.	4r	.	4dd\	.	4ddd\yy	.	4B-\	Je-	4f\	Je-	4f\	Je-	4dd\	Je-	4BB-/	4b-\	4B-/yy	4b-\yy	4f\	.	4f/yy	.	4ff\yy	.	4fff\yy
!	!	!	!	!	!	!	!	!	!	!	!	!	!	!	!	!	!	!	!LO:LB:g=original	!	!	!	!	!	!	!	!
=56	=56	=56	=56:|!	=56	=56	=56	=56	=56	=56	=56	=56	=56	=56	=56	=56	=56	=56	=56:|!	=56	=56	=56	=56	=56	=56	=56	=56	=56
!	!	!	!LO:TX:t=P:problem:takt zapisany repetycją	!	!	!	!	!	!	!	!LO:N:vis=2	!	!	!	!	!	!	!LO:TX:t=P:problem:takt zapisany repetycją	!	!	!	!	!	!	!	!	!
4B-\	5 3	.	4b-\yy	.	8r	.	8ryy	.	1B-\	-su	1f\	-su	1f\	-su	1dd\	-su	4r	4ryy	4ryy	4ryy	8B-\L	.	8B-/Lyy	.	8b-\Lyy	.	8bb-\Lyy
.	.	.	.	.	16b-\LL	.	16bb-\LLyy	.	.	.	.	.	.	.	.	.	.	.	.	.	8d\J	.	8d/Jyy	.	8dd\Jyy	.	8ddd\Jyy
.	.	.	.	.	16cc\JJ	.	16ccc\JJyy	.	.	.	.	.	.	.	.	.	.	.	.	.	.	.	.	.	.	.	.
4r	.	.	4ryy	.	4.dd\	.	4.ddd\yy	.	.	.	.	.	.	.	.	.	4BB-/	4b-\yy	4B-/yy	4b-\yy	4f\	.	4f/yy	.	4ff\yy	.	4fff\yy
4B-\	5 3	.	4b-\yy	.	.	.	.	.	.	.	.	.	.	.	.	.	4r	4ryy	4ryy	4ryy	8B-\L	.	8B-/Lyy	.	8b-\Lyy	.	8bb-\Lyy
.	.	.	.	.	8cc\L	.	8ccc\Lyy	.	.	.	.	.	.	.	.	.	.	.	.	.	8d\J	.	8d/Jyy	.	8dd\Jyy	.	8ddd\Jyy
4r	.	.	4ryy	.	8b-\	.	8bb-\yyy	.	.	.	.	.	.	.	.	.	4BB-/	4b-\yy	4B-/yy	4b-\yy	4f\	.	4f/yy	.	4ff\yy	.	4fff\yy
.	.	.	.	.	8a\J	.	8aa\Jy	.	.	.	.	.	.	.	.	.	.	.	.	.	.	.	.	.	.	.	.
!	!	!	!	!	!	!	!LO:LB:g=original	!	!	!	!	!	!	!	!	!	!LO:LB:g=original	!	!	!	!	!	!	!	!	!	!
=57	=57	=57	=57	=57	=57	=57	=57	=57	=57	=57	=57	=57	=57	=57	=57	=57	=57	=57	=57	=57	=57	=57	=57	=57	=57	=57	=57
4B-\	5 3	.	4b-\	.	8b-\L	.	8bb-\Lyy	.	2B-\	Chry-	2f\	Chry-	2f\	Chri-	2dd\	X-	4r	4r	4ryy	4ryy	8B-\L	.	8B-/Lyy	.	8b-\Lyy	.	8bb-\Lyy
.	.	.	.	.	8a\	.	8aa\yy	.	.	.	.	.	.	.	.	.	.	.	.	.	8d\J	.	8d/Jyy	.	8dd\Jyy	.	8ddd\Jyy
4r	.	.	4r	.	8b-\	.	8bb-\yy	.	.	.	.	.	.	.	.	.	4BB-/	4b-\	4B-/yy	4b-\yy	4f\	.	4f/yy	.	4ff\yy	.	4fff\yyyy
.	.	.	.	.	8cc\J	.	8ccc\Jyy	.	.	.	.	.	.	.	.	.	.	.	.	.	.	.	.	.	.	.	.
4B-\	5 3	.	4b-\	.	8dd\L	.	8ddd\Lyy	.	2B-\	-ste	2f\	-ste	2f\	-ste	2dd\	-ste	4r	4r	4ryy	4ryy	8B-\L	.	8B-/Lyy	.	8b-\Lyy	.	8bb-\Lyy
.	.	.	.	.	8cc\	.	8ccc\yy	.	.	.	.	.	.	.	.	.	.	.	.	.	8d\J	.	8d/Jyy	.	8dd\Jyy	.	8ddd\Jyy
4r	.	.	4r	.	8dd\	.	8ddd\yy	.	.	.	.	.	.	.	.	.	4BB-/	4b-\	4B-/yy	4b-\yy	4f\	.	4f/yy	.	4ff\yy	.	4fff\yy
.	.	.	.	.	8ee-\J	.	8eee-\Jyy	.	.	.	.	.	.	.	.	.	.	.	.	.	.	.	.	.	.	.	.
!LO:LB:g=original	!	!	!	!	!	!	!	!	!	!	!LO:LB:g=original	!	!	!	!LO:LB:g=original	!	!	!	!	!	!	!	!	!	!	!	!
=58	=58	=58	=58	=58	=58	=58	=58	=58	=58	=58	=58	=58	=58	=58	=58	=58	=58	=58	=58	=58	=58	=58	=58	=58	=58	=58	=58
*	*	*	*	*	*	*	*	*	*	*ij	*	*	*	*	*	*	*	*	*	*	*	*	*	*	*	*	*
4B-\	5 3	.	4b-\	.	4ff\	.	4fff\yy	.	4B-\	Je-	4f\	Je-	4dd\	Je-	4ff\	Je-	4BB-/	4b-\	4B-/yy	4b-\	4f\	.	4dd\yy	.	4ff\yy	.	4fff\yy
*	*	*	*	*	*tremolo	*	*tremolo	*	*	*	*	*	*	*	*	*	*	*	*	*	*	*	*	*	*	*	*
4E-\	3	.	4e-\	.	16ccc\LL	.	16eee-X\LLyy	.	4E-\	-su	4g\	-su	4cc\	-su	4ee-\	-su	4r	4r	4f/yy	4cc\	4e-\	.	4cc\yy	.	4ee-\yy	.	4eee-\yyyy
.	.	.	.	.	16ccc\	.	16eee-\yy	.	.	.	.	.	.	.	.	.	.	.	.	.	.	.	.	.	.	.	.
.	.	.	.	.	16ccc\	.	16eee-\yy	.	.	.	.	.	.	.	.	.	.	.	.	.	.	.	.	.	.	.	.
.	.	.	.	.	16ccc\JJ	.	16eee-\JJyy	.	.	.	.	.	.	.	.	.	.	.	.	.	.	.	.	.	.	.	.
!	!	!	!	!	!LO:LB:g=original	!	!	!	!	!	!	!	!	!	!	!	!	!	!	!	!	!	!	!	!	!	!
4F\	6	.	4f\	.	16bb-\LL	.	16ddd\LLyy	.	4F\	Chry-	4f\	Chri-	4b-\	X-	4dd\	X-	4BB-/	4b-\	4b-\yy	4dd\	4d\	.	4b-\yy	.	4dd\yy	.	4ddd\yy
.	.	.	.	.	16bb-\	.	16ddd\yy	.	.	.	.	.	.	.	.	.	.	.	.	.	.	.	.	.	.	.	.
.	.	.	.	.	16bb-\	.	16ddd\yy	.	.	.	.	.	.	.	.	.	.	.	.	.	.	.	.	.	.	.	.
.	.	.	.	.	16bb-\JJ	.	16ddd\JJyy	.	.	.	.	.	.	.	.	.	.	.	.	.	.	.	.	.	.	.	.
4F\	3	.	4f\	.	16aa\LL	.	16ccc\LLyy	.	4F\	-ste	4f\	-ste	4a\	-ste	4cc\	-ste	4FF/	8f/L	4f/yy	4cc\	4c\	.	4a\yy	.	4cc\yy	.	4ccc\yy
*	*	*	*	*	*	*	*	*	*	*Xij	*	*	*	*	*	*	*	*	*	*	*	*	*	*	*	*	*
.	.	.	.	.	16aa\	.	16ccc\yy	.	.	.	.	.	.	.	.	.	.	.	.	.	.	.	.	.	.	.	.
.	.	.	.	.	16aa\	.	16ccc\yy	.	.	.	.	.	.	.	.	.	.	8f/J	.	.	.	.	.	.	.	.	.
.	.	.	.	.	16aa\JJ	.	16ccc\JJyy	.	.	.	.	.	.	.	.	.	.	.	.	.	.	.	.	.	.	.	.
*	*	*	*	*	*Xtremolo	*	*Xtremolo	*	*	*	*	*	*	*	*	*	*	*	*	*	*	*	*	*	*	*	*
!	!	!	!	!	!	!	!	!	!	!	!	!	!	!	!	!	!	!LO:LB:g=original	!	!	!	!	!LO:LB:g=original	!	!LO:LB:g=original	!	!
=59	=59	=59	=59!|:	=59	=59!|:	=59	=59	=59	=59	=59	=59	=59	=59	=59	=59	=59	=59	=59	=59	=59	=59	=59	=59	=59	=59	=59	=59
*	*	*	*tremolo	*	*	*	*	*	*	*	*	*	*	*	*	*	*	*	*	*	*	*	*	*	*	*	*
!	!	!LO:DY:b:t=p.	!	!	!LO:TX:t=P:problem:mixed beam	!LO:DY:b:rj:t=p.	!	!	!	!	!	!	!	!	!	!	!	!	!	!	!	!	!	!	!	!	!
4BB-/	.	p	8B-/L	.	8bb-\L	p	4bb-\	.	2B-\	Do-	2B-\	Do-	2b-\	Do-	2b-\	Do-	4BB-/	4b-\	2d/	2b-\	4B-\	.	4b-\	.	4b-\	.	4bb-\
.	.	.	8d/	.	8f/	.	.	.	.	.	.	.	.	.	.	.	.	.	.	.	.	.	.	.	.	.	.
4r	.	.	8B-/	.	8d/	.	4r	.	.	.	.	.	.	.	.	.	4r	4r	.	.	4r	.	4r	.	4r	.	4r
.	.	.	8d/J	.	8f/J	.	.	.	.	.	.	.	.	.	.	.	.	.	.	.	.	.	.	.	.	.	.
*	*	*	*	*	*tremolo	*	*	*	*	*	*	*	*	*	*	*	*	*	*	*	*	*	*	*	*	*	*
!	!	!	!	!	!	!	!	!	!	!	!	!	!	!	!	!	!LO:TX:a:t=½	!	!	!	!	!	!	!	!	!	!
4B-\	.	.	8B-/L	.	8d/L	.	8r	.	4B-\	-mi-	4B-\	-mi-	4d\	-mi-	4b-\	-mi-	2r	2r	2d/	2b-\	2r	.	2r	.	2r	.	2r
.	.	.	8d/	.	8f/	.	8ff\L	.	.	.	.	.	.	.	.	.	.	.	.	.	.	.	.	.	.	.	.
4r	.	.	8B-/	.	8d/	.	8ff\	.	4B-\	-ne	4B-\	-ne	4d\	-ne	4b-\	-ne	.	.	.	.	.	.	.	.	.	.	.
.	.	.	8d/J	.	8f/J	.	8ff\J	.	.	.	.	.	.	.	.	.	.	.	.	.	.	.	.	.	.	.	.
!	!	!	!	!	!	!	!	!	!LO:LB:g=original	!	!	!	!	!	!	!	!	!	!	!	!LO:LB:g=original	!	!	!	!	!	!
=60	=60	=60	=60	=60	=60	=60	=60	=60	=60	=60	=60	=60	=60	=60	=60	=60	=60	=60	=60	=60	=60	=60	=60	=60	=60	=60	=60
!	!	!	!LO:TX:a:t=bis	!	!	!	!	!	!	!	!	!	!	!	!	!	!LO:TX:a:t=7	!LO:TX:a:t=7	!	!	!LO:TX:a:t=1	!	!LO:TX:a:t=7	!	!LO:TX:a:t=1	!	!LO:TX:a:t=1
4F\	.	.	8c/L	.	8e-/L	.	8ff\L	.	2F\	De-	2f\	De-	2e-\	De-	2cc\	De-	00r	00r	1f/	1cc\	1r	.	00r	.	1r	.	1r
.	.	.	8A/	.	8f/	.	8gg\	.	.	.	.	.	.	.	.	.	.	.	.	.	.	.	.	.	.	.	.
4r	.	.	8c/	.	8e-/	.	8aa\	.	.	.	.	.	.	.	.	.	.	.	.	.	.	.	.	.	.	.	.
.	.	.	8A/J	.	8f/J	.	8bb-\J	.	.	.	.	.	.	.	.	.	.	.	.	.	.	.	.	.	.	.	.
4F\	.	.	8c/L	.	8e-/L	.	8ccc\L	.	2F\	-us	2f\	-us	2e-\	-us	2cc\	-us	.	.	.	.	.	.	.	.	.	.	.
.	.	.	8A/	.	8f/	.	8ddd\	.	.	.	.	.	.	.	.	.	.	.	.	.	.	.	.	.	.	.	.
4r	.	.	8c/	.	8e-/	.	8eee-\	.	.	.	.	.	.	.	.	.	.	.	.	.	.	.	.	.	.	.	.
.	.	.	8A/J	.	8f/J	.	8aa\J	.	.	.	.	.	.	.	.	.	.	.	.	.	.	.	.	.	.	.	.
=61	=61	=61	=61	=61	=61	=61	=61	=61	=61	=61	=61	=61	=61	=61	=61	=61	=61	=61	=61	=61	=61	=61	=61	=61	=61	=61	=61
!	!	!	!	!	!LO:TX:a:t=bis	!	!	!	!	!	!	!	!	!	!	!	!	!	!	!	!	!	!	!	!	!	!
4BB-/	.	.	8B-/L	.	8d/L	.	4.bb-\	.	2B-\	A-	2B-\	A-	2f\	A-	2dd\	a-	.	.	1b-\	1dd\	2r	.	.	.	2r	.	2r
.	.	.	8d/	.	8f/	.	.	.	.	.	.	.	.	.	.	.	.	.	.	.	.	.	.	.	.	.	.
4r	.	.	8B-/	.	8d/	.	.	.	.	.	.	.	.	.	.	.	.	.	.	.	.	.	.	.	.	.	.
.	.	.	8d/J	.	8f/J	.	8ddd\	.	.	.	.	.	.	.	.	.	.	.	.	.	.	.	.	.	.	.	.
4B-\	.	.	8B-/L	.	8d/L	.	4fff\	.	2B-\	-gnus	2B-\	-gnus	2f\	-gnus	2dd\	-gnus	.	.	.	.	8r	.	.	.	8r	.	8r
!	!	!	!	!	!	!	!	!	!	!	!	!	!	!	!	!	!	!	!	!	!	!LO:DY:b:rj:t=pia&colon;	!	!	!	!	!
.	.	.	8d/	.	8f/	.	.	.	.	.	.	.	.	.	.	.	.	.	.	.	8F\L	p	.	.	8f/L	.	8ff\L
4r	.	.	8B-/	.	8d/	.	4r	.	.	.	.	.	.	.	.	.	.	.	.	.	8F\	.	.	.	8f/	.	8ff\
.	.	.	8d/J	.	8f/J	.	.	.	.	.	.	.	.	.	.	.	.	.	.	.	8F\J	.	.	.	8f/J	.	8ff\J
=62	=62	=62	=62	=62	=62	=62	=62	=62	=62	=62	=62	=62	=62	=62	=62	=62	=62	=62	=62	=62	=62	=62	=62	=62	=62	=62	=62
!	!	!	!	!	!	!	!LO:TX:a:t=1.	!	!	!	!	!	!	!	!	!	!	!	!	!	!	!	!	!	!	!	!
4F\	.	.	8c/L	.	8e-/L	.	1r	.	2F\	De-	2f\	de-	2e-\	de-	2cc\	de-	.	.	1f/	1cc\	8F\L	.	.	.	8f/L	.	8ff\L
.	.	.	8A/	.	8f/	.	.	.	.	.	.	.	.	.	.	.	.	.	.	.	8G\	.	.	.	8g/	.	8gg\
4r	.	.	8c/	.	8e-/	.	.	.	.	.	.	.	.	.	.	.	.	.	.	.	8A\	.	.	.	8a/	.	8aa\
.	.	.	8A/J	.	8f/J	.	.	.	.	.	.	.	.	.	.	.	.	.	.	.	8B-\J	.	.	.	8b-/J	.	8bb-\J
4FF/	.	.	8c/L	.	8e-/L	.	.	.	2F\	-i	2f\	-i	2e-\	-i	2cc\	-i	.	.	.	.	8c\L	.	.	.	8cc\L	.	8ccc\L
.	.	.	8A/	.	8f/	.	.	.	.	.	.	.	.	.	.	.	.	.	.	.	8d\	.	.	.	8dd\	.	8ddd\
4r	.	.	8c/	.	8e-/	.	.	.	.	.	.	.	.	.	.	.	.	.	.	.	8e-\	.	.	.	8ee-\	.	8eee-\
.	.	.	8A/J	.	8f/J	.	.	.	.	.	.	.	.	.	.	.	.	.	.	.	8A\J	.	.	.	8a\J	.	8aa\J
*	*	*	*	*	*Xtremolo	*	*	*	*	*	*	*	*	*	*	*	*	*	*	*	*	*	*	*	*	*	*
!	!	!	!LO:LB:g=original	!	!	!	!LO:LB:g=original	!	!	!	!	!	!LO:LB:g=original	!	!	!	!	!	!	!	!	!	!	!	!	!	!
=63	=63	=63	=63:|!	=63	=63:|!	=63	=63	=63	=63	=63	=63	=63	=63	=63	=63	=63	=63	=63	=63	=63	=63	=63	=63	=63	=63	=63	=63
!	!	!	!	!	!LO:TX:t=P:problem:mixed beam	!	!	!	!	!	!	!	!	!	!	!	!	!	!	!	!	!	!	!	!	!	!
!	!	!	!LO:TX:t=P:problem:tt. 62-65 zapisane repetycją	!	!LO:TX:t=P:problem:tt. 62-65 zapisane repetycją	!	!	!	!	!	!	!	!	!	!	!	!	!	!	!	!	!	!	!	!	!	!
4BB-/	.	.	8B-/Lyy	.	8bb-\Lyy	.	2r	.	2B-\	Do-	2B-\	Do-	2d\	Do-	2b-\	do-	.	.	1d/	1b-\	4.B-\	.	.	.	4.b-\	.	4.bb-\
.	.	.	8d/yy	.	8f/yy	.	.	.	.	.	.	.	.	.	.	.	.	.	.	.	.	.	.	.	.	.	.
4r	.	.	8B-/yy	.	8d/yy	.	.	.	.	.	.	.	.	.	.	.	.	.	.	.	.	.	.	.	.	.	.
.	.	.	8d/Jyy	.	8f/Jyy	.	.	.	.	.	.	.	.	.	.	.	.	.	.	.	8d\	.	.	.	8dd\	.	8ddd\
*	*	*	*	*	*tremolo	*	*	*	*	*	*	*	*	*	*	*	*	*	*	*	*	*	*	*	*	*	*
4B-\	.	.	8B-/Lyy	.	8d/Lyy	.	8r	.	4B-\	-mi-	4B-\	-mi-	4d\	-mi-	4b-\	-mi-	.	.	.	.	4F\	.	.	.	4f/	.	4ff\
.	.	.	8d/yy	.	8f/yy	.	8ff\L	.	.	.	.	.	.	.	.	.	.	.	.	.	.	.	.	.	.	.	.
4r	.	.	8B-/yy	.	8d/yy	.	8ff\	.	4B-\	-ne	4B-\	-ne	4d\	-ne	4b-\	-ne	.	.	.	.	4r	.	.	.	4r	.	4r
.	.	.	8d/Jyy	.	8f/Jyy	.	8ff\J	.	.	.	.	.	.	.	.	.	.	.	.	.	.	.	.	.	.	.	.
=64	=64	=64	=64	=64	=64	=64	=64	=64	=64	=64	=64	=64	=64	=64	=64	=64	=64	=64	=64	=64	=64	=64	=64	=64	=64	=64	=64
!	!	!	!	!	!	!	!	!	!	!	!	!	!	!	!	!	!	!	!	!	!LO:TX:a:t=1	!	!	!	!LO:TX:a:t=1	!	!LO:TX:a:t=1
4F\	.	.	8c/Lyy	.	8e-/Lyy	.	8ff\L	.	2F\	De-	2f\	De-	2e-\	De-	2cc\	de-	0r	0r	1f/	1cc\	1r	.	0r	.	1r	.	1r
.	.	.	8A/yy	.	8f/yy	.	8gg\	.	.	.	.	.	.	.	.	.	.	.	.	.	.	.	.	.	.	.	.
4r	.	.	8c/yy	.	8e-/yy	.	8aa\	.	.	.	.	.	.	.	.	.	.	.	.	.	.	.	.	.	.	.	.
.	.	.	8A/Jyy	.	8f/Jyy	.	8bb-\J	.	.	.	.	.	.	.	.	.	.	.	.	.	.	.	.	.	.	.	.
4FF/	.	.	8c/Lyy	.	8e-/Lyy	.	8ccc\L	.	2F\	-us	2f\	-us	2e-\	-us	2cc\	-us	.	.	.	.	.	.	.	.	.	.	.
.	.	.	8A/yy	.	8f/yy	.	8ddd\	.	.	.	.	.	.	.	.	.	.	.	.	.	.	.	.	.	.	.	.
4r	.	.	8c/yy	.	8e-/yy	.	8eee-\	.	.	.	.	.	.	.	.	.	.	.	.	.	.	.	.	.	.	.	.
.	.	.	8A/Jyy	.	8f/Jyy	.	8aa\J	.	.	.	.	.	.	.	.	.	.	.	.	.	.	.	.	.	.	.	.
!LO:LB:g=original	!	!	!	!	!	!	!	!	!	!	!	!	!	!	!	!	!	!	!LO:LB:g=original	!	!	!	!	!	!	!	!LO:LB:g=original
=65	=65	=65	=65	=65	=65	=65	=65	=65	=65	=65	=65	=65	=65	=65	=65	=65	=65	=65	=65	=65	=65	=65	=65	=65	=65	=65	=65
4BB-/	.	.	8B-/Lyy	.	8d/Lyy	.	4.bb-\	.	2B-\	A-	2B-\	A-	2f\	A-	2dd\	a-	.	.	1b-\	1dd\	2r	.	.	.	2r	.	2r
.	.	.	8d/yy	.	8f/yy	.	.	.	.	.	.	.	.	.	.	.	.	.	.	.	.	.	.	.	.	.	.
4r	.	.	8B-/yy	.	8d/yy	.	.	.	.	.	.	.	.	.	.	.	.	.	.	.	.	.	.	.	.	.	.
.	.	.	8d/Jyy	.	8f/Jyy	.	8ddd\	.	.	.	.	.	.	.	.	.	.	.	.	.	.	.	.	.	.	.	.
4B-\	.	.	8B-/Lyy	.	8d/Lyy	.	4fff\	.	2B-\	-gnus	2B-\	-gnus	2f\	-gnus	2dd\	-gnus	.	.	.	.	8r	.	.	.	8r	.	8r
.	.	.	8d/yy	.	8f/yy	.	.	.	.	.	.	.	.	.	.	.	.	.	.	.	8F\L	.	.	.	8f/L	.	8ff\L
4r	.	.	8B-/yy	.	8d/yy	.	4r	.	.	.	.	.	.	.	.	.	.	.	.	.	8F\	.	.	.	8f/	.	8ff\
.	.	.	8d/Jyy	.	8f/Jyy	.	.	.	.	.	.	.	.	.	.	.	.	.	.	.	8F\J	.	.	.	8f/J	.	8ff\J
=66	=66	=66	=66	=66	=66	=66	=66	=66	=66	=66	=66	=66	=66	=66	=66	=66	=66	=66	=66	=66	=66	=66	=66	=66	=66	=66	=66
!	!	!	!	!	!	!	!LO:TX:a:t=1.	!	!	!	!LO:N:vis=2	!	!	!	!	!	!	!	!	!	!	!	!	!	!	!	!
4F\	.	.	8c/Lyy	.	8e-/Lyy	.	1r	.	1F\	De-	1f\	De-	1e-\	De-	2cc\	de-	1r	1r	1f/	1cc\	8F\L	.	1r	.	8f/L	.	8ff\L
.	.	.	8A/yy	.	8f/yy	.	.	.	.	.	.	.	.	.	.	.	.	.	.	.	8G\	.	.	.	8g/	.	8gg\
4r	.	.	8c/yy	.	8e-/yy	.	.	.	.	.	.	.	.	.	.	.	.	.	.	.	8A\	.	.	.	8a/	.	8aa\
.	.	.	8A/Jyy	.	8f/Jyy	.	.	.	.	.	.	.	.	.	.	.	.	.	.	.	8B-\J	.	.	.	8b-/J	.	8bb-\J
4FF/	.	.	8c/Lyy	.	8e-/Lyy	.	.	.	.	.	.	.	.	.	2cc\	-i	.	.	.	.	8c\L	.	.	.	8cc\L	.	8ccc\L
.	.	.	8A/yy	.	8f/yy	.	.	.	.	.	.	.	.	.	.	.	.	.	.	.	8d\	.	.	.	8dd\	.	8ddd\
4r	.	.	8c/yy	.	8e-/yy	.	.	.	.	.	.	.	.	.	.	.	.	.	.	.	8e-\	.	.	.	8ee-\	.	8eee-\
.	.	.	8A/Jyy	.	8f/Jyy	.	.	.	.	.	.	.	.	.	.	.	.	.	.	.	8A\J	.	.	.	8a\J	.	8aa\J
*	*	*	*Xtremolo	*	*Xtremolo	*	*	*	*	*	*	*	*	*	*	*	*	*	*	*	*	*	*	*	*	*	*
!	!	!	!LO:LB:g=original	!	!	!	!	!	!	!	!	!	!	!	!LO:LB:g=original	!	!	!	!	!	!	!	!	!	!	!	!
=67	=67	=67	=67	=67	=67:|!	=67	=67	=67	=67	=67	=67	=67	=67	=67	=67	=67	=67	=67	=67	=67	=67	=67	=67	=67	=67	=67	=67
!	!	!	!LO:TX:t=P:problem:mixed beam	!LO:DY:b:rj:t=f&colon;	!	!	!	!	!	!	!	!	!	!	!	!	!	!	!	!	!	!	!	!	!	!	!
4BB-/	8	f	8B-/L	f	4d/	.	4r	.	4B-\	-i	4B-\	-i	4d\	-i	4b-\	fi-	4r	4r	4B-/	4b-\	4B-\	.	4r	.	4b-\	.	4bb-\
.	.	.	8B-/	.	.	.	.	.	.	.	.	.	.	.	.	.	.	.	.	.	.	.	.	.	.	.	.
*	*	*	*	*	*tremolo	*	*tremolo	*	*	*	*	*	*	*	*	*	*	*	*	*	*	*	*	*	*	*	*
!	!	!	!	!	!	!LO:DY:b:t=f.	!	!	!	!	!	!	!	!	!	!	!	!	!	!	!	!	!	!	!	!	!
4A-X\	4	.	8a-X\	.	16b-\LL	f	16dd\LL	.	4A-X\	fi-	4B-\	fi-	4b-\	fi-	4dd\	.	8BB-/L	8b-\L	4B-/	4b-\	4d\	.	4b-\	.	4dd\	.	4ddd\
.	.	.	.	.	16b-\	.	16dd\	.	.	.	.	.	.	.	.	.	.	.	.	.	.	.	.	.	.	.	.
.	.	.	8a-\J	.	16b-\	.	16dd\	.	.	.	.	.	.	.	.	.	8BB-/J	8b-\J	.	.	.	.	.	.	.	.	.
.	.	.	.	.	16b-\JJ	.	16dd\JJ	.	.	.	.	.	.	.	.	.	.	.	.	.	.	.	.	.	.	.	.
!	!	!	!	!	!LO:LB:g=original	!	!	!	!	!	!	!	!	!	!	!	!	!	!	!	!	!	!	!	!	!	!
4G\	6	.	8g\L	.	16cc\LL	.	16ee-\LL	.	4G\	-li-	4B-\	-li-	4cc\	-li-	4ee-\	-li-	4BB-/	4b-\	4B-/	4b-\	4e-\	.	4cc\	.	4ee-\	.	4eee-\
.	.	.	.	.	16cc\	.	16ee-\	.	.	.	.	.	.	.	.	.	.	.	.	.	.	.	.	.	.	.	.
.	.	.	8g\	.	16cc\	.	16ee-\	.	.	.	.	.	.	.	.	.	.	.	.	.	.	.	.	.	.	.	.
.	.	.	.	.	16cc\JJ	.	16ee-\JJ	.	.	.	.	.	.	.	.	.	.	.	.	.	.	.	.	.	.	.	.
4F\	3	.	8f\	.	16dd\LL	.	16ff\LL	.	4F\	-us	4B-\	-us	4dd\	-us	4ff\	-us	4BB-/	4b-\	4B-/	4b-\	4f\	.	4dd\	.	4ff\	.	4fff\
.	.	.	.	.	16dd\	.	16ff\	.	.	.	.	.	.	.	.	.	.	.	.	.	.	.	.	.	.	.	.
.	.	.	8f\J	.	16dd\	.	16ff\	.	.	.	.	.	.	.	.	.	.	.	.	.	.	.	.	.	.	.	.
.	.	.	.	.	16dd\JJ	.	16ff\JJ	.	.	.	.	.	.	.	.	.	.	.	.	.	.	.	.	.	.	.	.
!	!	!	!	!	!	!	!	!	!	!	!LO:LB:g=original	!	!	!	!	!	!	!	!	!	!LO:LB:g=original	!	!	!	!	!	!
=68	=68	=68	=68!|:	=68	=68	=68	=68	=68	=68	=68	=68	=68	=68	=68	=68	=68	=68	=68!|:	=68	=68	=68	=68	=68	=68	=68	=68	=68
*tremolo	*	*	*tremolo	*	*2\right	*	*2\right	*	*	*	*	*	*	*	*	*	*	*	*	*	*	*	*	*	*	*	*
8E-\L	10	.	8e-\L	.	16ee-\LL	.	16gg\LL	.	2E-\	Pa-	2B-\	pa-	2ee-\	pa-	2gg\	pa-	4BB-/	4b-\	2B-/	2b-\	2g\	.	2ee-\	.	2gg\	.	2ggg\
.	.	.	.	.	16ee-\	.	16gg\	.	.	.	.	.	.	.	.	.	.	.	.	.	.	.	.	.	.	.	.
8E-\	.	.	8e-\	.	16ee-\	.	16gg\	.	.	.	.	.	.	.	.	.	.	.	.	.	.	.	.	.	.	.	.
.	.	.	.	.	16ee-\	.	16gg\	.	.	.	.	.	.	.	.	.	.	.	.	.	.	.	.	.	.	.	.
8E-\	.	.	8e-\	.	16ee-\	.	16gg\	.	.	.	.	.	.	.	.	.	4r	4r	.	.	.	.	.	.	.	.	.
.	.	.	.	.	16ee-\	.	16gg\	.	.	.	.	.	.	.	.	.	.	.	.	.	.	.	.	.	.	.	.
8E-\J	.	.	8e-\J	.	16ee-\	.	16gg\	.	.	.	.	.	.	.	.	.	.	.	.	.	.	.	.	.	.	.	.
.	.	.	.	.	16ee-\JJ	.	16gg\JJ	.	.	.	.	.	.	.	.	.	.	.	.	.	.	.	.	.	.	.	.
8F\L	7	.	8f\L	.	16cc\LL	.	16aa\LL	.	2F\	-tris	2c\	-tris	2cc\	-tris	2ee-\	-tris	4FF/	4f/	2f/	2cc\	2e-\	.	2cc\	.	2aa\	.	2eee-\
.	.	.	.	.	16cc\	.	16aa\	.	.	.	.	.	.	.	.	.	.	.	.	.	.	.	.	.	.	.	.
8F\	.	.	8f\	.	16cc\	.	16aa\	.	.	.	.	.	.	.	.	.	.	.	.	.	.	.	.	.	.	.	.
.	.	.	.	.	16cc\	.	16aa\	.	.	.	.	.	.	.	.	.	.	.	.	.	.	.	.	.	.	.	.
8F\	.	.	8f\	.	16cc\	.	16aa\	.	.	.	.	.	.	.	.	.	4r	4r	.	.	.	.	.	.	.	.	.
.	.	.	.	.	16cc\	.	16aa\	.	.	.	.	.	.	.	.	.	.	.	.	.	.	.	.	.	.	.	.
8F\J	.	.	8f\J	.	16cc\	.	16aa\	.	.	.	.	.	.	.	.	.	.	.	.	.	.	.	.	.	.	.	.
.	.	.	.	.	16cc\JJ	.	16aa\JJ	.	.	.	.	.	.	.	.	.	.	.	.	.	.	.	.	.	.	.	.
!	!	!	!	!	!	!	!	!	!LO:LB:g=original	!	!	!	!	!	!	!	!	!	!	!	!	!	!	!	!LO:LB:g=original	!	!
=69	=69	=69	=69	=69	=69	=69	=69	=69	=69	=69	=69	=69	=69	=69	=69	=69	=69	=69	=69!|:	=69	=69	=69	=69	=69	=69	=69	=69
8B-\L	3	.	8b-\L	.	16dd\LL	.	16bb-\LL	.	2B-\	fi-	2B-\	fi-	2b-\	fi-	2dd\	fi-	4BB-/	4b-\	2b-\	2dd\	2d\	.	2dd\	.	2bb-\	.	2ddd\
.	.	.	.	.	16dd\	.	16bb-\	.	.	.	.	.	.	.	.	.	.	.	.	.	.	.	.	.	.	.	.
8B-\	.	.	8b-\	.	16dd\	.	16bb-\	.	.	.	.	.	.	.	.	.	.	.	.	.	.	.	.	.	.	.	.
.	.	.	.	.	16dd\	.	16bb-\	.	.	.	.	.	.	.	.	.	.	.	.	.	.	.	.	.	.	.	.
8B-\	.	.	8b-\	.	16dd\	.	16bb-\	.	.	.	.	.	.	.	.	.	4r	4r	.	.	.	.	.	.	.	.	.
.	.	.	.	.	16dd\	.	16bb-\	.	.	.	.	.	.	.	.	.	.	.	.	.	.	.	.	.	.	.	.
8B-\J	.	.	8b-\J	.	16dd\	.	16bb-\	.	.	.	.	.	.	.	.	.	.	.	.	.	.	.	.	.	.	.	.
.	.	.	.	.	16dd\JJ	.	16bb-\JJ	.	.	.	.	.	.	.	.	.	.	.	.	.	.	.	.	.	.	.	.
8G\L	5	.	8g\L	.	16dd\LL	.	16bb-\LL	.	4G\	-li-	4B-\	-li-	4b-\	-li-	4dd\	-li-	4BB-/	4b-\	2b-\	2dd\	2d\	.	2dd\	.	2bb-\	.	2ddd\
.	.	.	.	.	16dd\	.	16bb-\	.	.	.	.	.	.	.	.	.	.	.	.	.	.	.	.	.	.	.	.
8G\	.	.	8g\	.	16dd\	.	16bb-\	.	.	.	.	.	.	.	.	.	.	.	.	.	.	.	.	.	.	.	.
.	.	.	.	.	16dd\	.	16bb-\	.	.	.	.	.	.	.	.	.	.	.	.	.	.	.	.	.	.	.	.
8G\	.	.	8g\	.	16dd\	.	16bb-\	.	4G\	-us	4B-\	-us	4b-\	-us	4dd\	-us	4r	4r	.	.	.	.	.	.	.	.	.
.	.	.	.	.	16dd\	.	16bb-\	.	.	.	.	.	.	.	.	.	.	.	.	.	.	.	.	.	.	.	.
8G\J	.	.	8g\J	.	16dd\	.	16bb-\	.	.	.	.	.	.	.	.	.	.	.	.	.	.	.	.	.	.	.	.
.	.	.	.	.	16dd\JJ	.	16bb-\JJ	.	.	.	.	.	.	.	.	.	.	.	.	.	.	.	.	.	.	.	.
!	!	!	!	!	!	!	!LO:LB:g=original	!	!	!	!	!	!	!	!	!	!	!	!	!	!	!	!	!	!	!	!
=70	=70	=70	=70:|!	=70	=70	=70	=70	=70	=70	=70	=70	=70	=70	=70	=70	=70	=70	=70:|!	=70	=70	=70	=70	=70	=70	=70	=70	=70
!	!	!	!LO:TX:t=P:problem:tt. 69-70 zapisane repetycją	!	!	!	!	!	!	!	!	!	!	!	!	!	!	!LO:TX:t=P:problem:tt. 70-71 zapisane repetycją	!	!	!	!	!	!	!	!	!
8E-\L	10	.	8e-\Lyy	.	16dd\LL	.	16bb-\LL	.	2E-\	Pa-	2B-\	pa-	2b-\	pa-	2dd\	pa-	4BB-/	4b-\yy	2b-\	2dd\	2d\	.	2dd\	.	2bb-\	.	2ddd\
.	.	.	.	.	16dd\	.	16bb-\	.	.	.	.	.	.	.	.	.	.	.	.	.	.	.	.	.	.	.	.
8E-\	.	.	8e-\yy	.	16dd\	.	16bb-\	.	.	.	.	.	.	.	.	.	.	.	.	.	.	.	.	.	.	.	.
.	.	.	.	.	16dd\	.	16bb-\	.	.	.	.	.	.	.	.	.	.	.	.	.	.	.	.	.	.	.	.
8E-\	.	.	8e-\yy	.	16dd\	.	16bb-\	.	.	.	.	.	.	.	.	.	4r	4ryy	.	.	.	.	.	.	.	.	.
.	.	.	.	.	16dd\	.	16bb-\	.	.	.	.	.	.	.	.	.	.	.	.	.	.	.	.	.	.	.	.
8E-\J	.	.	8e-\Jyy	.	16dd\	.	16bb-\	.	.	.	.	.	.	.	.	.	.	.	.	.	.	.	.	.	.	.	.
.	.	.	.	.	16dd\JJ	.	16bb-\JJ	.	.	.	.	.	.	.	.	.	.	.	.	.	.	.	.	.	.	.	.
8F\L	7	.	8f\Lyy	.	16cc\LL	.	16aa\LL	.	2F\	-tris	2c\	-tris	2a\	-tris	2cc\	-tris	4FF/	4f/yy	2f/	2cc\	2c\	.	2cc\	.	2aa\	.	2ccc\
.	.	.	.	.	16cc\	.	16aa\	.	.	.	.	.	.	.	.	.	.	.	.	.	.	.	.	.	.	.	.
8F\	.	.	8f\yy	.	16cc\	.	16aa\	.	.	.	.	.	.	.	.	.	.	.	.	.	.	.	.	.	.	.	.
.	.	.	.	.	16cc\	.	16aa\	.	.	.	.	.	.	.	.	.	.	.	.	.	.	.	.	.	.	.	.
8F\	.	.	8f\yy	.	16cc\	.	16aa\	.	.	.	.	.	.	.	.	.	4r	4ryy	.	.	.	.	.	.	.	.	.
.	.	.	.	.	16cc\	.	16aa\	.	.	.	.	.	.	.	.	.	.	.	.	.	.	.	.	.	.	.	.
8F\J	.	.	8f\Jyy	.	16cc\	.	16aa\	.	.	.	.	.	.	.	.	.	.	.	.	.	.	.	.	.	.	.	.
.	.	.	.	.	16cc\JJ	.	16aa\JJ	.	.	.	.	.	.	.	.	.	.	.	.	.	.	.	.	.	.	.	.
!	!	!	!	!	!	!	!	!	!	!	!	!	!LO:LB:g=original	!	!	!	!	!	!	!LO:LB:g=original	!	!	!	!	!	!	!
=71	=71	=71	=71	=71	=71	=71	=71	=71	=71	=71	=71	=71	=71	=71	=71	=71	=71	=71	=71:|!	=71	=71	=71	=71	=71	=71	=71	=71
!	!	!	!	!	!	!	!	!	!	!	!	!	!	!	!	!	!	!	!LO:TX:t=P:problem:tt. 70-71 zapisane repetycją	!	!	!	!	!	!	!	!
8B-\L	3	.	8b-\Lyy	.	16dd\LL	.	16bb-\LL	.	2B-\	fi-	2B-\	fi-	2b-\	fi-	2dd\	fi-	4BB-/	4b-\yy	2b-\yy	2dd\	2d\	.	2dd\	.	2bb-\	.	2ddd\
.	.	.	.	.	16dd\	.	16bb-\	.	.	.	.	.	.	.	.	.	.	.	.	.	.	.	.	.	.	.	.
8B-\	.	.	8b-\yy	.	16dd\	.	16bb-\	.	.	.	.	.	.	.	.	.	.	.	.	.	.	.	.	.	.	.	.
.	.	.	.	.	16dd\	.	16bb-\	.	.	.	.	.	.	.	.	.	.	.	.	.	.	.	.	.	.	.	.
8B-\	.	.	8b-\yy	.	16dd\	.	16bb-\	.	.	.	.	.	.	.	.	.	4r	4ryy	.	.	.	.	.	.	.	.	.
.	.	.	.	.	16dd\	.	16bb-\	.	.	.	.	.	.	.	.	.	.	.	.	.	.	.	.	.	.	.	.
8B-\J	.	.	8b-\Jyy	.	16dd\	.	16bb-\	.	.	.	.	.	.	.	.	.	.	.	.	.	.	.	.	.	.	.	.
.	.	.	.	.	16dd\JJ	.	16bb-\JJ	.	.	.	.	.	.	.	.	.	.	.	.	.	.	.	.	.	.	.	.
8G\L	5	.	8g\Lyy	.	16dd\LL	.	16bb-\LL	.	4G\	-li-	4B-\	-li-	4b-\	-li-	4dd\	-li-	4BB-/	4b-\yy	2b-\yy	2dd\	2d\	.	2dd\	.	2bb-\	.	2ddd\
.	.	.	.	.	16dd\	.	16bb-\	.	.	.	.	.	.	.	.	.	.	.	.	.	.	.	.	.	.	.	.
8G\	.	.	8g\yy	.	16dd\	.	16bb-\	.	.	.	.	.	.	.	.	.	.	.	.	.	.	.	.	.	.	.	.
.	.	.	.	.	16dd\	.	16bb-\	.	.	.	.	.	.	.	.	.	.	.	.	.	.	.	.	.	.	.	.
8G\	.	.	8g\yy	.	16dd\	.	16bb-\	.	4G\	-us	4B-\	-us	4b-\	-us	4dd\	-us	4r	4ryy	.	.	.	.	.	.	.	.	.
.	.	.	.	.	16dd\	.	16bb-\	.	.	.	.	.	.	.	.	.	.	.	.	.	.	.	.	.	.	.	.
!	!	!	!LO:SIC:o:s:v:t=dorysowana pięciolinia i dwie półnuty	!	!	!	!	!	!	!	!	!	!	!	!	!	!	!	!	!	!	!	!	!	!	!	!
8G\J	.	.	8g\Jyy	.	16dd\	.	16bb-\	.	.	.	.	.	.	.	.	.	.	.	.	.	.	.	.	.	.	.	.
.	.	.	.	.	16dd\JJ	.	16bb-\JJ	.	.	.	.	.	.	.	.	.	.	.	.	.	.	.	.	.	.	.	.
*	*	*	*Xtremolo	*	*	*	*	*	*	*	*	*	*	*	*	*	*	*	*	*	*	*	*	*	*	*	*
!LO:LB:g=original	!	!	!	!	!	!	!	!	!	!	!	!	!	!	!	!	!LO:LB:g=original	!	!	!	!	!	!LO:LB:g=original	!	!	!	!
=72	=72	=72	=72	=72	=72	=72	=72	=72	=72	=72	=72	=72	=72	=72	=72	=72	=72	=72	=72	=72	=72	=72	=72	=72	=72	=72	=72
!	!	!	!LO:TX:t=P:problem:brak taktu:korekta ołówkiem	!	!	!	!	!	!	!	!	!	!	!	!	!	!	!	!	!	!	!	!	!	!	!	!
*	*	*	*tremolo	*	*	*	*	*	*	*	*	*	*	*	*	*	*	*	*	*	*	*	*	*	*	*	*
8E-\L	7	.	8e-\Lyy	.	16dd\LL	.	16bb-\LL	.	2E-\	Pa-	2B-\	pa-	2b-\	pa-	2dd\	pa-	4BB-/	4b-\	2b-\yy	2dd\	2d\	.	2dd\	.	2bb-\	.	2ddd\
.	.	.	.	.	16dd\	.	16bb-\	.	.	.	.	.	.	.	.	.	.	.	.	.	.	.	.	.	.	.	.
8E-\	.	.	8e-\yy	.	16dd\	.	16bb-\	.	.	.	.	.	.	.	.	.	.	.	.	.	.	.	.	.	.	.	.
.	.	.	.	.	16dd\	.	16bb-\	.	.	.	.	.	.	.	.	.	.	.	.	.	.	.	.	.	.	.	.
8E-\	.	.	8e-\yy	.	16dd\	.	16bb-\	.	.	.	.	.	.	.	.	.	4r	4r	.	.	.	.	.	.	.	.	.
.	.	.	.	.	16dd\	.	16bb-\	.	.	.	.	.	.	.	.	.	.	.	.	.	.	.	.	.	.	.	.
8E-\J	.	.	8e-\Jyy	.	16dd\	.	16bb-\	.	.	.	.	.	.	.	.	.	.	.	.	.	.	.	.	.	.	.	.
.	.	.	.	.	16dd\JJ	.	16bb-\JJ	.	.	.	.	.	.	.	.	.	.	.	.	.	.	.	.	.	.	.	.
8F\L	5	.	8f\Lyy	.	16cc\LL	.	16aa\LL	.	2F\	-tris	2c\	-tris	2a\	-tris	2cc\	-tris	4FF/	4f/	2f/yy	2cc\	2c\	.	2cc\	.	2aa\	.	2ccc\
.	.	.	.	.	16cc\	.	16aa\	.	.	.	.	.	.	.	.	.	.	.	.	.	.	.	.	.	.	.	.
8F\	.	.	8f\yy	.	16cc\	.	16aa\	.	.	.	.	.	.	.	.	.	.	.	.	.	.	.	.	.	.	.	.
.	.	.	.	.	16cc\	.	16aa\	.	.	.	.	.	.	.	.	.	.	.	.	.	.	.	.	.	.	.	.
8F\	.	.	8f\yy	.	16cc\	.	16aa\	.	.	.	.	.	.	.	.	.	4r	4r	.	.	.	.	.	.	.	.	.
.	.	.	.	.	16cc\	.	16aa\	.	.	.	.	.	.	.	.	.	.	.	.	.	.	.	.	.	.	.	.
8F\J	.	.	8f\Jyy	.	16cc\	.	16aa\	.	.	.	.	.	.	.	.	.	.	.	.	.	.	.	.	.	.	.	.
.	.	.	.	.	16cc\JJ	.	16aa\JJ	.	.	.	.	.	.	.	.	.	.	.	.	.	.	.	.	.	.	.	.
*Xtremolo	*	*	*Xtremolo	*	*Xtremolo	*	*Xtremolo	*	*	*	*	*	*	*	*	*	*	*	*	*	*	*	*	*	*	*	*
=73	=73	=73	=73	=73	=73	=73	=73	=73	=73	=73	=73	=73	=73	=73	=73	=73	=73	=73!|:	=73	=73	=73	=73	=73	=73	=73	=73	=73
4r	.	.	4r	.	4r	.	16bb-\LL	.	4B-\	fi-	4B-\	fi-	4d\	fi-	4b-\	fi-	4r	4b-\	4d/	4b-\	4d\	.	4dd\	.	4bb-\	.	4ddd\
.	.	.	.	.	.	.	16ccc\J	.	.	.	.	.	.	.	.	.	.	.	.	.	.	.	.	.	.	.	.
.	.	.	.	.	.	.	8ddd\J	.	.	.	.	.	.	.	.	.	.	.	.	.	.	.	.	.	.	.	.
4B-\	5 3	.	4f\	.	4dd/ 4f/ 4B-/	.	16bb-\LL	.	8B-\	-li-	8B-\	-li-	8d\	-li-	8b-\L	-li-	4BB-/	8b-\L	8d/L	8b-\L	8d\L	.	8dd\L	.	8bb-\L	.	8ddd\L
.	.	.	.	.	.	.	16ccc\J	.	.	.	.	.	.	.	.	.	.	.	.	.	.	.	.	.	.	.	.
.	.	.	.	.	.	.	8ddd\J	.	8B-\	-us	8B-\	-us	8d\	-us	8b-\J	us	.	8b-\J	8d/J	8b-\J	8d\J	.	8dd\J	.	8bb-\J	.	8ddd\J
4r	.	.	4r	.	4r	.	16ff\LL	.	4F\	Pa-	4f\	pa-	4e-\	pa-	4cc\	pa-	4r	4f/	4f/	4cc\	4c\	.	4cc\	.	4aa\	.	4ccc\
.	.	.	.	.	.	.	16gg\J	.	.	.	.	.	.	.	.	.	.	.	.	.	.	.	.	.	.	.	.
.	.	.	.	.	.	.	8aa\J	.	.	.	.	.	.	.	.	.	.	.	.	.	.	.	.	.	.	.	.
4F\	5 3	.	4f\	.	4cc/ 4f/ 4A/	.	16ff\LL	.	4F\	-tris	4f\	-tris	4e-\	-tris	4cc\	-tris	4FF/	8f/L	8f/L	8cc\L	8c\L	.	8cc\L	.	8aa\L	.	8ccc\L
.	.	.	.	.	.	.	16gg\J	.	.	.	.	.	.	.	.	.	.	.	.	.	.	.	.	.	.	.	.
.	.	.	.	.	.	.	8aa\J	.	.	.	.	.	.	.	.	.	.	8f/J	8f/J	8cc\J	8c\J	.	8cc\J	.	8aa\J	.	8ccc\J
!	!	!	!	!	!LO:LB:g=original	!	!	!	!	!	!	!	!	!	!	!	!	!	!	!	!	!	!	!	!	!	!LO:LB:g=original
=74	=74	=74	=74	=74	=74	=74	=74	=74	=74	=74	=74	=74	=74	=74	=74	=74	=74	=74:|!	=74	=74	=74	=74	=74	=74	=74	=74	=74
!	!	!	!	!	!	!	!	!	!	!	!	!	!	!	!	!	!	!LO:TX:t=P:problem:takt zapisany repetycją	!	!	!	!	!	!	!	!	!
*	*	*	*	*	*	*	*	*	*	*ij	*	*	*	*	*	*	*	*	*	*	*	*	*	*	*	*	*
4r	.	.	4r	.	4r	.	16bb-\LL	.	4B-\	fi-	4B-\	fi-	4f\	fi-	4dd\	fi-	4r	4b-\yy	4d/	4b-\	4d\	.	4dd\	.	4bb-\	.	4ddd\
.	.	.	.	.	.	.	16ccc\J	.	.	.	.	.	.	.	.	.	.	.	.	.	.	.	.	.	.	.	.
.	.	.	.	.	.	.	8ddd\J	.	.	.	.	.	.	.	.	.	.	.	.	.	.	.	.	.	.	.	.
4B-\	8 5 3	.	4f\	.	4dd/ 4f/ 4B-/	.	16bb-\LL	.	8B-\	-li-	8B-\	-li-	8f\	-li-	8dd\L	-li-	4BB-/	8b-\Lyy	8d/L	8b-\L	8d\L	.	8dd\L	.	8bb-\L	.	8ddd\L
.	.	.	.	.	.	.	16ccc\J	.	.	.	.	.	.	.	.	.	.	.	.	.	.	.	.	.	.	.	.
.	.	.	.	.	.	.	8ddd\J	.	8B-\	-us	8B-\	-us	8f\	-us	8dd\J	-us	.	8b-\Jyy	8d/J	8b-\J	8d\J	.	8dd\J	.	8bb-\J	.	8ddd\J
4r	.	.	4r	.	4r	.	16ff\LL	.	2F\	Pa-	2f\	pa-	2e-\	pa-	2cc\	pa-	4r	4f/yy	4f/	4cc\	4c\	.	4cc\	.	4aa\	.	4ccc\
.	.	.	.	.	.	.	16gg\J	.	.	.	.	.	.	.	.	.	.	.	.	.	.	.	.	.	.	.	.
.	.	.	.	.	.	.	8aa\J	.	.	.	.	.	.	.	.	.	.	.	.	.	.	.	.	.	.	.	.
!	!	!	!	!	!	!	!LO:LB:g=original	!	!	!	!	!	!	!	!	!	!	!	!	!	!	!	!	!	!	!	!
!	!	!	!	!	!	!	!	!	!	!	!	!	!	!	!	!	!	!	!LO:SIC:s:v==8g	!	!	!	!	!	!	!	!
4F\	x 5 3	.	4f\	.	4cc/ 4f/ 4A/	.	16ff\LL	.	.	.	.	.	.	.	.	.	4FF/	8f/Lyy	8g/L	8cc\L	8c\L	.	8cc\L	.	8aa\L	.	8ccc\L
.	.	.	.	.	.	.	16gg\J	.	.	.	.	.	.	.	.	.	.	.	.	.	.	.	.	.	.	.	.
!	!	!	!	!	!	!	!	!	!	!	!	!	!	!	!	!	!	!	!LO:SIC:s:v==8g	!	!	!	!	!	!	!	!
.	.	.	.	.	.	.	8aa\J	.	.	.	.	.	.	.	.	.	.	8f/Jyy	8g/J	8cc\J	8c\J	.	8cc\J	.	8aa\J	.	8ccc\J
!	!	!	!	!	!	!	!	!	!	!	!	!	!	!	!	!	!	!	!LO:LB:g=original	!	!	!	!	!	!	!	!
=75	=75	=75	=75	=75	=75	=75	=75	=75	=75	=75	=75	=75	=75	=75	=75	=75	=75	=75	=75	=75	=75	=75	=75	=75	=75	=75	=75
4BB-/	8 5 3	.	4f/ 4B-/	.	4dd/ 4f/ 4B-/	.	4bb-\	.	4BB-/	-tris	4f\	-tris	4d\	-tris.	4b-\	-tris	4BB-/	4b-\	4d/	4b-\	4d\	.	4dd\	.	4bb-\	.	4bb-\
*	*	*	*	*	*	*	*	*	*	*Xij	*	*	*	*	*	*	*	*	*	*	*	*	*	*	*	*	*
4r	.	.	4r	.	4r	.	4r	.	4r	.	4r	.	4r	.	4r	.	4r	4r	4r	4r	4r	.	4r	.	4r	.	4r
4BB-/	8 5 3	.	4f/ 4B-/	.	4dd/ 4f/ 4B-/	.	4bb-\ 4dd\ 4f\	.	2r	.	2r	.	2r	.	2r	.	4BB-/	4b-\	4d/	4b-\	4d\	.	4dd\	.	4bb-\	.	4bb-\
4BB-/	8 5 3	.	4f/ 4B-/	.	4dd/ 4f/ 4B-/	.	4bb-\ 4dd\ 4f\	.	.	.	.	.	.	.	.	.	4BB-/	4b-\	4d/	4b-\	4d\	.	4dd\	.	4bb-\	.	4bb-\
=76	=76	=76	=76	=76	=76	=76	=76	=76	=76	=76	=76	=76	=76	=76	=76	=76	=76	=76	=76	=76	=76	=76	=76	=76	=76	=76	=76
!	!	!	!	!	!	!	!	!	!LO:TX:a:t=1.	!	!LO:TX:a:t=1	!	!	!	!LO:TX:a:t=1.	!	!	!	!	!	!	!	!	!	!	!	!
2BB-/	8 5 3	.	2f/ 2B-/	.	2dd/ 2f/ 2B-/	.	2bb-\ 2dd\ 2f\	.	1r	.	1r;	.	1r	.	1r;	.	2BB-/	2b-\	2d/	2b-\	2d\	.	2dd\	.	2bb-\	.	2bb-\
!	!	!	!	!	!	!	!LO:TX:a:t=V&colon; Subito	!	!	!	!	!	!	!	!	!	!	!	!	!	!	!	!	!	!	!	!
2r	.	.	2r	.	2r	.	2r	.	.	.	.	.	.	.	.	.	2r	2r;	2r	4r	2r;	.	2r;	.	2r	.	2r
.	.	.	.	.	.	.	.	.	.	.	.	.	.	.	.	.	.	.	.	4r	.	.	.	.	.	.	.
==	==	==	==	==	==	==	==	==	==	==	==	==	==	==	==	==	==	==	==	==	==	==	==	==	==	==	==
*-	*-	*-	*-	*-	*-	*-	*-	*-	*-	*-	*-	*-	*-	*-	*-	*-	*-	*-	*-	*-	*-	*-	*-	*-	*-	*-	*-
!!!system-decoration: [(s1,s2,s3,s4)][(s5,s6,s7)]s8[(s9,s10,s11,s12)][(s13,s14,s15)][s16]
!!!RDF**kern: > = above
!!!RDF**kern: < = below
!!!ENC:Krzysztof Stępień
!!!END:2020-10-13
!!!ENC: Leszek Kubiak
!!!END: 2022-01-18
